; generated by Slic3r 1.3.1-dev (Build 4f5b935ecf1335755d607ec38395bd94106daa7f) on 2019-12-12 at 20:39:48

; external perimeters extrusion width = 0.44mm (2.22mm^3/s)
; perimeters extrusion width = 0.56mm (4.14mm^3/s)
; infill extrusion width = 0.50mm (4.11mm^3/s)
; solid infill extrusion width = 0.26mm (1.52mm^3/s)
; top infill extrusion width = 0.26mm (1.09mm^3/s)

M107
G92 E0
M190 S60 ; set bed temperature and wait for it to be reached
M104 S200 ; set temperature
G90                    ;absolute positioning
G28 ; home all axes
G1 Z5 F5000 ; lift nozzle

; Filament gcode

M109 S200 ; set temperature and wait for it to be reached
G21 ; set units to millimeters
G90 ; use absolute coordinates
M82 ; use absolute distances for extrusion
G92 E0
;LAYER 0 at 0.18mm
M117 printing layer 0 at 0.18mm
G1 Z0.180 F7800.000
G1 E-2.00000 F2400.00000
G92 E0
G1 X47.757 Y55.337 F7800.000
G1 E2.00000 F2400.00000
M201 X2000 Y2000
M204 P2000 T2000
G1 F1200.000
G1 X48.640 Y54.634 E2.01650
G1 X49.647 Y53.956 E2.03425
G1 X50.210 Y53.628 E2.04377
G1 X50.864 Y53.287 E2.05456
G1 X51.947 Y52.811 E2.07186
G1 X52.540 Y52.593 E2.08109
G1 X53.219 Y52.378 E2.09151
G1 X54.323 Y52.105 E2.10814
G1 X54.917 Y51.995 E2.11697
G1 X55.589 Y51.901 E2.12690
G1 X56.255 Y51.839 E2.13666
G1 X56.911 Y51.807 E2.14627
G1 X162.736 Y52.120 E3.69351
G1 X163.416 Y52.137 E3.70346
G1 X164.077 Y52.183 E3.71314
G1 X164.746 Y52.261 E3.72299
G1 X165.421 Y52.372 E3.73300
G1 X166.100 Y52.516 E3.74315
G1 X166.781 Y52.696 E3.75343
G1 X167.460 Y52.910 E3.76385
G1 X168.136 Y53.161 E3.77439
G1 X168.805 Y53.448 E3.78504
G1 X169.465 Y53.771 E3.79578
G1 X170.113 Y54.130 E3.80660
G1 X170.668 Y54.473 E3.81615
G1 X171.660 Y55.177 E3.83394
G1 X172.243 Y55.654 E3.84495
G1 X172.735 Y56.097 E3.85463
G1 X173.271 Y56.629 E3.86567
G1 X173.838 Y57.259 E3.87806
G1 X174.311 Y57.845 E3.88906
G1 X174.908 Y58.686 E3.90416
G1 X175.302 Y59.319 E3.91505
G1 X175.702 Y60.047 E3.92720
G1 X176.021 Y60.709 E3.93793
G1 X176.400 Y61.633 E3.95255
G1 X176.633 Y62.311 E3.96303
G1 X176.852 Y63.075 E3.97464
G1 X177.060 Y64.010 E3.98866
G1 X177.182 Y64.768 E3.99988
G1 X177.275 Y65.686 E4.01337
G1 X177.308 Y66.422 E4.02414
G1 X177.298 Y67.316 E4.03722
G1 X177.248 Y68.058 E4.04808
G1 X177.176 Y68.690 E4.05738
G1 X164.863 Y157.784 E5.37238
G1 X164.729 Y158.507 E5.38313
G1 X164.569 Y159.121 E5.39241
G1 X164.323 Y159.846 E5.40360
G1 X164.066 Y160.450 E5.41320
G1 X163.704 Y161.150 E5.42472
G1 X163.350 Y161.722 E5.43455
G1 X162.878 Y162.369 E5.44627
G1 X162.435 Y162.887 E5.45622
G1 X161.865 Y163.457 E5.46802
G1 X161.492 Y163.783 E5.47526
G1 X161.103 Y164.088 E5.48249
G1 X160.700 Y164.372 E5.48969
G1 X160.286 Y164.634 E5.49686
G1 X159.429 Y165.087 E5.51104
G1 X158.546 Y165.447 E5.52497
G1 X157.653 Y165.712 E5.53859
G1 X156.762 Y165.885 E5.55186
G1 X156.322 Y165.939 E5.55834
G1 X155.726 Y165.979 E5.56708
G1 X55.342 Y168.196 E7.03512
G1 X54.478 Y168.150 E7.04776
G1 X53.594 Y168.021 E7.06083
G1 X52.700 Y167.802 E7.07428
G1 X51.976 Y167.556 E7.08547
G1 X51.100 Y167.167 E7.09948
G1 X50.254 Y166.684 E7.11373
G1 X49.847 Y166.408 E7.12092
G1 X49.452 Y166.111 E7.12814
G1 X48.935 Y165.668 E7.13809
G1 X48.365 Y165.098 E7.14988
G1 X48.039 Y164.724 E7.15712
G1 X47.734 Y164.336 E7.16435
G1 X47.450 Y163.933 E7.17155
G1 X47.188 Y163.519 E7.17872
G1 X46.734 Y162.662 E7.19290
G1 X46.375 Y161.779 E7.20683
G1 X46.110 Y160.885 E7.22046
G1 X45.937 Y159.995 E7.23372
G1 X45.850 Y159.120 E7.24658
G1 X42.689 Y66.429 E8.60258
G1 X42.705 Y65.698 E8.61326
G1 X42.777 Y64.786 E8.62664
G1 X42.881 Y64.031 E8.63778
G1 X43.008 Y63.354 E8.64785
G1 X43.240 Y62.417 E8.66196
G1 X43.450 Y61.737 E8.67237
G1 X43.697 Y61.061 E8.68289
G1 X43.979 Y60.391 E8.69352
G1 X44.339 Y59.649 E8.70558
G1 X44.698 Y59.002 E8.71640
G1 X45.092 Y58.369 E8.72730
G1 X45.519 Y57.754 E8.73825
G1 X45.980 Y57.160 E8.74925
G1 X46.472 Y56.588 E8.76027
G1 X46.994 Y56.042 E8.77131
G1 X47.712 Y55.376 E8.78563
G1 X47.886 Y55.483 F7800.000
G1 F1200.000
G1 X48.757 Y54.790 E8.80191
G1 X49.748 Y54.124 E8.81936
G1 X50.306 Y53.798 E8.82881
G1 X50.951 Y53.462 E8.83945
G1 X52.017 Y52.993 E8.85647
G1 X52.605 Y52.777 E8.86563
G1 X53.275 Y52.565 E8.87591
G1 X54.361 Y52.296 E8.89226
G1 X54.950 Y52.187 E8.90103
G1 X55.614 Y52.095 E8.91082
G1 X56.270 Y52.033 E8.92046
G1 X56.917 Y52.003 E8.92993
G1 X162.735 Y52.316 E10.47707
G1 X163.405 Y52.332 E10.48687
G1 X164.057 Y52.378 E10.49642
G1 X164.717 Y52.454 E10.50614
G1 X165.383 Y52.563 E10.51601
G1 X166.053 Y52.706 E10.52602
G1 X166.725 Y52.883 E10.53617
G1 X167.395 Y53.095 E10.54645
G1 X168.062 Y53.342 E10.55685
G1 X168.722 Y53.625 E10.56735
G1 X169.373 Y53.943 E10.57795
G1 X170.012 Y54.297 E10.58863
G1 X170.564 Y54.638 E10.59811
G1 X171.539 Y55.331 E10.61560
G1 X172.114 Y55.801 E10.62646
G1 X172.602 Y56.241 E10.63607
G1 X173.131 Y56.766 E10.64696
G1 X173.688 Y57.384 E10.65912
G1 X174.154 Y57.962 E10.66998
G1 X174.746 Y58.795 E10.68493
G1 X175.135 Y59.420 E10.69568
G1 X175.528 Y60.135 E10.70761
G1 X175.842 Y60.787 E10.71820
G1 X176.218 Y61.703 E10.73267
G1 X176.447 Y62.372 E10.74301
G1 X176.662 Y63.122 E10.75442
G1 X176.868 Y64.048 E10.76829
G1 X176.988 Y64.793 E10.77932
G1 X177.081 Y65.702 E10.79268
G1 X177.113 Y66.425 E10.80326
G1 X177.103 Y67.310 E10.81620
G1 X177.054 Y68.038 E10.82687
G1 X176.982 Y68.663 E10.83607
G1 X164.670 Y157.753 E12.15100
G1 X164.538 Y158.467 E12.16162
G1 X164.383 Y159.063 E12.17063
G1 X164.139 Y159.778 E12.18168
G1 X163.890 Y160.365 E12.19099
G1 X163.533 Y161.056 E12.20237
G1 X163.190 Y161.611 E12.21191
G1 X162.723 Y162.250 E12.22348
G1 X162.294 Y162.752 E12.23314
G1 X161.730 Y163.315 E12.24478
G1 X161.365 Y163.634 E12.25188
G1 X160.984 Y163.933 E12.25896
G1 X160.183 Y164.467 E12.27303
G1 X159.343 Y164.912 E12.28692
G1 X158.479 Y165.263 E12.30057
G1 X157.603 Y165.522 E12.31391
G1 X156.731 Y165.692 E12.32691
G1 X156.300 Y165.745 E12.33326
G1 X155.721 Y165.784 E12.34174
G1 X55.346 Y168.001 E13.80964
G1 X54.500 Y167.956 E13.82203
G1 X53.634 Y167.829 E13.83483
G1 X52.759 Y167.616 E13.84801
G1 X52.044 Y167.372 E13.85905
G1 X51.185 Y166.991 E13.87278
G1 X50.356 Y166.518 E13.88674
G1 X49.572 Y165.956 E13.90085
G1 X49.070 Y165.526 E13.91051
G1 X48.507 Y164.963 E13.92215
G1 X48.188 Y164.597 E13.92925
G1 X47.889 Y164.216 E13.93633
G1 X47.354 Y163.416 E13.95040
G1 X46.910 Y162.576 E13.96429
G1 X46.559 Y161.711 E13.97794
G1 X46.299 Y160.836 E13.99128
G1 X46.130 Y159.964 E14.00427
G1 X46.045 Y159.107 E14.01687
G1 X42.887 Y66.671 E15.36914
G1 X42.897 Y65.785 E15.38208
G1 X42.946 Y65.057 E15.39276
G1 X43.061 Y64.143 E15.40622
G1 X43.182 Y63.475 E15.41615
G1 X43.358 Y62.725 E15.42741
G1 X43.553 Y62.054 E15.43763
G1 X43.879 Y61.131 E15.45194
G1 X44.158 Y60.470 E15.46244
G1 X44.512 Y59.741 E15.47427
G1 X44.865 Y59.102 E15.48495
G1 X45.254 Y58.478 E15.49570
G1 X45.676 Y57.871 E15.50651
G1 X46.130 Y57.285 E15.51736
G1 X46.616 Y56.721 E15.52824
G1 X47.130 Y56.182 E15.53913
G1 X47.841 Y55.523 E15.55330
G1 X48.015 Y55.630 F7800.000
G1 F1200.000
G1 X48.874 Y54.946 E15.56936
G1 X49.848 Y54.291 E15.58652
G1 X50.402 Y53.968 E15.59589
G1 X51.039 Y53.637 E15.60639
G1 X52.086 Y53.176 E15.62312
G1 X52.670 Y52.961 E15.63222
G1 X53.331 Y52.752 E15.64235
G1 X54.399 Y52.488 E15.65843
G1 X54.984 Y52.380 E15.66713
G1 X55.638 Y52.288 E15.67679
G1 X56.285 Y52.228 E15.68629
G1 X56.924 Y52.198 E15.69564
G1 X162.735 Y52.511 E17.24268
G1 X163.394 Y52.527 E17.25232
G1 X164.037 Y52.572 E17.26174
G1 X164.688 Y52.648 E17.27133
G1 X165.345 Y52.755 E17.28106
G1 X166.006 Y52.896 E17.29094
G1 X166.669 Y53.070 E17.30095
G1 X167.330 Y53.279 E17.31109
G1 X167.987 Y53.523 E17.32135
G1 X168.639 Y53.802 E17.33170
G1 X169.281 Y54.116 E17.34216
G1 X169.911 Y54.465 E17.35269
G1 X170.459 Y54.803 E17.36210
G1 X171.418 Y55.484 E17.37930
G1 X171.985 Y55.948 E17.39002
G1 X172.470 Y56.384 E17.39954
G1 X172.991 Y56.902 E17.41029
G1 X173.538 Y57.509 E17.42223
G1 X173.998 Y58.079 E17.43295
G1 X174.584 Y58.904 E17.44775
G1 X174.967 Y59.520 E17.45835
G1 X175.353 Y60.222 E17.47006
G1 X175.663 Y60.866 E17.48051
G1 X176.035 Y61.772 E17.49484
G1 X176.262 Y62.432 E17.50503
G1 X176.473 Y63.169 E17.51624
G1 X176.677 Y64.086 E17.52998
G1 X176.794 Y64.817 E17.54080
G1 X176.886 Y65.717 E17.55403
G1 X176.918 Y66.427 E17.56441
G1 X176.908 Y67.303 E17.57723
G1 X176.860 Y68.018 E17.58771
G1 X176.789 Y68.636 E17.59680
G1 X164.478 Y157.722 E18.91167
G1 X164.347 Y158.427 E18.92216
G1 X164.196 Y159.005 E18.93089
G1 X163.956 Y159.711 E18.94179
G1 X163.714 Y160.280 E18.95083
G1 X163.362 Y160.962 E18.96205
G1 X163.029 Y161.500 E18.97130
G1 X162.568 Y162.131 E18.98273
G1 X162.152 Y162.617 E18.99209
G1 X161.596 Y163.173 E19.00359
G1 X160.864 Y163.778 E19.01747
G1 X160.080 Y164.301 E19.03124
G1 X159.258 Y164.736 E19.04485
G1 X158.411 Y165.080 E19.05821
G1 X157.554 Y165.333 E19.07128
G1 X156.700 Y165.499 E19.08400
G1 X156.278 Y165.551 E19.09022
G1 X155.717 Y165.588 E19.09843
G1 X55.351 Y167.806 E20.56622
G1 X54.522 Y167.762 E20.57834
G1 X53.674 Y167.638 E20.59088
G1 X52.817 Y167.429 E20.60378
G1 X52.111 Y167.189 E20.61468
G1 X51.271 Y166.815 E20.62813
G1 X50.459 Y166.351 E20.64179
G1 X49.691 Y165.801 E20.65561
G1 X49.204 Y165.385 E20.66497
G1 X48.648 Y164.829 E20.67647
G1 X48.043 Y164.097 E20.69035
G1 X47.521 Y163.313 E20.70412
G1 X47.086 Y162.491 E20.71773
G1 X46.742 Y161.644 E20.73109
G1 X46.488 Y160.787 E20.74416
G1 X46.323 Y159.933 E20.75688
G1 X46.240 Y159.093 E20.76921
G1 X43.082 Y66.669 E22.12132
G1 X43.092 Y65.792 E22.13413
G1 X43.140 Y65.077 E22.14461
G1 X43.254 Y64.172 E22.15795
G1 X43.374 Y63.513 E22.16774
G1 X43.547 Y62.777 E22.17879
G1 X43.738 Y62.115 E22.18887
G1 X44.062 Y61.201 E22.20305
G1 X44.337 Y60.548 E22.21340
G1 X44.684 Y59.833 E22.22502
G1 X45.033 Y59.203 E22.23556
G1 X45.416 Y58.587 E22.24616
G1 X45.832 Y57.988 E22.25682
G1 X46.280 Y57.410 E22.26752
G1 X46.759 Y56.854 E22.27825
G1 X47.267 Y56.322 E22.28899
G1 X47.969 Y55.670 E22.30301
G1 E20.30301 F2400.00000
G92 E0
G1 X159.186 Y160.624 F7800.000
G1 E2.00000 F2400.00000
G1 F1200.000
G1 X158.731 Y160.994 E2.00858
G1 X158.243 Y161.313 E2.01710
G1 X157.733 Y161.577 E2.02550
G1 X157.208 Y161.785 E2.03375
G1 X156.678 Y161.937 E2.04182
G1 X156.150 Y162.035 E2.04967
G1 X155.632 Y162.081 E2.05727
G1 X155.125 Y162.081 E2.06468
G1 X154.607 Y162.035 E2.07229
G1 X154.079 Y161.937 E2.08014
G1 X153.549 Y161.785 E2.08820
G1 X153.024 Y161.577 E2.09646
G1 X152.513 Y161.313 E2.10486
G1 X152.026 Y160.994 E2.11337
G1 X151.570 Y160.624 E2.12196
G1 X151.154 Y160.208 E2.13056
G1 X150.784 Y159.752 E2.13914
G1 X150.465 Y159.265 E2.14766
G1 X150.201 Y158.754 E2.15606
G1 X149.993 Y158.230 E2.16431
G1 X149.841 Y157.699 E2.17238
G1 X149.744 Y157.171 E2.18023
G1 X149.697 Y156.653 E2.18784
G1 X149.697 Y156.146 E2.19524
G1 X149.744 Y155.628 E2.20285
G1 X149.841 Y155.100 E2.21070
G1 X149.993 Y154.570 E2.21877
G1 X150.201 Y154.045 E2.22702
G1 X150.465 Y153.535 E2.23542
G1 X150.784 Y153.048 E2.24393
G1 X151.154 Y152.592 E2.25252
G1 X151.570 Y152.176 E2.26112
G1 X152.026 Y151.806 E2.26971
G1 X152.513 Y151.487 E2.27822
G1 X153.024 Y151.223 E2.28662
G1 X153.549 Y151.015 E2.29487
G1 X154.079 Y150.863 E2.30294
G1 X154.607 Y150.765 E2.31079
G1 X155.125 Y150.718 E2.31840
G1 X155.632 Y150.718 E2.32581
G1 X156.150 Y150.765 E2.33341
G1 X156.678 Y150.863 E2.34126
G1 X157.208 Y151.015 E2.34933
G1 X157.733 Y151.223 E2.35758
G1 X158.243 Y151.487 E2.36598
G1 X158.731 Y151.806 E2.37450
G1 X159.186 Y152.176 E2.38308
G1 X159.602 Y152.592 E2.39168
G1 X159.972 Y153.048 E2.40027
G1 X160.291 Y153.535 E2.40878
G1 X160.555 Y154.045 E2.41718
G1 X160.763 Y154.570 E2.42544
G1 X160.915 Y155.100 E2.43350
G1 X161.013 Y155.628 E2.44135
G1 X161.060 Y156.146 E2.44896
G1 X161.060 Y156.653 E2.45637
G1 X161.013 Y157.171 E2.46397
G1 X160.915 Y157.699 E2.47182
G1 X160.763 Y158.230 E2.47989
G1 X160.555 Y158.754 E2.48814
G1 X160.291 Y159.265 E2.49654
G1 X159.972 Y159.752 E2.50506
G1 X159.602 Y160.208 E2.51364
G1 X159.229 Y160.582 E2.52137
G1 X159.324 Y160.762 F7800.000
G1 F1200.000
G1 X158.846 Y161.152 E2.53039
G1 X158.342 Y161.482 E2.53920
G1 X157.814 Y161.755 E2.54789
G1 X157.271 Y161.970 E2.55643
G1 X156.722 Y162.127 E2.56477
G1 X156.176 Y162.228 E2.57289
G1 X155.640 Y162.277 E2.58076
G1 X155.116 Y162.277 E2.58842
G1 X154.580 Y162.228 E2.59629
G1 X154.034 Y162.127 E2.60441
G1 X153.485 Y161.970 E2.61275
G1 X152.943 Y161.755 E2.62129
G1 X152.415 Y161.482 E2.62998
G1 X151.911 Y161.152 E2.63879
G1 X151.439 Y160.769 E2.64767
G1 X151.009 Y160.339 E2.65657
G1 X150.626 Y159.867 E2.66544
G1 X150.296 Y159.363 E2.67425
G1 X150.023 Y158.835 E2.68294
G1 X149.808 Y158.293 E2.69148
G1 X149.651 Y157.744 E2.69982
G1 X149.550 Y157.198 E2.70794
G1 X149.501 Y156.662 E2.71581
G1 X149.501 Y156.138 E2.72348
G1 X149.550 Y155.602 E2.73135
G1 X149.651 Y155.056 E2.73946
G1 X149.808 Y154.507 E2.74781
G1 X150.023 Y153.964 E2.75634
G1 X150.296 Y153.436 E2.76503
G1 X150.626 Y152.932 E2.77384
G1 X151.009 Y152.461 E2.78272
G1 X151.439 Y152.030 E2.79162
G1 X151.911 Y151.648 E2.80050
G1 X152.415 Y151.318 E2.80930
G1 X152.943 Y151.045 E2.81800
G1 X153.485 Y150.830 E2.82653
G1 X154.034 Y150.673 E2.83487
G1 X154.580 Y150.571 E2.84299
G1 X155.116 Y150.523 E2.85086
G1 X155.640 Y150.523 E2.85853
G1 X156.176 Y150.571 E2.86640
G1 X156.722 Y150.673 E2.87452
G1 X157.271 Y150.830 E2.88286
G1 X157.814 Y151.045 E2.89139
G1 X158.342 Y151.318 E2.90009
G1 X158.846 Y151.648 E2.90889
G1 X159.317 Y152.030 E2.91777
G1 X159.748 Y152.461 E2.92667
G1 X160.130 Y152.932 E2.93555
G1 X160.460 Y153.436 E2.94436
G1 X160.733 Y153.964 E2.95305
G1 X160.948 Y154.507 E2.96158
G1 X161.105 Y155.056 E2.96993
G1 X161.207 Y155.602 E2.97804
G1 X161.255 Y156.138 E2.98591
G1 X161.255 Y156.662 E2.99358
G1 X161.207 Y157.198 E3.00145
G1 X161.105 Y157.744 E3.00957
G1 X160.948 Y158.293 E3.01791
G1 X160.733 Y158.835 E3.02645
G1 X160.460 Y159.363 E3.03514
G1 X160.130 Y159.867 E3.04394
G1 X159.748 Y160.339 E3.05282
G1 X159.367 Y160.720 E3.06070
G1 X159.315 Y160.760 F7800.000
G1 X159.034 Y160.500 F7800.000
M201 X750 Y750
M204 P750 T750
G1 F1200.000
G1 X159.478 Y160.055 E3.06992
G1 X159.835 Y159.616 E3.07821
G1 X160.177 Y159.080 E3.08753
G1 X158.058 Y161.198 E3.13144
G1 X157.514 Y161.466 E3.14033
G1 X160.444 Y158.536 E3.20107
G1 X160.615 Y158.087 E3.20810
G1 X157.066 Y161.637 E3.28168
G1 X156.678 Y161.748 E3.28760
G1 X160.727 Y157.699 E3.37153
G1 X160.798 Y157.351 E3.37674
G1 X156.329 Y161.819 E3.46936
G1 X156.001 Y161.871 E3.47423
G1 X160.849 Y157.023 E3.57472
G1 X160.877 Y156.718 E3.57921
G1 X155.697 Y161.898 E3.68658
G1 X155.411 Y161.907 E3.69077
G1 X160.885 Y156.433 E3.80425
G1 X160.885 Y156.156 E3.80831
G1 X155.134 Y161.907 E3.92752
G1 X154.878 Y161.886 E3.93128
G1 X160.864 Y155.900 E4.05536
G1 X160.841 Y155.646 E4.05910
G1 X154.624 Y161.863 E4.18796
G1 X154.390 Y161.820 E4.19145
G1 X160.799 Y155.411 E4.32430
G1 X160.755 Y155.178 E4.32779
G1 X154.156 Y161.777 E4.46458
G1 X153.937 Y161.719 E4.46790
G1 X160.698 Y154.958 E4.60805
G1 X160.636 Y154.743 E4.61134
G1 X153.721 Y161.658 E4.75467
G1 X153.513 Y161.589 E4.75789
G1 X160.568 Y154.534 E4.90413
G1 X160.489 Y154.336 E4.90726
G1 X153.314 Y161.511 E5.05599
G1 X153.116 Y161.432 E5.05911
G1 X160.411 Y154.137 E5.21032
G1 X160.319 Y153.952 E5.21335
G1 X152.931 Y161.340 E5.36649
G1 X152.748 Y161.246 E5.36950
G1 X160.224 Y153.770 E5.52447
G1 X160.128 Y153.589 E5.52747
G1 X152.568 Y161.149 E5.68417
G1 X152.400 Y161.040 E5.68711
G1 X160.018 Y153.422 E5.84501
G1 X159.909 Y153.254 E5.84795
G1 X152.233 Y160.930 E6.00706
G1 X152.070 Y160.816 E6.00997
G1 X159.794 Y153.092 E6.17008
G1 X159.670 Y152.939 E6.17297
G1 X151.917 Y160.692 E6.33367
G1 X151.764 Y160.568 E6.33656
G1 X159.546 Y152.786 E6.49786
G1 X159.415 Y152.640 E6.50073
G1 X151.618 Y160.437 E6.66236
G1 X151.480 Y160.298 E6.66523
G1 X159.277 Y152.501 E6.82686
G1 X159.138 Y152.363 E6.82973
G1 X151.341 Y160.160 E6.99136
G1 X151.279 Y160.098 E6.99266
G1 X151.210 Y160.014 E6.99424
G1 X158.992 Y152.232 E7.15554
G1 X158.839 Y152.108 E7.15843
G1 X151.086 Y159.861 E7.31913
G1 X150.962 Y159.708 E7.32202
G1 X158.686 Y151.984 E7.48213
G1 X158.524 Y151.869 E7.48504
G1 X150.848 Y159.545 E7.64415
