; generated by Slic3r 1.3.1-dev (Build 4f5b935ecf1335755d607ec38395bd94106daa7f) on 2019-11-16 at 21:10:43

; external perimeters extrusion width = 0.44mm (2.22mm^3/s)
; perimeters extrusion width = 0.56mm (4.14mm^3/s)
; infill extrusion width = 0.50mm (4.11mm^3/s)
; solid infill extrusion width = 0.26mm (1.52mm^3/s)
; top infill extrusion width = 0.26mm (1.09mm^3/s)

M107
G92 E0
M190 S60 ; set bed temperature and wait for it to be reached
M104 S200 ; set temperature
G90                    ;absolute positioning
G28 ; home all axes
G1 Z5 F5000 ; lift nozzle

; Filament gcode

M109 S200 ; set temperature and wait for it to be reached
G21 ; set units to millimeters
G90 ; use absolute coordinates
M82 ; use absolute distances for extrusion
G92 E0
;LAYER 0 at 0.18mm
M117 printing layer 0 at 0.18mm
G1 Z0.180 F7800.000
G1 E-2.00000 F2400.00000
G92 E0
G1 X70.152 Y36.272 F7800.000
G1 E2.00000 F2400.00000
M201 X2000 Y2000
M204 P2000 T2000
G1 F1200.000
G1 X70.552 Y35.536 E2.01224
G1 X71.243 Y34.339 E2.03244
G1 X71.714 Y33.569 E2.04564
G1 X72.428 Y32.463 E2.06489
G1 X72.923 Y31.735 E2.07776
G1 X73.757 Y30.574 E2.09866
G1 X75.066 Y28.897 E2.12978
G1 X75.773 Y28.054 E2.14586
G1 X76.574 Y27.147 E2.16355
G1 X77.307 Y26.360 E2.17927
G1 X78.042 Y25.606 E2.19467
G1 X78.924 Y24.746 E2.21268
G1 X79.715 Y24.013 E2.22844
G1 X80.554 Y23.273 E2.24480
G1 X81.397 Y22.566 E2.26088
G1 X83.074 Y21.257 E2.29200
G1 X84.235 Y20.423 E2.31289
G1 X84.963 Y19.927 E2.32577
G1 X86.069 Y19.214 E2.34502
G1 X86.839 Y18.743 E2.35822
G1 X88.691 Y17.694 E2.38933
G1 X90.139 Y16.952 E2.41311
G1 X92.135 Y16.035 E2.44523
G1 X94.405 Y15.129 E2.48096
G1 X96.571 Y14.394 E2.51440
G1 X98.595 Y13.815 E2.54519
G1 X101.000 Y13.257 E2.58129
G1 X103.253 Y12.857 E2.61474
G1 X105.342 Y12.591 E2.64553
G1 X107.622 Y12.413 E2.67897
G1 X110.088 Y12.351 E2.71503
G1 X112.127 Y12.401 E2.74486
G1 X114.338 Y12.559 E2.77726
G1 X116.712 Y12.852 E2.81223
G1 X118.722 Y13.201 E2.84206
G1 X120.885 Y13.682 E2.87446
G1 X123.190 Y14.320 E2.90943
G1 X125.128 Y14.960 E2.93926
G1 X127.197 Y15.754 E2.97166
G1 X129.224 Y16.648 E3.00406
G1 X129.940 Y16.992 E3.01567
G1 X131.887 Y18.009 E3.04779
G1 X133.239 Y18.789 E3.07061
G1 X135.037 Y19.927 E3.10172
G1 X135.837 Y20.473 E3.11588
G1 X136.926 Y21.257 E3.13550
G1 X138.603 Y22.566 E3.16661
G1 X139.446 Y23.273 E3.18270
G1 X140.285 Y24.013 E3.19905
G1 X141.076 Y24.746 E3.21482
G1 X141.958 Y25.606 E3.23283
G1 X142.693 Y26.360 E3.24822
G1 X143.426 Y27.147 E3.26394
G1 X144.284 Y28.120 E3.28292
G1 X144.934 Y28.897 E3.29772
G1 X145.672 Y29.823 E3.31504
G1 X146.297 Y30.647 E3.33016
G1 X147.522 Y32.387 E3.36128
G1 X148.333 Y33.644 E3.38314
G1 X149.448 Y35.536 E3.41525
G1 X149.848 Y36.272 E3.42749
G1 X150.805 Y38.173 E3.45861
G1 X151.739 Y40.285 E3.49238
G1 X152.371 Y41.905 E3.51779
G1 X153.052 Y43.897 E3.54858
G1 X153.731 Y46.271 E3.58468
G1 X154.243 Y48.500 E3.61813
G1 X154.615 Y50.573 E3.64892
G1 X154.927 Y53.023 E3.68502
G1 X155.096 Y55.304 E3.71846
G1 X155.151 Y57.500 E3.75058
G1 X155.151 Y162.500 E5.28575
G1 X155.099 Y164.627 E5.31687
G1 X154.941 Y166.838 E5.34927
G1 X154.674 Y169.038 E5.38167
G1 X154.299 Y171.222 E5.41407
G1 X153.775 Y173.556 E5.44904
G1 X153.231 Y175.522 E5.47887
G1 X152.540 Y177.628 E5.51127
G1 X151.746 Y179.697 E5.54367
G1 X151.500 Y180.284 E5.55299
G1 X150.843 Y181.745 E5.57640
G1 X150.508 Y182.440 E5.58768
G1 X149.806 Y183.809 E5.61018
G1 X148.757 Y185.661 E5.64129
G1 X148.286 Y186.431 E5.65449
G1 X147.522 Y187.613 E5.67506
G1 X146.297 Y189.353 E5.70618
G1 X145.672 Y190.177 E5.72130
G1 X144.876 Y191.174 E5.73995
G1 X143.487 Y192.785 E5.77107
G1 X142.693 Y193.640 E5.78811
G1 X141.958 Y194.394 E5.80351
G1 X141.140 Y195.193 E5.82023
G1 X140.285 Y195.987 E5.83728
G1 X138.674 Y197.376 E5.86840
G1 X137.677 Y198.172 E5.88705
G1 X136.853 Y198.797 E5.90217
G1 X135.113 Y200.022 E5.93328
G1 X133.931 Y200.786 E5.95386
G1 X133.161 Y201.257 E5.96706
G1 X131.887 Y201.991 E5.98855
G1 X129.940 Y203.008 E6.02067
G1 X129.245 Y203.343 E6.03194
G1 X127.721 Y204.026 E6.05636
G1 X125.766 Y204.807 E6.08715
G1 X123.603 Y205.552 E6.12059
G1 X121.405 Y206.185 E6.15404
G1 X119.178 Y206.707 E6.18748
G1 X116.927 Y207.115 E6.22093
G1 X114.658 Y207.409 E6.25437
G1 X112.378 Y207.587 E6.28782
G1 X110.091 Y207.649 E6.32126
G1 X107.873 Y207.599 E6.35370
G1 X105.662 Y207.441 E6.38611
G1 X103.462 Y207.174 E6.41850
G1 X101.278 Y206.799 E6.45091
G1 X99.115 Y206.318 E6.48331
G1 X96.978 Y205.731 E6.51571
G1 X94.872 Y205.040 E6.54811
G1 X92.803 Y204.246 E6.58051
G1 X90.673 Y203.305 E6.61457
G1 X88.772 Y202.348 E6.64568
G1 X88.036 Y201.948 E6.65792
G1 X86.761 Y201.211 E6.67945
G1 X84.887 Y200.022 E6.71190
G1 X84.163 Y199.527 E6.72473
G1 X83.074 Y198.743 E6.74434
G1 X82.323 Y198.172 E6.75814
G1 X81.326 Y197.376 E6.77679
G1 X80.554 Y196.727 E6.79154
G1 X79.647 Y195.926 E6.80923
G1 X78.860 Y195.193 E6.82495
G1 X78.042 Y194.394 E6.84167
G1 X77.307 Y193.640 E6.85707
G1 X76.574 Y192.853 E6.87279
G1 X75.773 Y191.946 E6.89048
G1 X75.124 Y191.174 E6.90524
G1 X74.328 Y190.177 E6.92388
G1 X73.757 Y189.426 E6.93768
G1 X72.973 Y188.337 E6.95729
G1 X72.478 Y187.613 E6.97013
G1 X71.289 Y185.739 E7.00257
G1 X70.194 Y183.809 E7.03501
G1 X69.195 Y181.827 E7.06745
G1 X68.295 Y179.799 E7.09989
G1 X67.629 Y178.095 E7.12664
G1 X66.948 Y176.103 E7.15743
G1 X66.269 Y173.729 E7.19353
G1 X65.793 Y171.678 E7.22432
G1 X65.385 Y169.427 E7.25776
G1 X65.073 Y166.977 E7.29387
G1 X64.913 Y164.877 E7.32466
G1 X64.851 Y162.591 E7.35810
G1 X64.851 Y57.412 E8.89589
G1 X64.909 Y55.197 E8.92829
G1 X65.077 Y52.987 E8.96069
G1 X65.352 Y50.788 E8.99309
G1 X65.701 Y48.778 E9.02292
G1 X66.182 Y46.615 E9.05532
G1 X66.769 Y44.478 E9.08772
G1 X67.519 Y42.207 E9.12269
G1 X68.321 Y40.141 E9.15509
G1 X69.195 Y38.173 E9.18658
G1 X70.124 Y36.325 E9.21681
G1 X70.326 Y36.361 F7800.000
G1 F1200.000
G1 X70.721 Y35.634 E9.22891
G1 X71.412 Y34.437 E9.24912
G1 X71.878 Y33.675 E9.26217
G1 X72.592 Y32.569 E9.28142
G1 X73.084 Y31.845 E9.29422
G1 X73.913 Y30.692 E9.31498
G1 X75.219 Y29.018 E9.34602
G1 X75.920 Y28.183 E9.36197
G1 X76.718 Y27.280 E9.37958
G1 X77.447 Y26.496 E9.39523
G1 X78.182 Y25.742 E9.41063
G1 X79.057 Y24.889 E9.42849
G1 X79.844 Y24.160 E9.44418
G1 X80.683 Y23.420 E9.46054
G1 X81.518 Y22.719 E9.47649
G1 X83.192 Y21.413 E9.50753
G1 X84.345 Y20.584 E9.52828
G1 X85.069 Y20.092 E9.54109
G1 X86.175 Y19.378 E9.56033
G1 X86.937 Y18.912 E9.57339
G1 X88.785 Y17.866 E9.60443
G1 X90.224 Y17.128 E9.62808
G1 X92.215 Y16.213 E9.66012
G1 X94.468 Y15.314 E9.69558
G1 X96.624 Y14.582 E9.72888
G1 X98.649 Y14.002 E9.75967
G1 X101.035 Y13.449 E9.79548
G1 X103.278 Y13.051 E9.82878
G1 X105.367 Y12.785 E9.85957
G1 X107.637 Y12.608 E9.89287
G1 X110.083 Y12.546 E9.92864
G1 X112.123 Y12.596 E9.95847
G1 X114.323 Y12.754 E9.99073
G1 X116.678 Y13.045 E10.02542
G1 X118.689 Y13.393 E10.05525
G1 X120.842 Y13.873 E10.08751
G1 X123.129 Y14.506 E10.12220
G1 X125.066 Y15.146 E10.15203
G1 X127.126 Y15.936 E10.18429
G1 X129.145 Y16.826 E10.21655
G1 X129.851 Y17.165 E10.22800
G1 X131.793 Y18.181 E10.26004
G1 X133.137 Y18.956 E10.28272
G1 X134.931 Y20.092 E10.31377
G1 X135.723 Y20.632 E10.32779
G1 X136.808 Y21.413 E10.34732
G1 X138.482 Y22.719 E10.37837
G1 X139.317 Y23.420 E10.39431
G1 X140.156 Y24.160 E10.41067
G1 X140.943 Y24.889 E10.42636
G1 X141.818 Y25.742 E10.44423
G1 X142.553 Y26.496 E10.45962
G1 X143.282 Y27.280 E10.47528
G1 X144.134 Y28.246 E10.49411
G1 X144.781 Y29.018 E10.50883
G1 X145.520 Y29.945 E10.52615
G1 X146.138 Y30.761 E10.54114
G1 X147.361 Y32.498 E10.57218
G1 X148.166 Y33.745 E10.59390
G1 X149.279 Y35.634 E10.62594
G1 X149.674 Y36.361 E10.63804
G1 X150.629 Y38.257 E10.66908
G1 X151.557 Y40.356 E10.70264
G1 X152.186 Y41.968 E10.72793
G1 X152.867 Y43.960 E10.75872
G1 X153.541 Y46.315 E10.79453
G1 X154.017 Y48.367 E10.82532
G1 X154.423 Y50.608 E10.85862
G1 X154.732 Y53.038 E10.89443
G1 X154.901 Y55.309 E10.92773
G1 X154.955 Y57.500 E10.95978
G1 X154.955 Y162.500 E12.49495
G1 X154.904 Y164.623 E12.52599
G1 X154.746 Y166.823 E12.55825
G1 X154.480 Y169.014 E12.59051
G1 X154.107 Y171.189 E12.62277
G1 X153.587 Y173.504 E12.65747
G1 X152.994 Y175.629 E12.68973
G1 X152.354 Y177.566 E12.71955
G1 X151.564 Y179.626 E12.75181
G1 X151.320 Y180.209 E12.76104
G1 X150.665 Y181.665 E12.78439
G1 X150.335 Y182.351 E12.79552
G1 X149.634 Y183.715 E12.81795
G1 X148.588 Y185.563 E12.84899
G1 X148.122 Y186.325 E12.86205
G1 X147.361 Y187.502 E12.88255
G1 X146.138 Y189.239 E12.91359
G1 X145.520 Y190.055 E12.92858
G1 X144.727 Y191.048 E12.94715
G1 X143.340 Y192.656 E12.97820
G1 X142.553 Y193.504 E12.99510
G1 X141.818 Y194.258 E13.01050
G1 X141.004 Y195.053 E13.02715
G1 X140.156 Y195.840 E13.04406
G1 X138.548 Y197.227 E13.07510
G1 X137.555 Y198.020 E13.09368
G1 X136.739 Y198.638 E13.10866
G1 X135.002 Y199.861 E13.13970
G1 X133.825 Y200.622 E13.16020
G1 X133.063 Y201.088 E13.17326
G1 X131.793 Y201.819 E13.19468
G1 X129.851 Y202.835 E13.22673
G1 X129.165 Y203.165 E13.23786
G1 X127.649 Y203.845 E13.26215
G1 X125.693 Y204.626 E13.29294
G1 X123.540 Y205.367 E13.32624
G1 X121.351 Y205.998 E13.35954
G1 X119.133 Y206.517 E13.39284
G1 X116.892 Y206.923 E13.42614
G1 X114.633 Y207.215 E13.45944
G1 X112.363 Y207.392 E13.49274
G1 X110.086 Y207.454 E13.52604
G1 X107.877 Y207.404 E13.55834
G1 X105.677 Y207.246 E13.59060
G1 X103.486 Y206.980 E13.62286
G1 X101.311 Y206.607 E13.65512
G1 X99.158 Y206.127 E13.68738
G1 X97.030 Y205.543 E13.71964
G1 X94.934 Y204.854 E13.75190
G1 X92.874 Y204.064 E13.78416
G1 X90.757 Y203.129 E13.81799
G1 X88.861 Y202.174 E13.84904
G1 X88.134 Y201.779 E13.86113
G1 X86.863 Y201.044 E13.88260
G1 X84.998 Y199.861 E13.91490
G1 X84.277 Y199.368 E13.92766
G1 X83.192 Y198.587 E13.94720
G1 X82.445 Y198.020 E13.96092
G1 X81.452 Y197.227 E13.97950
G1 X80.683 Y196.580 E13.99419
G1 X79.780 Y195.782 E14.01180
G1 X78.996 Y195.053 E14.02745
G1 X78.242 Y194.318 E14.04285
G1 X77.447 Y193.504 E14.05950
G1 X76.718 Y192.720 E14.07515
G1 X75.920 Y191.817 E14.09276
G1 X75.273 Y191.048 E14.10745
G1 X74.480 Y190.055 E14.12603
G1 X73.913 Y189.308 E14.13975
G1 X73.132 Y188.223 E14.15929
G1 X72.639 Y187.502 E14.17206
G1 X71.456 Y185.637 E14.20436
G1 X70.366 Y183.715 E14.23666
G1 X69.371 Y181.743 E14.26896
G1 X68.475 Y179.723 E14.30126
G1 X67.814 Y178.032 E14.32780
G1 X67.133 Y176.040 E14.35859
G1 X66.459 Y173.685 E14.39440
G1 X65.983 Y171.633 E14.42519
G1 X65.577 Y169.392 E14.45849
G1 X65.268 Y166.962 E14.49431
G1 X65.108 Y164.863 E14.52510
G1 X65.046 Y162.586 E14.55840
G1 X65.046 Y57.417 E16.09604
G1 X65.104 Y55.211 E16.12830
G1 X65.270 Y53.011 E16.16056
G1 X65.545 Y50.822 E16.19282
G1 X65.893 Y48.811 E16.22265
G1 X66.373 Y46.658 E16.25491
G1 X66.957 Y44.530 E16.28717
G1 X67.702 Y42.277 E16.32186
G1 X68.500 Y40.220 E16.35412
G1 X69.371 Y38.257 E16.38552
G1 X70.298 Y36.414 E16.41569
G1 X70.500 Y36.450 F7800.000
G1 F1200.000
G1 X70.891 Y35.732 E16.42764
G1 X71.581 Y34.535 E16.44785
G1 X72.042 Y33.781 E16.46076
G1 X72.756 Y32.675 E16.48001
G1 X73.246 Y31.955 E16.49274
G1 X74.068 Y30.810 E16.51335
G1 X75.372 Y29.140 E16.54432
G1 X76.066 Y28.312 E16.56012
G1 X76.861 Y27.413 E16.57767
G1 X77.586 Y26.633 E16.59325
G1 X78.322 Y25.879 E16.60864
G1 X79.190 Y25.032 E16.62637
G1 X79.973 Y24.306 E16.64199
G1 X80.812 Y23.566 E16.65834
G1 X81.640 Y22.872 E16.67414
G1 X83.310 Y21.568 E16.70512
G1 X84.455 Y20.746 E16.72573
G1 X85.175 Y20.256 E16.73846
G1 X86.281 Y19.542 E16.75771
G1 X87.035 Y19.081 E16.77062
G1 X88.878 Y18.037 E16.80160
G1 X90.309 Y17.304 E16.82509
G1 X92.295 Y16.391 E16.85707
G1 X94.531 Y15.499 E16.89226
G1 X96.524 Y14.818 E16.92305
G1 X98.703 Y14.190 E16.95620
G1 X101.069 Y13.641 E16.99172
G1 X103.142 Y13.270 E17.02251
G1 X105.391 Y12.979 E17.05567
G1 X107.652 Y12.803 E17.08883
G1 X110.078 Y12.741 E17.12431
G1 X112.118 Y12.791 E17.15414
G1 X114.309 Y12.949 E17.18626
G1 X116.645 Y13.237 E17.22067
G1 X118.655 Y13.586 E17.25050
G1 X120.799 Y14.063 E17.28262
G1 X123.068 Y14.691 E17.31703
G1 X125.153 Y15.384 E17.34915
G1 X127.056 Y16.118 E17.37898
G1 X129.066 Y17.005 E17.41110
G1 X129.762 Y17.339 E17.42238
G1 X131.700 Y18.352 E17.45436
G1 X133.035 Y19.123 E17.47689
G1 X134.825 Y20.256 E17.50787
G1 X135.609 Y20.791 E17.52174
G1 X136.690 Y21.568 E17.54121
G1 X138.360 Y22.872 E17.57218
G1 X139.188 Y23.566 E17.58799
G1 X140.027 Y24.306 E17.60434
G1 X140.810 Y25.032 E17.61996
G1 X141.678 Y25.879 E17.63769
G1 X142.414 Y26.633 E17.65308
G1 X143.139 Y27.413 E17.66866
G1 X143.985 Y28.372 E17.68735
G1 X144.628 Y29.140 E17.70201
G1 X145.367 Y30.066 E17.71933
G1 X145.980 Y30.875 E17.73417
G1 X147.199 Y32.608 E17.76514
G1 X148.000 Y33.847 E17.78672
G1 X149.109 Y35.732 E17.81869
G1 X149.500 Y36.450 E17.83064
G1 X150.453 Y38.342 E17.86162
G1 X151.140 Y39.867 E17.88608
G1 X151.952 Y41.898 E17.91805
G1 X152.730 Y44.178 E17.95328
G1 X153.310 Y46.203 E17.98407
G1 X153.826 Y48.411 E18.01722
G1 X154.255 Y50.802 E18.05274
G1 X154.521 Y52.891 E18.08353
G1 X154.697 Y55.152 E18.11669
G1 X154.760 Y57.500 E18.15103
G1 X154.760 Y162.500 E19.68620
G1 X154.709 Y164.618 E19.71717
G1 X154.551 Y166.809 E19.74929
G1 X154.286 Y168.990 E19.78141
G1 X153.914 Y171.155 E19.81353
G1 X153.398 Y173.452 E19.84795
G1 X152.854 Y175.418 E19.87777
G1 X152.169 Y177.505 E19.90989
G1 X151.382 Y179.556 E19.94201
G1 X151.140 Y180.133 E19.95115
G1 X150.487 Y181.584 E19.97443
G1 X150.161 Y182.262 E19.98542
G1 X149.463 Y183.622 E20.00777
G1 X148.419 Y185.465 E20.03875
G1 X147.958 Y186.219 E20.05166
G1 X147.199 Y187.392 E20.07209
G1 X145.980 Y189.125 E20.10307
G1 X145.367 Y189.934 E20.11791
G1 X144.577 Y190.923 E20.13641
G1 X143.194 Y192.527 E20.16738
G1 X142.414 Y193.367 E20.18415
G1 X141.621 Y194.178 E20.20073
G1 X140.867 Y194.914 E20.21612
G1 X140.027 Y195.693 E20.23289
G1 X138.423 Y197.077 E20.26386
G1 X137.434 Y197.867 E20.28237
G1 X136.625 Y198.480 E20.29720
G1 X134.892 Y199.699 E20.32818
G1 X133.719 Y200.458 E20.34861
G1 X132.965 Y200.919 E20.36152
G1 X131.700 Y201.648 E20.38287
G1 X129.762 Y202.661 E20.41485
G1 X129.084 Y202.987 E20.42584
G1 X127.577 Y203.663 E20.45000
G1 X125.621 Y204.445 E20.48079
G1 X123.322 Y205.230 E20.51631
G1 X121.297 Y205.810 E20.54710
G1 X119.089 Y206.326 E20.58026
G1 X116.858 Y206.730 E20.61342
G1 X114.609 Y207.021 E20.64657
G1 X112.348 Y207.197 E20.67973
G1 X110.081 Y207.259 E20.71288
G1 X107.882 Y207.209 E20.74504
G1 X105.691 Y207.051 E20.77716
G1 X103.510 Y206.786 E20.80928
G1 X101.345 Y206.414 E20.84140
G1 X99.201 Y205.937 E20.87352
G1 X97.082 Y205.354 E20.90564
G1 X94.995 Y204.669 E20.93776
G1 X92.944 Y203.882 E20.96988
G1 X90.842 Y202.953 E21.00348
G1 X88.950 Y202.000 E21.03445
G1 X88.232 Y201.609 E21.04640
G1 X86.965 Y200.877 E21.06779
G1 X85.108 Y199.699 E21.09995
G1 X84.391 Y199.209 E21.11265
G1 X83.310 Y198.432 E21.13211
G1 X82.566 Y197.867 E21.14577
G1 X81.577 Y197.077 E21.16427
G1 X80.812 Y196.434 E21.17889
G1 X79.913 Y195.639 E21.19643
G1 X79.133 Y194.914 E21.21201
G1 X78.322 Y194.121 E21.22859
G1 X77.586 Y193.367 E21.24399
G1 X76.861 Y192.587 E21.25957
G1 X76.066 Y191.688 E21.27711
G1 X75.423 Y190.923 E21.29173
G1 X74.633 Y189.934 E21.31023
G1 X74.068 Y189.190 E21.32389
G1 X73.291 Y188.109 E21.34335
G1 X72.801 Y187.392 E21.35605
G1 X71.623 Y185.535 E21.38820
G1 X70.537 Y183.622 E21.42036
G1 X69.547 Y181.658 E21.45252
G1 X68.655 Y179.648 E21.48468
G1 X67.999 Y177.969 E21.51102
G1 X67.270 Y175.822 E21.54418
G1 X66.690 Y173.797 E21.57497
G1 X66.174 Y171.589 E21.60812
G1 X65.770 Y169.358 E21.64128
G1 X65.463 Y166.948 E21.67680
G1 X65.303 Y164.848 E21.70759
G1 X65.241 Y162.581 E21.74075
G1 X65.241 Y57.422 E23.27825
G1 X65.299 Y55.225 E23.31037
G1 X65.464 Y53.035 E23.34249
G1 X65.737 Y50.855 E23.37461
G1 X66.086 Y48.845 E23.40444
G1 X66.563 Y46.701 E23.43656
G1 X67.146 Y44.582 E23.46868
G1 X67.884 Y42.347 E23.50309
G1 X68.678 Y40.299 E23.53521
G1 X69.547 Y38.342 E23.56652
G1 X70.472 Y36.503 E23.59661
G1 E21.59661 F2400.00000
G92 E0
G1 X150.270 Y48.602 F7800.000
G1 E2.00000 F2400.00000
G1 F1200.000
G1 X150.408 Y49.196 E2.00891
G1 X150.776 Y51.253 E2.03947
G1 X151.040 Y53.327 E2.07003
G1 X151.199 Y55.411 E2.10059
G1 X151.252 Y57.504 E2.13120
G1 X151.252 Y162.496 E3.66626
