; generated by Slic3r 1.3.0 on 2019-01-30 at 20:29:14

; external perimeters extrusion width = 0.44mm (2.22mm^3/s)
; perimeters extrusion width = 0.56mm (4.14mm^3/s)
; infill extrusion width = 0.50mm (4.11mm^3/s)
; solid infill extrusion width = 0.26mm (1.52mm^3/s)
; top infill extrusion width = 0.26mm (1.09mm^3/s)

M107
M190 S60 ; set bed temperature and wait for it to be reached
M104 S200 ; set temperature
G90                    ;absolute positioning
G28 ; home all axes
G1 Z5 F5000 ; lift nozzle

; Filament gcode

M109 S200 ; set temperature and wait for it to be reached
G21 ; set units to millimeters
G90 ; use absolute coordinates
M82 ; use absolute distances for extrusion
G92 E0
;LAYER 0 at 0.18mm
M117 printing layer 0 at 0.18mm
G1 Z0.180 F7800.000
G1 E-2.00000 F2400.00000
G92 E0
G1 X96.257 Y96.354 F7800.000
G1 E2.00000 F2400.00000
M201 X2000 Y2000
M204 P2000 T2000
G1 F1200
G1 X96.792 Y95.835 E2.01089
G1 X97.602 Y95.121 E2.02668
G1 X98.184 Y94.655 E2.03757
G1 X99.058 Y94.020 E2.05337
G1 X99.680 Y93.611 E2.06426
G1 X100.729 Y92.996 E2.08204
G1 X101.692 Y92.505 E2.09784
G1 X102.372 Y92.198 E2.10874
G1 X103.375 Y91.801 E2.12452
G1 X104.080 Y91.560 E2.13542
G1 X105.118 Y91.258 E2.15121
G1 X105.843 Y91.084 E2.16212
G1 X107.038 Y90.861 E2.17989
G1 X108.109 Y90.725 E2.19568
G1 X108.851 Y90.667 E2.20657
G1 X109.931 Y90.633 E2.22237
G1 X110.677 Y90.645 E2.23326
G1 X111.755 Y90.712 E2.24905
G1 X112.495 Y90.794 E2.25995
G1 X113.695 Y90.989 E2.27772
G1 X114.751 Y91.225 E2.29354
G1 X115.469 Y91.421 E2.30443
G1 X116.495 Y91.755 E2.32020
G1 X117.193 Y92.018 E2.33111
G1 X118.184 Y92.447 E2.34689
G1 X118.854 Y92.775 E2.35779
G1 X119.800 Y93.295 E2.37358
G1 X120.829 Y93.943 E2.39136
G1 X121.440 Y94.372 E2.40227
G1 X122.292 Y95.034 E2.41805
G1 X122.859 Y95.518 E2.42896
G1 X123.646 Y96.257 E2.44473
G1 X124.165 Y96.792 E2.45563
G1 X124.879 Y97.602 E2.47143
G1 X125.345 Y98.184 E2.48231
G1 X125.980 Y99.058 E2.49811
G1 X126.389 Y99.681 E2.50901
G1 X127.005 Y100.730 E2.52679
G1 X127.495 Y101.692 E2.54258
G1 X127.802 Y102.372 E2.55348
G1 X128.199 Y103.375 E2.56926
G1 X128.440 Y104.080 E2.58016
G1 X128.742 Y105.118 E2.59595
G1 X128.916 Y105.843 E2.60686
G1 X129.118 Y106.903 E2.62263
G1 X129.274 Y108.103 E2.64033
G1 X129.333 Y108.852 E2.65132
G1 X129.367 Y109.931 E2.66711
G1 X129.355 Y110.677 E2.67801
G1 X129.287 Y111.755 E2.69381
G1 X129.139 Y112.962 E2.71158
G1 X129.011 Y113.696 E2.72247
G1 X128.775 Y114.751 E2.73828
G1 X128.579 Y115.470 E2.74917
G1 X128.245 Y116.496 E2.76495
G1 X127.982 Y117.193 E2.77585
G1 X127.553 Y118.184 E2.79163
G1 X127.225 Y118.854 E2.80253
G1 X126.705 Y119.800 E2.81832
G1 X126.057 Y120.829 E2.83610
G1 X125.628 Y121.440 E2.84701
G1 X124.966 Y122.292 E2.86279
G1 X124.482 Y122.859 E2.87370
G1 X123.743 Y123.646 E2.88947
G1 X123.208 Y124.164 E2.90036
G1 X122.398 Y124.879 E2.91616
G1 X121.816 Y125.345 E2.92705
G1 X120.942 Y125.980 E2.94285
G1 X120.315 Y126.392 E2.95383
G1 X119.271 Y127.004 E2.97152
G1 X118.308 Y127.495 E2.98732
G1 X117.628 Y127.802 E2.99822
G1 X116.625 Y128.199 E3.01400
G1 X115.920 Y128.440 E3.02490
G1 X114.882 Y128.742 E3.04069
G1 X114.157 Y128.916 E3.05160
G1 X112.962 Y129.139 E3.06938
G1 X111.891 Y129.275 E3.08516
G1 X111.149 Y129.333 E3.09604
G1 X110.069 Y129.367 E3.11184
G1 X109.323 Y129.355 E3.12275
G1 X108.110 Y129.275 E3.14053
G1 X107.038 Y129.139 E3.15632
G1 X106.304 Y129.011 E3.16721
G1 X105.249 Y128.775 E3.18302
G1 X104.530 Y128.579 E3.19391
G1 X103.505 Y128.245 E3.20968
G1 X102.807 Y127.982 E3.22058
G1 X101.816 Y127.553 E3.23637
G1 X101.146 Y127.225 E3.24727
G1 X100.200 Y126.705 E3.26306
G1 X99.171 Y126.057 E3.28084
G1 X98.561 Y125.628 E3.29175
G1 X97.708 Y124.966 E3.30753
G1 X97.141 Y124.482 E3.31843
G1 X96.354 Y123.743 E3.33421
G1 X95.835 Y123.208 E3.34511
G1 X95.121 Y122.398 E3.36090
G1 X94.655 Y121.816 E3.37179
G1 X94.020 Y120.942 E3.38759
G1 X93.611 Y120.319 E3.39849
G1 X92.995 Y119.270 E3.41627
G1 X92.505 Y118.308 E3.43206
G1 X92.198 Y117.628 E3.44296
G1 X91.801 Y116.625 E3.45874
G1 X91.560 Y115.920 E3.46964
G1 X91.258 Y114.882 E3.48543
G1 X91.084 Y114.157 E3.49633
G1 X90.882 Y113.097 E3.51212
G1 X90.725 Y111.891 E3.52990
G1 X90.667 Y111.148 E3.54080
G1 X90.633 Y110.068 E3.55660
G1 X90.645 Y109.323 E3.56749
G1 X90.712 Y108.245 E3.58327
G1 X90.794 Y107.505 E3.59417
G1 X90.989 Y106.304 E3.61195
G1 X91.225 Y105.248 E3.62777
G1 X91.421 Y104.531 E3.63865
G1 X91.755 Y103.505 E3.65442
G1 X92.018 Y102.807 E3.66532
G1 X92.447 Y101.816 E3.68111
G1 X92.775 Y101.146 E3.69201
G1 X93.295 Y100.200 E3.70780
G1 X93.685 Y99.565 E3.71870
G1 X94.291 Y98.672 E3.73448
G1 X94.739 Y98.076 E3.74538
G1 X95.427 Y97.244 E3.76117
G1 X96.215 Y96.397 E3.77808
G1 X96.397 Y96.490 F7800.000
G1 F1200
G1 X96.923 Y95.980 E3.78879
G1 X97.729 Y95.270 E3.80450
G1 X98.301 Y94.812 E3.81521
G1 X99.170 Y94.180 E3.83091
G1 X99.788 Y93.775 E3.84171
G1 X100.821 Y93.168 E3.85923
G1 X101.778 Y92.681 E3.87493
G1 X102.446 Y92.379 E3.88566
G1 X103.444 Y91.984 E3.90134
G1 X104.138 Y91.747 E3.91206
G1 X105.169 Y91.447 E3.92777
G1 X105.882 Y91.276 E3.93849
G1 X107.065 Y91.054 E3.95609
G1 X108.131 Y90.920 E3.97179
G1 X108.861 Y90.862 E3.98249
G1 X109.934 Y90.828 E3.99820
G1 X110.667 Y90.840 E4.00892
G1 X111.739 Y90.907 E4.02462
G1 X112.474 Y90.988 E4.03542
G1 X113.656 Y91.180 E4.05294
G1 X114.705 Y91.415 E4.06866
G1 X115.412 Y91.608 E4.07937
G1 X116.432 Y91.939 E4.09505
G1 X117.118 Y92.199 E4.10578
G1 X118.104 Y92.625 E4.12147
G1 X118.762 Y92.948 E4.13220
G1 X119.703 Y93.465 E4.14789
G1 X120.722 Y94.107 E4.16550
G1 X121.322 Y94.528 E4.17623
G1 X122.170 Y95.186 E4.19191
G1 X122.728 Y95.663 E4.20264
G1 X123.510 Y96.397 E4.21833
G1 X124.020 Y96.923 E4.22904
G1 X124.731 Y97.729 E4.24475
G1 X125.188 Y98.301 E4.25546
G1 X125.820 Y99.170 E4.27117
G1 X126.222 Y99.783 E4.28188
G1 X126.832 Y100.821 E4.29949
G1 X127.319 Y101.778 E4.31519
G1 X127.621 Y102.446 E4.32591
G1 X128.016 Y103.444 E4.34160
G1 X128.253 Y104.138 E4.35232
G1 X128.553 Y105.169 E4.36802
G1 X128.724 Y105.882 E4.37875
G1 X128.925 Y106.936 E4.39443
G1 X129.080 Y108.125 E4.41195
G1 X129.138 Y108.862 E4.42276
G1 X129.172 Y109.934 E4.43846
G1 X129.160 Y110.668 E4.44918
G1 X129.093 Y111.740 E4.46489
G1 X128.946 Y112.934 E4.48248
G1 X128.820 Y113.656 E4.49320
G1 X128.585 Y114.705 E4.50891
G1 X128.392 Y115.412 E4.51962
G1 X128.060 Y116.433 E4.53531
G1 X127.801 Y117.118 E4.54603
G1 X127.375 Y118.104 E4.56173
G1 X127.052 Y118.762 E4.57245
G1 X126.535 Y119.703 E4.58815
G1 X125.893 Y120.722 E4.60575
G1 X125.471 Y121.322 E4.61648
G1 X124.814 Y122.170 E4.63217
G1 X124.337 Y122.728 E4.64290
G1 X123.603 Y123.510 E4.65858
G1 X123.077 Y124.020 E4.66929
G1 X122.271 Y124.730 E4.68500
G1 X121.699 Y125.188 E4.69571
G1 X120.830 Y125.820 E4.71142
G1 X120.218 Y126.222 E4.72213
G1 X119.180 Y126.831 E4.73973
G1 X118.222 Y127.319 E4.75544
G1 X117.554 Y127.621 E4.76616
G1 X116.556 Y128.016 E4.78185
G1 X115.862 Y128.253 E4.79257
G1 X114.831 Y128.553 E4.80827
G1 X114.118 Y128.724 E4.81900
G1 X112.934 Y128.946 E4.83660
G1 X111.869 Y129.080 E4.85230
G1 X111.139 Y129.138 E4.86300
G1 X110.066 Y129.172 E4.87871
G1 X109.332 Y129.160 E4.88943
G1 X108.131 Y129.080 E4.90703
G1 X107.066 Y128.946 E4.92273
G1 X106.344 Y128.820 E4.93345
G1 X105.295 Y128.585 E4.94916
G1 X104.588 Y128.392 E4.95988
G1 X103.568 Y128.061 E4.97556
G1 X102.882 Y127.801 E4.98628
G1 X101.896 Y127.375 E5.00198
G1 X101.238 Y127.052 E5.01270
G1 X100.297 Y126.535 E5.02840
G1 X99.278 Y125.893 E5.04600
G1 X98.678 Y125.472 E5.05673
G1 X97.830 Y124.814 E5.07242
G1 X97.272 Y124.337 E5.08315
G1 X96.490 Y123.603 E5.09883
G1 X95.980 Y123.077 E5.10955
G1 X95.270 Y122.271 E5.12526
G1 X94.812 Y121.699 E5.13597
G1 X94.180 Y120.830 E5.15167
G1 X93.778 Y120.217 E5.16239
G1 X93.168 Y119.179 E5.18000
G1 X92.681 Y118.222 E5.19569
G1 X92.379 Y117.554 E5.20642
G1 X91.984 Y116.556 E5.22211
G1 X91.747 Y115.862 E5.23282
G1 X91.447 Y114.831 E5.24853
G1 X91.276 Y114.118 E5.25925
G1 X91.075 Y113.063 E5.27494
G1 X90.920 Y111.869 E5.29255
G1 X90.862 Y111.138 E5.30327
G1 X90.828 Y110.065 E5.31897
G1 X90.840 Y109.332 E5.32968
G1 X90.907 Y108.261 E5.34538
G1 X90.988 Y107.532 E5.35610
G1 X91.180 Y106.344 E5.37370
G1 X91.415 Y105.294 E5.38943
G1 X91.608 Y104.588 E5.40013
G1 X91.939 Y103.568 E5.41581
G1 X92.199 Y102.882 E5.42654
G1 X92.625 Y101.896 E5.44223
G1 X92.948 Y101.238 E5.45296
G1 X93.465 Y100.297 E5.46865
G1 X93.848 Y99.672 E5.47937
G1 X94.451 Y98.784 E5.49507
G1 X94.891 Y98.198 E5.50578
G1 X95.576 Y97.371 E5.52148
G1 X96.356 Y96.533 E5.53822
G1 X96.538 Y96.626 F7800.000
G1 F1200
G1 X97.055 Y96.124 E5.54875
G1 X97.856 Y95.418 E5.56436
G1 X98.418 Y94.968 E5.57489
G1 X99.282 Y94.340 E5.59051
G1 X99.890 Y93.941 E5.60114
G1 X100.912 Y93.341 E5.61847
G1 X101.864 Y92.856 E5.63408
G1 X102.521 Y92.559 E5.64463
G1 X103.513 Y92.167 E5.66022
G1 X104.195 Y91.933 E5.67076
G1 X105.221 Y91.635 E5.68638
G1 X105.922 Y91.467 E5.69692
G1 X107.093 Y91.248 E5.71434
G1 X108.152 Y91.114 E5.72995
G1 X108.870 Y91.057 E5.74048
G1 X109.938 Y91.024 E5.75610
G1 X110.658 Y91.035 E5.76663
G1 X111.724 Y91.102 E5.78225
G1 X112.440 Y91.181 E5.79278
G1 X113.616 Y91.371 E5.81020
G1 X114.660 Y91.605 E5.82583
G1 X115.355 Y91.795 E5.83637
G1 X116.369 Y92.124 E5.85196
G1 X117.044 Y92.379 E5.86250
G1 X118.023 Y92.803 E5.87811
G1 X118.671 Y93.120 E5.88865
G1 X119.606 Y93.635 E5.90426
G1 X120.615 Y94.270 E5.92169
G1 X121.205 Y94.685 E5.93223
G1 X122.048 Y95.339 E5.94783
G1 X122.596 Y95.807 E5.95838
G1 X123.374 Y96.537 E5.97398
G1 X123.876 Y97.055 E5.98451
G1 X124.582 Y97.856 E6.00013
G1 X125.032 Y98.418 E6.01066
G1 X125.660 Y99.282 E6.02628
G1 X126.056 Y99.885 E6.03682
G1 X126.659 Y100.913 E6.05424
G1 X127.144 Y101.864 E6.06985
G1 X127.441 Y102.521 E6.08039
G1 X127.833 Y103.513 E6.09599
G1 X128.067 Y104.195 E6.10653
G1 X128.365 Y105.221 E6.12215
G1 X128.533 Y105.922 E6.13269
G1 X128.733 Y106.970 E6.14829
G1 X128.886 Y108.146 E6.16563
G1 X128.943 Y108.871 E6.17626
G1 X128.976 Y109.938 E6.19186
G1 X128.965 Y110.659 E6.20241
G1 X128.898 Y111.725 E6.21802
G1 X128.752 Y112.907 E6.23544
G1 X128.629 Y113.617 E6.24597
G1 X128.395 Y114.660 E6.26160
G1 X128.205 Y115.355 E6.27213
G1 X127.876 Y116.369 E6.28773
G1 X127.621 Y117.044 E6.29827
G1 X127.197 Y118.023 E6.31388
G1 X126.880 Y118.671 E6.32442
G1 X126.365 Y119.606 E6.34003
G1 X125.730 Y120.615 E6.35745
G1 X125.315 Y121.205 E6.36800
G1 X124.661 Y122.048 E6.38360
G1 X124.193 Y122.596 E6.39415
G1 X123.463 Y123.374 E6.40974
G1 X122.945 Y123.875 E6.42028
G1 X122.144 Y124.582 E6.43590
G1 X121.582 Y125.032 E6.44643
G1 X120.718 Y125.660 E6.46204
G1 X120.110 Y126.059 E6.47266
G1 X119.088 Y126.659 E6.49000
G1 X118.136 Y127.144 E6.50562
G1 X117.479 Y127.441 E6.51616
G1 X116.487 Y127.833 E6.53176
G1 X115.805 Y128.067 E6.54230
G1 X114.779 Y128.365 E6.55791
G1 X114.078 Y128.533 E6.56846
G1 X112.907 Y128.752 E6.58588
G1 X111.848 Y128.886 E6.60148
G1 X111.130 Y128.943 E6.61201
G1 X110.062 Y128.976 E6.62763
G1 X109.341 Y128.965 E6.63817
G1 X108.153 Y128.886 E6.65559
G1 X107.093 Y128.752 E6.67121
G1 X106.383 Y128.629 E6.68174
G1 X105.341 Y128.395 E6.69736
G1 X104.645 Y128.205 E6.70790
G1 X103.631 Y127.876 E6.72349
G1 X102.956 Y127.621 E6.73404
G1 X101.977 Y127.197 E6.74964
G1 X101.329 Y126.880 E6.76019
G1 X100.394 Y126.365 E6.77579
G1 X99.385 Y125.730 E6.79322
G1 X98.795 Y125.316 E6.80376
G1 X97.952 Y124.661 E6.81936
G1 X97.404 Y124.193 E6.82991
G1 X96.626 Y123.463 E6.84551
G1 X96.124 Y122.945 E6.85605
G1 X95.418 Y122.144 E6.87166
G1 X94.968 Y121.582 E6.88220
G1 X94.340 Y120.718 E6.89781
G1 X93.944 Y120.115 E6.90835
G1 X93.341 Y119.087 E6.92578
G1 X92.856 Y118.136 E6.94138
G1 X92.559 Y117.479 E6.95193
G1 X92.167 Y116.487 E6.96753
G1 X91.933 Y115.805 E6.97807
G1 X91.635 Y114.779 E6.99368
G1 X91.467 Y114.078 E7.00422
G1 X91.248 Y112.907 E7.02165
G1 X91.114 Y111.848 E7.03725
G1 X91.057 Y111.129 E7.04779
G1 X91.024 Y110.062 E7.06341
G1 X91.035 Y109.341 E7.07394
G1 X91.102 Y108.276 E7.08955
G1 X91.181 Y107.560 E7.10009
G1 X91.371 Y106.383 E7.11751
G1 X91.605 Y105.340 E7.13314
G1 X91.795 Y104.645 E7.14367
G1 X92.124 Y103.631 E7.15926
G1 X92.379 Y102.956 E7.16980
G1 X92.803 Y101.977 E7.18541
G1 X93.120 Y101.329 E7.19595
G1 X93.635 Y100.394 E7.21156
G1 X94.011 Y99.779 E7.22210
G1 X94.611 Y98.896 E7.23771
G1 X95.044 Y98.320 E7.24824
G1 X95.724 Y97.498 E7.26385
G1 X96.496 Y96.669 E7.28041
G1 X96.678 Y96.762 F7800.000
G1 F1200
G1 X97.186 Y96.269 E7.29076
G1 X97.983 Y95.567 E7.30628
G1 X98.536 Y95.124 E7.31664
G1 X99.395 Y94.500 E7.33216
G1 X99.992 Y94.108 E7.34261
G1 X101.004 Y93.514 E7.35976
G1 X101.950 Y93.032 E7.37529
G1 X102.596 Y92.740 E7.38565
G1 X103.582 Y92.350 E7.40116
G1 X104.253 Y92.120 E7.41152
G1 X105.272 Y91.824 E7.42704
G1 X105.961 Y91.658 E7.43741
G1 X107.120 Y91.441 E7.45465
G1 X108.173 Y91.308 E7.47017
G1 X108.879 Y91.252 E7.48052
G1 X109.941 Y91.219 E7.49604
G1 X110.649 Y91.230 E7.50640
G1 X111.709 Y91.297 E7.52192
G1 X112.413 Y91.374 E7.53228
G1 X113.577 Y91.563 E7.54952
G1 X114.614 Y91.794 E7.56506
G1 X115.297 Y91.981 E7.57542
G1 X116.306 Y92.309 E7.59092
G1 X116.969 Y92.560 E7.60129
G1 X117.943 Y92.981 E7.61680
G1 X118.579 Y93.293 E7.62717
G1 X119.509 Y93.804 E7.64268
G1 X120.507 Y94.433 E7.65993
G1 X121.088 Y94.841 E7.67030
G1 X121.926 Y95.491 E7.68580
G1 X122.465 Y95.952 E7.69618
G1 X123.238 Y96.678 E7.71168
G1 X123.731 Y97.186 E7.72204
G1 X124.433 Y97.983 E7.73757
G1 X124.876 Y98.536 E7.74792
G1 X125.500 Y99.395 E7.76344
G1 X125.889 Y99.987 E7.77380
G1 X126.487 Y101.004 E7.79105
G1 X126.968 Y101.950 E7.80657
G1 X127.260 Y102.596 E7.81693
G1 X127.650 Y103.582 E7.83244
G1 X127.880 Y104.253 E7.84280
G1 X128.176 Y105.272 E7.85833
G1 X128.342 Y105.961 E7.86869
G1 X128.540 Y107.003 E7.88420
G1 X128.691 Y108.167 E7.90136
G1 X128.748 Y108.880 E7.91181
G1 X128.781 Y109.941 E7.92732
G1 X128.770 Y110.649 E7.93769
G1 X128.703 Y111.709 E7.95322
G1 X128.559 Y112.879 E7.97045
G1 X128.437 Y113.577 E7.98081
G1 X128.205 Y114.614 E7.99634
G1 X128.019 Y115.297 E8.00670
G1 X127.691 Y116.306 E8.02221
G1 X127.440 Y116.969 E8.03257
G1 X127.019 Y117.943 E8.04808
G1 X126.707 Y118.579 E8.05845
G1 X126.196 Y119.509 E8.07396
G1 X125.567 Y120.507 E8.09121
G1 X125.159 Y121.088 E8.10158
G1 X124.509 Y121.926 E8.11709
G1 X124.048 Y122.465 E8.12746
G1 X123.322 Y123.238 E8.14296
G1 X122.814 Y123.731 E8.15332
G1 X122.017 Y124.433 E8.16884
G1 X121.464 Y124.876 E8.17920
G1 X120.605 Y125.500 E8.19472
G1 X120.008 Y125.892 E8.20517
G1 X118.997 Y126.486 E8.22232
G1 X118.050 Y126.968 E8.23785
G1 X117.404 Y127.260 E8.24821
G1 X116.418 Y127.650 E8.26372
G1 X115.747 Y127.880 E8.27408
G1 X114.728 Y128.176 E8.28961
G1 X114.039 Y128.342 E8.29997
G1 X112.879 Y128.559 E8.31721
G1 X111.827 Y128.692 E8.33273
G1 X111.121 Y128.748 E8.34308
G1 X110.059 Y128.781 E8.35861
G1 X109.351 Y128.770 E8.36897
G1 X108.174 Y128.692 E8.38621
G1 X107.121 Y128.559 E8.40173
G1 X106.423 Y128.437 E8.41209
G1 X105.386 Y128.206 E8.42762
G1 X104.703 Y128.019 E8.43798
G1 X103.694 Y127.691 E8.45348
G1 X103.031 Y127.440 E8.46385
G1 X102.057 Y127.019 E8.47936
G1 X101.421 Y126.707 E8.48973
G1 X100.491 Y126.196 E8.50524
G1 X99.493 Y125.567 E8.52249
G1 X98.913 Y125.159 E8.53285
G1 X98.074 Y124.509 E8.54837
G1 X97.535 Y124.048 E8.55873
G1 X96.762 Y123.322 E8.57424
G1 X96.269 Y122.814 E8.58460
G1 X95.567 Y122.017 E8.60013
G1 X95.124 Y121.464 E8.61048
G1 X94.500 Y120.605 E8.62600
G1 X94.111 Y120.013 E8.63636
G1 X93.513 Y118.996 E8.65361
G1 X93.032 Y118.050 E8.66913
G1 X92.740 Y117.404 E8.67949
G1 X92.349 Y116.418 E8.69501
G1 X92.120 Y115.747 E8.70536
G1 X91.824 Y114.728 E8.72089
G1 X91.658 Y114.039 E8.73125
G1 X91.441 Y112.879 E8.74849
G1 X91.308 Y111.827 E8.76401
G1 X91.252 Y111.120 E8.77437
G1 X91.219 Y110.059 E8.78990
G1 X91.230 Y109.351 E8.80025
G1 X91.297 Y108.291 E8.81577
G1 X91.375 Y107.587 E8.82613
G1 X91.563 Y106.423 E8.84337
G1 X91.795 Y105.385 E8.85891
G1 X91.981 Y104.703 E8.86926
G1 X92.309 Y103.694 E8.88476
G1 X92.560 Y103.031 E8.89513
G1 X92.981 Y102.057 E8.91064
G1 X93.293 Y101.421 E8.92101
G1 X93.804 Y100.491 E8.93652
G1 X94.174 Y99.887 E8.94688
G1 X94.771 Y99.009 E8.96240
G1 X95.196 Y98.442 E8.97276
