; generated by Slic3r 1.3.1-dev (Build 4f5b935ecf1335755d607ec38395bd94106daa7f) on 2019-11-23 at 17:40:00

; external perimeters extrusion width = 0.44mm (2.22mm^3/s)
; perimeters extrusion width = 0.56mm (4.14mm^3/s)
; infill extrusion width = 0.50mm (4.11mm^3/s)
; solid infill extrusion width = 0.26mm (1.52mm^3/s)
; top infill extrusion width = 0.26mm (1.09mm^3/s)

M107
G92 E0
M190 S60 ; set bed temperature and wait for it to be reached
M104 S200 ; set temperature
G90                    ;absolute positioning
G28 ; home all axes
G1 Z5 F5000 ; lift nozzle

; Filament gcode

M109 S200 ; set temperature and wait for it to be reached
G21 ; set units to millimeters
G90 ; use absolute coordinates
M82 ; use absolute distances for extrusion
G92 E0
;LAYER 0 at 0.18mm
M117 printing layer 0 at 0.18mm
G1 Z0.180 F7800.000
G1 E-2.00000 F2400.00000
G92 E0
G1 X105.158 Y37.805 F7800.000
G1 E2.00000 F2400.00000
M201 X2000 Y2000
M204 P2000 T2000
G1 F1200.000
G1 X106.512 Y36.808 E2.02459
G1 X107.901 Y36.529 E2.04530
G1 X191.901 Y36.529 E3.27344
G1 X193.536 Y36.923 E3.29803
G1 X194.811 Y38.020 E3.32262
G1 X195.487 Y40.115 E3.35480
G1 X195.487 Y46.115 E3.44253
G1 X195.307 Y47.236 E3.45913
G1 X183.205 Y84.012 E4.02519
G1 X182.812 Y84.987 E4.04056
G1 X182.344 Y85.798 E4.05425
G1 X181.765 Y86.546 E4.06807
G1 X101.964 Y181.316 E5.87949
G1 X101.404 Y181.852 E5.89082
G1 X100.782 Y182.328 E5.90227
G1 X99.972 Y182.797 E5.91596
G1 X99.248 Y183.096 E5.92741
G1 X98.344 Y183.339 E5.94109
G1 X97.567 Y183.441 E5.95254
G1 X97.099 Y183.471 E5.95940
G1 X43.099 Y183.471 E6.74892
G1 X42.631 Y183.441 E6.75578
G1 X41.855 Y183.339 E6.76723
G1 X40.950 Y183.096 E6.78092
G1 X40.227 Y182.797 E6.79237
G1 X39.416 Y182.328 E6.80605
G1 X38.795 Y181.852 E6.81750
G1 X38.133 Y181.190 E6.83119
G1 X37.656 Y180.568 E6.84264
G1 X37.188 Y179.758 E6.85633
G1 X36.888 Y179.034 E6.86778
G1 X24.693 Y142.006 E7.43776
G1 X24.513 Y140.885 E7.45436
G1 X24.513 Y134.885 E7.54208
G1 X25.356 Y132.575 E7.57803
G1 X105.119 Y37.851 E9.38858
G1 X105.307 Y37.931 F7800.000
G1 F1200.000
G1 X106.630 Y36.971 E9.41248
G1 X107.901 Y36.724 E9.43140
G1 X191.901 Y36.724 E10.65954
G1 X193.487 Y37.118 E10.68344
G1 X194.705 Y38.209 E10.70734
G1 X195.292 Y40.115 E10.73650
G1 X195.292 Y46.115 E10.82422
G1 X195.122 Y47.175 E10.83991
G1 X183.019 Y83.951 E11.40598
G1 X182.631 Y84.912 E11.42113
G1 X182.189 Y85.679 E11.43407
G1 X181.616 Y86.420 E11.44777
G1 X101.814 Y181.191 E13.25919
G1 X101.285 Y181.697 E13.26990
G1 X100.663 Y182.173 E13.28135
G1 X99.897 Y182.616 E13.29429
G1 X99.173 Y182.916 E13.30574
G1 X98.318 Y183.145 E13.31868
G1 X97.542 Y183.247 E13.33013
G1 X97.099 Y183.276 E13.33662
G1 X43.099 Y183.276 E14.12614
G1 X42.657 Y183.247 E14.13262
G1 X41.880 Y183.145 E14.14407
G1 X41.025 Y182.916 E14.15701
G1 X40.302 Y182.616 E14.16846
G1 X39.535 Y182.173 E14.18141
G1 X38.914 Y181.697 E14.19286
G1 X38.288 Y181.071 E14.20580
G1 X37.811 Y180.449 E14.21725
G1 X37.369 Y179.683 E14.23019
G1 X37.069 Y178.959 E14.24164
G1 X24.878 Y141.945 E14.81141
G1 X24.708 Y140.885 E14.82710
G1 X24.708 Y134.885 E14.91483
G1 X25.506 Y132.701 E14.94882
G1 X105.268 Y37.977 E16.75936
G1 X105.457 Y38.057 F7800.000
G1 F1200.000
G1 X106.747 Y37.135 E16.78255
G1 X107.901 Y36.919 E16.79971
G1 X191.901 Y36.919 E18.02784
G1 X193.437 Y37.313 E18.05104
G1 X194.595 Y38.397 E18.07423
G1 X195.096 Y40.115 E18.10039
G1 X195.096 Y46.115 E18.18811
G1 X194.936 Y47.114 E18.20290
G1 X182.834 Y83.890 E18.76896
G1 X182.451 Y84.838 E18.78391
G1 X182.034 Y85.560 E18.79610
G1 X181.466 Y86.294 E18.80967
G1 X101.665 Y181.065 E20.62109
G1 X101.166 Y181.542 E20.63118
G1 X100.544 Y182.018 E20.64263
G1 X99.822 Y182.436 E20.65483
G1 X99.098 Y182.735 E20.66628
G1 X98.293 Y182.951 E20.67847
G1 X97.516 Y183.053 E20.68992
G1 X97.099 Y183.081 E20.69603
G1 X43.099 Y183.081 E21.48555
G1 X42.682 Y183.053 E21.49166
G1 X41.906 Y182.951 E21.50311
G1 X41.100 Y182.735 E21.51531
G1 X40.376 Y182.436 E21.52676
G1 X39.654 Y182.018 E21.53896
G1 X39.033 Y181.542 E21.55041
G1 X38.443 Y180.952 E21.56260
G1 X37.966 Y180.331 E21.57405
G1 X37.549 Y179.608 E21.58625
G1 X37.249 Y178.885 E21.59770
G1 X25.064 Y141.884 E22.16725
G1 X24.904 Y140.885 E22.18204
G1 X24.904 Y134.885 E22.26977
G1 X25.655 Y132.827 E22.30180
G1 X105.418 Y38.102 E24.11234
G1 E22.11234 F2400.00000
G92 E0
G1 X111.787 Y140.573 F7800.000
G1 E2.00000 F2400.00000
G1 F1200.000
G1 X101.579 Y140.573 E2.14925
G1 X101.129 Y140.632 E2.15588
G1 X100.692 Y140.813 E2.16280
G1 X100.316 Y141.102 E2.16973
G1 X100.027 Y141.478 E2.17666
G1 X99.846 Y141.916 E2.18359
G1 X99.787 Y142.365 E2.19021
G1 X99.787 Y176.865 E2.69463
G1 X99.693 Y177.580 E2.70518
G1 X99.424 Y178.228 E2.71542
G1 X98.998 Y178.784 E2.72567
G1 X98.442 Y179.211 E2.73592
G1 X97.794 Y179.479 E2.74617
G1 X97.079 Y179.573 E2.75672
G1 X43.120 Y179.573 E3.54564
G1 X42.404 Y179.479 E3.55619
G1 X41.757 Y179.211 E3.56643
G1 X41.201 Y178.784 E3.57668
G1 X40.774 Y178.228 E3.58693
G1 X40.506 Y177.580 E3.59718
G1 X40.412 Y176.865 E3.60773
G1 X40.412 Y142.365 E4.11214
G1 X40.352 Y141.916 E4.11877
G1 X40.171 Y141.478 E4.12569
G1 X39.883 Y141.102 E4.13262
G1 X39.507 Y140.813 E4.13955
G1 X39.069 Y140.632 E4.14648
G1 X38.620 Y140.573 E4.15310
G1 X28.412 Y140.573 E4.30235
G1 X28.412 Y135.198 E4.38094
G1 X62.287 Y135.198 E4.87622
G1 X62.287 Y156.394 E5.18613
G1 X62.340 Y157.308 E5.19951
G1 X62.513 Y158.255 E5.21359
G1 X62.794 Y159.156 E5.22738
G1 X63.181 Y160.016 E5.24118
G1 X63.669 Y160.824 E5.25497
G1 X64.251 Y161.566 E5.26877
G1 X64.918 Y162.233 E5.28256
G1 X65.661 Y162.815 E5.29635
G1 X66.468 Y163.303 E5.31015
G1 X67.329 Y163.691 E5.32394
G1 X68.229 Y163.971 E5.33774
G1 X69.157 Y164.141 E5.35153
G1 X70.099 Y164.198 E5.36533
G1 X71.041 Y164.141 E5.37912
G1 X71.969 Y163.971 E5.39291
G1 X72.870 Y163.691 E5.40671
G1 X73.730 Y163.303 E5.42050
G1 X74.537 Y162.815 E5.43430
G1 X75.280 Y162.233 E5.44809
G1 X75.947 Y161.566 E5.46188
G1 X76.529 Y160.824 E5.47568
G1 X77.017 Y160.016 E5.48947
G1 X77.404 Y159.156 E5.50327
G1 X77.685 Y158.255 E5.51706
G1 X77.855 Y157.327 E5.53086
G1 X77.912 Y156.395 E5.54451
G1 X77.912 Y135.198 E5.85443
G1 X111.787 Y135.198 E6.34971
G1 X111.787 Y140.513 E6.42742
G1 X111.982 Y140.768 F7800.000
G1 F1200.000
G1 X101.592 Y140.768 E6.57934
G1 X101.180 Y140.822 E6.58540
G1 X100.790 Y140.984 E6.59158
G1 X100.455 Y141.241 E6.59775
G1 X100.198 Y141.576 E6.60393
G1 X100.036 Y141.967 E6.61010
G1 X99.982 Y142.378 E6.61617
G1 X99.982 Y176.878 E7.12058
G1 X99.883 Y177.631 E7.13169
G1 X99.595 Y178.326 E7.14269
G1 X99.137 Y178.923 E7.15369
G1 X98.540 Y179.381 E7.16469
G1 X97.845 Y179.669 E7.17569
G1 X97.092 Y179.768 E7.18681
G1 X43.107 Y179.768 E7.97610
G1 X42.353 Y179.669 E7.98721
G1 X41.658 Y179.381 E7.99821
G1 X41.061 Y178.923 E8.00921
G1 X40.603 Y178.326 E8.02021
G1 X40.315 Y177.631 E8.03121
G1 X40.216 Y176.878 E8.04232
G1 X40.216 Y142.378 E8.54674
G1 X40.162 Y141.967 E8.55280
G1 X40.000 Y141.576 E8.55898
G1 X39.743 Y141.241 E8.56515
G1 X39.408 Y140.984 E8.57133
G1 X39.018 Y140.822 E8.57750
G1 X38.607 Y140.768 E8.58357
G1 X28.216 Y140.768 E8.73548
G1 X28.216 Y135.002 E8.81979
G1 X62.482 Y135.002 E9.32078
G1 X62.482 Y156.389 E9.63346
G1 X62.534 Y157.284 E9.64658
G1 X62.703 Y158.208 E9.66031
G1 X62.977 Y159.086 E9.67376
G1 X63.355 Y159.925 E9.68721
G1 X63.830 Y160.712 E9.70066
G1 X64.398 Y161.436 E9.71411
G1 X65.048 Y162.087 E9.72756
G1 X65.772 Y162.654 E9.74101
G1 X66.559 Y163.130 E9.75445
G1 X67.398 Y163.508 E9.76790
G1 X68.276 Y163.781 E9.78135
G1 X69.181 Y163.947 E9.79480
G1 X70.099 Y164.003 E9.80825
G1 X71.017 Y163.947 E9.82170
G1 X71.922 Y163.781 E9.83515
G1 X72.800 Y163.508 E9.84859
G1 X73.639 Y163.130 E9.86204
G1 X74.426 Y162.654 E9.87549
G1 X75.150 Y162.087 E9.88894
G1 X75.801 Y161.436 E9.90239
G1 X76.368 Y160.712 E9.91584
G1 X76.844 Y159.925 E9.92929
G1 X77.221 Y159.086 E9.94273
G1 X77.495 Y158.208 E9.95618
G1 X77.661 Y157.303 E9.96963
G1 X77.716 Y156.389 E9.98303
G1 X77.716 Y135.002 E10.29571
G1 X111.982 Y135.002 E10.79671
G1 X111.982 Y140.708 E10.88013
G1 X111.583 Y140.746 F7800.000
G1 X111.359 Y140.398 F7800.000
M201 X750 Y750
M204 P750 T750
G1 F1200.000
G1 X111.612 Y140.145 E10.88538
G1 X111.612 Y139.868 E10.88944
G1 X111.082 Y140.398 E10.90042
G1 X110.805 Y140.398 E10.90448
G1 X111.612 Y139.591 E10.92120
G1 X111.612 Y139.314 E10.92525
G1 X110.528 Y140.398 E10.94771
G1 X110.251 Y140.398 E10.95176
G1 X111.612 Y139.038 E10.97995
G1 X111.612 Y138.761 E10.98401
G1 X109.975 Y140.398 E11.01793
G1 X109.698 Y140.398 E11.02199
G1 X111.612 Y138.484 E11.06165
G1 X111.612 Y138.207 E11.06571
G1 X109.421 Y140.398 E11.11110
G1 X109.144 Y140.398 E11.11516
G1 X111.612 Y137.930 E11.16629
G1 X111.612 Y137.653 E11.17034
G1 X108.867 Y140.398 E11.22721
G1 X108.590 Y140.398 E11.23126
G1 X111.612 Y137.377 E11.29387
G1 X111.612 Y137.100 E11.29792
G1 X108.314 Y140.398 E11.36626
G1 X108.037 Y140.398 E11.37031
G1 X111.612 Y136.823 E11.44439
G1 X111.612 Y136.546 E11.44844
G1 X107.760 Y140.398 E11.52825
G1 X107.483 Y140.398 E11.53230
G1 X111.612 Y136.269 E11.61785
G1 X111.612 Y135.992 E11.62190
G1 X107.206 Y140.398 E11.71318
G1 X106.929 Y140.398 E11.71723
G1 X111.612 Y135.716 E11.81425
G1 X111.612 Y135.439 E11.81830
G1 X106.653 Y140.398 E11.92105
G1 X106.376 Y140.398 E11.92511
G1 X111.402 Y135.372 E12.02923
G1 X111.125 Y135.372 E12.03328
G1 X106.099 Y140.398 E12.13741
G1 X105.822 Y140.398 E12.14146
G1 X110.848 Y135.372 E12.24559
G1 X110.571 Y135.372 E12.24964
G1 X105.545 Y140.398 E12.35377
G1 X105.268 Y140.398 E12.35782
G1 X110.294 Y135.372 E12.46195
G1 X110.018 Y135.372 E12.46600
G1 X104.992 Y140.398 E12.57013
G1 X104.715 Y140.398 E12.57418
G1 X109.741 Y135.372 E12.67831
G1 X109.464 Y135.372 E12.68236
G1 X104.438 Y140.398 E12.78648
G1 X104.161 Y140.398 E12.79054
G1 X109.187 Y135.372 E12.89466
G1 X108.910 Y135.372 E12.89872
G1 X103.884 Y140.398 E13.00284
G1 X103.607 Y140.398 E13.00690
G1 X108.633 Y135.372 E13.11102
G1 X108.357 Y135.372 E13.11508
G1 X103.331 Y140.398 E13.21920
G1 X103.054 Y140.398 E13.22326
G1 X108.080 Y135.372 E13.32738
G1 X107.803 Y135.372 E13.33144
G1 X102.777 Y140.398 E13.43556
G1 X102.500 Y140.398 E13.43962
G1 X107.526 Y135.372 E13.54374
G1 X107.249 Y135.372 E13.54780
G1 X102.223 Y140.398 E13.65192
G1 X101.946 Y140.398 E13.65597
G1 X106.972 Y135.372 E13.76010
G1 X106.696 Y135.372 E13.76415
G1 X101.670 Y140.398 E13.86828
G1 X101.370 Y140.421 E13.87268
G1 X106.419 Y135.372 E13.97729
G1 X106.142 Y135.372 E13.98134
G1 X101.048 Y140.467 E14.08688
G1 X100.575 Y140.662 E14.09438
G1 X105.865 Y135.372 E14.20397
G1 X105.588 Y135.372 E14.20803
M201 X2000 Y2000
M204 P2000 T2000
G1 E12.20803 F2400.00000
G92 E0
G1 X78.140 Y135.414 F7800.000
G1 E2.00000 F2400.00000
M201 X750 Y750
M204 P750 T750
G1 F1200.000
G1 X78.086 Y135.414 E2.00079
G1 X78.086 Y135.468 E2.00158
G1 X78.182 Y135.372 E2.00356
G1 X78.458 Y135.372 E2.00761
G1 X78.086 Y135.745 E2.01532
G1 X78.086 Y136.021 E2.01938
G1 X78.735 Y135.372 E2.03282
G1 X79.012 Y135.372 E2.03688
G1 X78.086 Y136.298 E2.05606
G1 X78.086 Y136.575 E2.06012
G1 X79.289 Y135.372 E2.08503
G1 X79.566 Y135.372 E2.08909
G1 X78.086 Y136.852 E2.11974
G1 X78.086 Y137.129 E2.12379
G1 X79.843 Y135.372 E2.16018
G1 X80.119 Y135.372 E2.16424
G1 X78.086 Y137.406 E2.20636
G1 X78.086 Y137.682 E2.21041
G1 X80.396 Y135.372 E2.25827
G1 X80.673 Y135.372 E2.26233
G1 X78.086 Y137.959 E2.31592
G1 X78.086 Y138.236 E2.31997
G1 X80.950 Y135.372 E2.37930
G1 X81.227 Y135.372 E2.38336
G1 X78.086 Y138.513 E2.44842
G1 X78.086 Y138.790 E2.45248
G1 X81.504 Y135.372 E2.52327
G1 X81.780 Y135.372 E2.52733
G1 X78.086 Y139.067 E2.60386
G1 X78.086 Y139.343 E2.60792
G1 X82.057 Y135.372 E2.69019
G1 X82.334 Y135.372 E2.69424
G1 X78.086 Y139.620 E2.78225
G1 X78.086 Y139.897 E2.78630
G1 X82.611 Y135.372 E2.88004
G1 X82.888 Y135.372 E2.88410
G1 X78.086 Y140.174 E2.98357
G1 X78.086 Y140.451 E2.98763
G1 X83.165 Y135.372 E3.09283
G1 X83.441 Y135.372 E3.09689
G1 X78.086 Y140.728 E3.20783
G1 X78.086 Y141.004 E3.21189
G1 X83.718 Y135.372 E3.32857
G1 X83.995 Y135.372 E3.33263
G1 X78.086 Y141.281 E3.45504
G1 X78.086 Y141.558 E3.45910
G1 X84.272 Y135.372 E3.58725
G1 X84.549 Y135.372 E3.59130
G1 X78.086 Y141.835 E3.72519
G1 X78.086 Y142.112 E3.72924
G1 X84.826 Y135.372 E3.86886
G1 X85.102 Y135.372 E3.87292
G1 X78.086 Y142.389 E4.01827
G1 X78.086 Y142.665 E4.02233
G1 X85.379 Y135.372 E4.17342
G1 X85.656 Y135.372 E4.17748
G1 X78.086 Y142.942 E4.33430
G1 X78.086 Y143.219 E4.33836
G1 X85.933 Y135.372 E4.50092
G1 X86.210 Y135.372 E4.50497
G1 X78.086 Y143.496 E4.67327
G1 X78.086 Y143.773 E4.67733
G1 X86.487 Y135.372 E4.85136
G1 X86.763 Y135.372 E4.85541
G1 X78.086 Y144.050 E5.03518
G1 X78.086 Y144.326 E5.03924
G1 X87.040 Y135.372 E5.22474
G1 X87.317 Y135.372 E5.22879
G1 X78.086 Y144.603 E5.42003
G1 X78.086 Y144.880 E5.42409
G1 X87.594 Y135.372 E5.62106
G1 X87.871 Y135.372 E5.62511
G1 X78.086 Y145.157 E5.82782
G1 X78.086 Y145.434 E5.83188
G1 X88.148 Y135.372 E6.04032
G1 X88.424 Y135.372 E6.04438
G1 X78.086 Y145.711 E6.25855
G1 X78.086 Y145.987 E6.26261
G1 X88.701 Y135.372 E6.48252
G1 X88.978 Y135.372 E6.48658
G1 X78.086 Y146.264 E6.71223
G1 X78.086 Y146.541 E6.71628
G1 X89.255 Y135.372 E6.94767
G1 X89.532 Y135.372 E6.95172
G1 X78.086 Y146.818 E7.18884
G1 X78.086 Y147.095 E7.19290
G1 X89.809 Y135.372 E7.43575
G1 X90.085 Y135.372 E7.43981
G1 X78.086 Y147.372 E7.68840
G1 X78.086 Y147.648 E7.69245
G1 X90.362 Y135.372 E7.94678
G1 X90.639 Y135.372 E7.95083
G1 X78.086 Y147.925 E8.21089
G1 X78.086 Y148.202 E8.21495
G1 X90.916 Y135.372 E8.48074
G1 X91.193 Y135.372 E8.48480
G1 X78.086 Y148.479 E8.75633
G1 X78.086 Y148.756 E8.76038
G1 X91.470 Y135.372 E9.03765
G1 X91.747 Y135.372 E9.04170
G1 X78.086 Y149.033 E9.32470
G1 X78.086 Y149.309 E9.32876
G1 X92.023 Y135.372 E9.61750
G1 X92.300 Y135.372 E9.62155
G1 X78.086 Y149.586 E9.91602
G1 X78.086 Y149.863 E9.92008
G1 X92.577 Y135.372 E10.22028
G1 X92.854 Y135.372 E10.22434
G1 X78.086 Y150.140 E10.53028
G1 X78.086 Y150.417 E10.53434
G1 X93.131 Y135.372 E10.84601
G1 X93.408 Y135.372 E10.85007
G1 X78.086 Y150.694 E11.16748
G1 X78.086 Y150.970 E11.17154
G1 X93.684 Y135.372 E11.49468
G1 X93.961 Y135.372 E11.49874
G1 X78.086 Y151.247 E11.82762
G1 X78.086 Y151.524 E11.83168
G1 X94.238 Y135.372 E12.16629
G1 X94.515 Y135.372 E12.17035
G1 X78.086 Y151.801 E12.51070
G1 X78.086 Y152.078 E12.51476
G1 X94.792 Y135.372 E12.86084
G1 X95.069 Y135.372 E12.86490
G1 X78.086 Y152.355 E13.21672
G1 X78.086 Y152.631 E13.22078
G1 X95.345 Y135.372 E13.57834
G1 X95.622 Y135.372 E13.58239
G1 X78.086 Y152.908 E13.94569
G1 X78.086 Y153.185 E13.94974
G1 X95.899 Y135.372 E14.31877
G1 X96.176 Y135.372 E14.32283
G1 X78.086 Y153.462 E14.69759
G1 X78.086 Y153.739 E14.70165
G1 X96.453 Y135.372 E15.08214
G1 X96.730 Y135.372 E15.08620
G1 X78.086 Y154.016 E15.47243
G1 X78.086 Y154.292 E15.47649
G1 X97.006 Y135.372 E15.86846
G1 X97.283 Y135.372 E15.87251
G1 X78.086 Y154.569 E16.27022
G1 X78.086 Y154.846 E16.27427
G1 X97.560 Y135.372 E16.67771
G1 X97.837 Y135.372 E16.68177
G1 X78.086 Y155.123 E17.09095
G1 X78.086 Y155.400 E17.09500
G1 X98.114 Y135.372 E17.50991
G1 X98.391 Y135.372 E17.51397
G1 X78.086 Y155.677 E17.93461
G1 X78.086 Y155.953 E17.93867
G1 X98.667 Y135.372 E18.36505
G1 X98.944 Y135.372 E18.36910
G1 X78.086 Y156.230 E18.80122
G1 X78.081 Y156.513 E18.80536
G1 X99.221 Y135.372 E19.24332
G1 X99.498 Y135.372 E19.24738
G1 X78.063 Y156.807 E19.69145
G1 X78.045 Y157.102 E19.69577
G1 X99.775 Y135.372 E20.14595
G1 X100.052 Y135.372 E20.15000
G1 X78.023 Y157.400 E20.60636
G1 X77.961 Y157.739 E20.61141
G1 X100.328 Y135.372 E21.07479
G1 X100.605 Y135.372 E21.07884
G1 X77.899 Y158.078 E21.54925
G1 X77.819 Y158.435 E21.55460
G1 X100.882 Y135.372 E22.03239
G1 X101.159 Y135.372 E22.03644
G1 X77.694 Y158.837 E22.52257
G1 X77.569 Y159.239 E22.52874
G1 X101.436 Y135.372 E23.02319
G1 X101.713 Y135.372 E23.02724
G1 X77.344 Y159.741 E23.53209
G1 X77.170 Y160.128 E23.53831
G1 X77.072 Y160.290 E23.54108
G1 X101.989 Y135.372 E24.05730
G1 X102.266 Y135.372 E24.06135
G1 X76.620 Y161.018 E24.59266
M201 X2000 Y2000
M204 P2000 T2000
G1 E22.59266 F2400.00000
G92 E0
G1 X98.837 Y178.666 F7800.000
