; generated by Slic3r 1.3.0 on 2019-01-19 at 13:14:51

; external perimeters extrusion width = 0.44mm (2.22mm^3/s)
; perimeters extrusion width = 0.56mm (4.14mm^3/s)
; infill extrusion width = 0.50mm (4.11mm^3/s)
; solid infill extrusion width = 0.26mm (1.52mm^3/s)
; top infill extrusion width = 0.26mm (1.09mm^3/s)

M107
M190 S60 ; set bed temperature and wait for it to be reached
M104 S200 ; set temperature
G90                    ;absolute positioning
G28 ; home all axes
G1 Z5 F5000 ; lift nozzle

; Filament gcode

M109 S200 ; set temperature and wait for it to be reached
G21 ; set units to millimeters
G90 ; use absolute coordinates
M82 ; use absolute distances for extrusion
G92 E0
;LAYER 0 at 0.18mm
M117 printing layer 0 at 0.18mm
G1 Z0.180 F7800.000
G1 E-2.00000 F2400.00000
G92 E0
G1 X47.195 Y129.798 F7800.000
G1 E2.00000 F2400.00000
M201 X2000 Y2000
M204 P2000 T2000
G1 F1200
G1 X127.195 Y73.798 E3.42775
G1 X128.515 Y72.977 E3.45047
G1 X129.501 Y72.453 E3.46680
G1 X130.746 Y71.889 E3.48678
G1 X132.028 Y71.413 E3.50677
G1 X133.582 Y70.968 E3.53041
G1 X134.921 Y70.692 E3.55039
G1 X136.027 Y70.536 E3.56673
G1 X137.577 Y70.424 E3.58945
G1 X138.136 Y70.414 E3.59762
G1 X139.878 Y70.832 E3.62382
G1 X168.749 Y86.138 E4.10158
G1 X170.075 Y86.944 E4.12428
G1 X170.620 Y87.307 E4.13384
G1 X172.000 Y88.309 E4.15877
G1 X173.503 Y89.559 E4.18735
G1 X174.914 Y90.910 E4.21592
G1 X176.388 Y92.547 E4.24813
G1 X177.438 Y93.890 E4.27305
G1 X178.537 Y95.504 E4.30161
G1 X179.522 Y97.192 E4.33018
G1 X180.387 Y98.945 E4.35875
G1 X181.127 Y100.754 E4.38732
G1 X181.373 Y102.417 E4.41191
G1 X180.464 Y104.498 E4.44512
G1 X140.861 Y148.402 E5.30958
G1 X139.473 Y149.352 E5.33417
G1 X138.199 Y149.586 E5.35313
G1 X42.199 Y149.586 E6.75671
G1 X40.563 Y149.192 E6.78130
G1 X39.288 Y148.095 E6.80589
G1 X38.615 Y145.875 E6.83982
G1 X38.654 Y144.758 E6.85616
G1 X38.788 Y143.399 E6.87613
G1 X39.016 Y142.051 E6.89612
G1 X39.339 Y140.722 E6.91610
G1 X39.753 Y139.420 E6.93609
G1 X40.257 Y138.149 E6.95608
G1 X40.966 Y136.695 E6.97972
G1 X41.657 Y135.516 E6.99970
G1 X42.428 Y134.388 E7.01969
G1 X43.277 Y133.316 E7.03968
G1 X44.024 Y132.486 E7.05601
G1 X45.001 Y131.530 E7.07599
G1 X46.043 Y130.645 E7.09598
G1 X47.146 Y129.832 E7.11601
G1 X47.307 Y129.958 F7800.000
G1 F1200
G1 X127.307 Y73.958 E8.54376
G1 X128.607 Y73.150 E8.56613
G1 X129.806 Y72.522 E8.58592
G1 X130.826 Y72.067 E8.60225
G1 X132.094 Y71.597 E8.62203
G1 X133.623 Y71.159 E8.64527
G1 X134.948 Y70.885 E8.66506
G1 X136.054 Y70.730 E8.68139
G1 X137.581 Y70.620 E8.70377
G1 X138.139 Y70.610 E8.71193
G1 X139.787 Y71.004 E8.73670
G1 X168.658 Y86.311 E9.21447
G1 X169.973 Y87.111 E9.23698
G1 X170.505 Y87.465 E9.24633
G1 X171.885 Y88.467 E9.27126
G1 X173.377 Y89.708 E9.29964
G1 X174.778 Y91.051 E9.32801
G1 X176.234 Y92.668 E9.35982
G1 X177.284 Y94.011 E9.38474
G1 X178.375 Y95.614 E9.41310
G1 X179.353 Y97.290 E9.44147
G1 X180.211 Y99.031 E9.46984
G1 X180.946 Y100.827 E9.49821
G1 X181.174 Y102.446 E9.52212
G1 X180.319 Y104.368 E9.55287
G1 X140.716 Y148.271 E10.41734
G1 X139.361 Y149.185 E10.44124
G1 X138.199 Y149.391 E10.45850
G1 X42.199 Y149.391 E11.86209
G1 X40.612 Y148.997 E11.88599
G1 X39.394 Y147.906 E11.90989
G1 X38.810 Y145.882 E11.94070
G1 X38.849 Y144.765 E11.95704
G1 X38.982 Y143.419 E11.97681
G1 X39.209 Y142.085 E11.99660
G1 X39.528 Y140.769 E12.01639
G1 X39.939 Y139.480 E12.03617
G1 X40.438 Y138.222 E12.05596
G1 X41.135 Y136.793 E12.07920
G1 X41.819 Y135.625 E12.09899
G1 X42.582 Y134.508 E12.11878
G1 X43.422 Y133.446 E12.13857
G1 X44.169 Y132.616 E12.15490
G1 X45.137 Y131.671 E12.17468
G1 X46.168 Y130.794 E12.19446
G1 X47.258 Y129.992 E12.21425
G1 X47.419 Y130.118 F7800.000
G1 F1200
G1 X127.419 Y74.118 E13.64199
G1 X128.698 Y73.322 E13.66402
G1 X129.885 Y72.700 E13.68361
G1 X130.905 Y72.246 E13.69994
G1 X132.161 Y71.780 E13.71952
G1 X133.663 Y71.350 E13.74237
G1 X134.975 Y71.079 E13.76195
G1 X136.081 Y70.923 E13.77828
G1 X137.584 Y70.815 E13.80031
G1 X138.142 Y70.805 E13.80848
G1 X139.695 Y71.177 E13.83182
G1 X168.566 Y86.483 E14.30959
G1 X169.871 Y87.277 E14.33192
G1 X170.390 Y87.623 E14.34105
G1 X171.770 Y88.625 E14.36597
G1 X173.252 Y89.858 E14.39415
G1 X174.643 Y91.191 E14.42233
G1 X176.080 Y92.788 E14.45374
G1 X177.130 Y94.131 E14.47866
G1 X178.213 Y95.723 E14.50682
G1 X179.184 Y97.388 E14.53499
G1 X180.036 Y99.116 E14.56317
G1 X180.764 Y100.900 E14.59134
G1 X180.975 Y102.472 E14.61453
G1 X180.174 Y104.237 E14.64286
G1 X140.571 Y148.140 E15.50732
G1 X139.250 Y149.018 E15.53052
G1 X138.199 Y149.195 E15.54610
G1 X42.199 Y149.195 E16.94969
G1 X40.662 Y148.802 E16.97288
G1 X39.504 Y147.717 E16.99608
G1 X39.005 Y145.888 E17.02379
G1 X39.044 Y144.772 E17.04013
G1 X39.176 Y143.439 E17.05971
G1 X39.401 Y142.119 E17.07929
G1 X39.718 Y140.817 E17.09888
G1 X40.124 Y139.540 E17.11847
G1 X40.710 Y138.092 E17.14131
G1 X41.304 Y136.891 E17.16090
G1 X41.981 Y135.734 E17.18049
G1 X42.736 Y134.628 E17.20008
G1 X43.567 Y133.577 E17.21967
G1 X44.469 Y132.587 E17.23925
G1 X45.438 Y131.662 E17.25884
G1 X46.294 Y130.944 E17.27517
G1 X47.370 Y130.153 E17.29470
G1 E15.29470 F2400.00000
G92 E0
G1 X42.522 Y145.688 F7800.000
G1 E2.00000 F2400.00000
G1 F1200
G1 X42.549 Y144.906 E2.01144
G1 X42.664 Y143.817 E2.02745
G1 X42.854 Y142.738 E2.04346
G1 X43.119 Y141.676 E2.05947
G1 X43.442 Y140.682 E2.07475
G1 X43.868 Y139.619 E2.09149
G1 X44.347 Y138.635 E2.10749
G1 X44.895 Y137.687 E2.12350
G1 X45.507 Y136.779 E2.13951
G1 X46.181 Y135.916 E2.15552
G1 X46.914 Y135.103 E2.17153
G1 X47.702 Y134.342 E2.18754
G1 X48.540 Y133.638 E2.20355
G1 X49.426 Y132.995 E2.21956
G1 X50.355 Y132.414 E2.23557
G1 X51.322 Y131.900 E2.25158
G1 X52.322 Y131.455 E2.26758
G1 X53.351 Y131.080 E2.28359
G1 X54.403 Y130.779 E2.29960
G1 X55.474 Y130.551 E2.31561
G1 X56.559 Y130.399 E2.33162
G1 X57.654 Y130.322 E2.34767
G1 X58.201 Y130.312 E2.35568
G1 X112.558 Y130.306 E3.15042
G1 X113.276 Y130.256 E3.16094
G1 X113.989 Y130.156 E3.17146
G1 X114.693 Y130.006 E3.18199
G1 X115.385 Y129.808 E3.19251
G1 X116.062 Y129.562 E3.20304
G1 X116.719 Y129.269 E3.21356
G1 X117.355 Y128.931 E3.22408
G1 X117.965 Y128.550 E3.23461
G1 X118.548 Y128.126 E3.24513
G1 X119.099 Y127.664 E3.25566
G1 X119.617 Y127.164 E3.26618
G1 X120.098 Y126.629 E3.27670
G1 X120.542 Y126.062 E3.28723
G1 X120.944 Y125.465 E3.29775
G1 X121.304 Y124.841 E3.30828
G1 X121.620 Y124.195 E3.31880
G1 X121.889 Y123.527 E3.32933
G1 X122.112 Y122.843 E3.33985
G1 X122.278 Y122.175 E3.34991
G1 X122.411 Y121.436 E3.36089
G1 X122.486 Y120.719 E3.37142
G1 X122.511 Y120.005 E3.38186
G1 X122.511 Y90.005 E3.82049
G1 X122.549 Y88.906 E3.83657
G1 X122.664 Y87.817 E3.85258
G1 X122.845 Y86.787 E3.86787
G1 X123.119 Y85.676 E3.88461
G1 X123.457 Y84.635 E3.90061
G1 X123.867 Y83.619 E3.91662
G1 X124.347 Y82.635 E3.93263
G1 X124.895 Y81.687 E3.94864
G1 X125.507 Y80.779 E3.96465
G1 X126.181 Y79.916 E3.98066
G1 X126.914 Y79.103 E3.99667
G1 X127.702 Y78.342 E4.01267
G1 X128.540 Y77.638 E4.02868
G1 X129.426 Y76.995 E4.04469
G1 X130.355 Y76.414 E4.06070
G1 X131.322 Y75.900 E4.07671
G1 X132.322 Y75.455 E4.09272
G1 X133.351 Y75.080 E4.10873
G1 X134.403 Y74.779 E4.12474
G1 X135.474 Y74.551 E4.14075
G1 X136.559 Y74.399 E4.15676
G1 X137.654 Y74.322 E4.17281
G1 X138.123 Y74.314 E4.17967
G1 X167.146 Y89.793 E4.66058
G1 X167.176 Y89.742 E4.66145
G1 X168.339 Y90.468 E4.68150
G1 X169.700 Y91.457 E4.70610
G1 X170.988 Y92.538 E4.73069
G1 X172.198 Y93.706 E4.75527
G1 X173.323 Y94.956 E4.77986
G1 X174.359 Y96.282 E4.80445
G1 X175.299 Y97.676 E4.82905
G1 X176.141 Y99.132 E4.85364
G1 X176.878 Y100.644 E4.87823
G1 X177.391 Y101.913 E4.89824
G1 X175.244 Y102.695 E4.93165
G1 X174.564 Y101.688 E4.94941
G1 X173.518 Y100.348 E4.97426
G1 X172.380 Y99.085 E4.99911
G1 X171.159 Y97.905 E5.02395
G1 X169.855 Y96.812 E5.04882
G1 X168.291 Y95.688 E5.07699
G1 X148.190 Y95.688 E5.37087
G1 X147.123 Y95.744 E5.38650
G1 X146.408 Y95.844 E5.39706
G1 X145.704 Y95.994 E5.40758
G1 X145.012 Y96.192 E5.41811
G1 X144.335 Y96.438 E5.42863
G1 X143.678 Y96.731 E5.43916
G1 X143.042 Y97.069 E5.44968
G1 X142.429 Y97.453 E5.46026
G1 X141.849 Y97.874 E5.47073
G1 X141.298 Y98.336 E5.48125
G1 X140.780 Y98.836 E5.49178
G1 X140.299 Y99.371 E5.50230
G1 X139.855 Y99.938 E5.51283
G1 X139.455 Y100.532 E5.52329
G1 X139.093 Y101.159 E5.53387
G1 X138.777 Y101.805 E5.54440
G1 X138.508 Y102.473 E5.55492
G1 X138.285 Y103.157 E5.56544
G1 X138.111 Y103.856 E5.57597
G1 X137.986 Y104.565 E5.58649
G1 X137.911 Y105.281 E5.59702
G1 X137.886 Y105.995 E5.60746
G1 X137.886 Y145.688 E6.18780
G1 X42.582 Y145.688 E7.58122
G1 X42.320 Y145.883 F7800.000
G1 F1200
G1 X42.354 Y144.892 E7.59571
G1 X42.470 Y143.790 E7.61192
G1 X42.663 Y142.698 E7.62813
G1 X42.931 Y141.622 E7.64434
G1 X43.258 Y140.615 E7.65981
G1 X43.689 Y139.540 E7.67676
G1 X44.175 Y138.543 E7.69296
G1 X44.729 Y137.583 E7.70917
G1 X45.349 Y136.664 E7.72538
G1 X46.031 Y135.791 E7.74159
G1 X46.773 Y134.967 E7.75780
G1 X47.571 Y134.197 E7.77401
G1 X48.420 Y133.484 E7.79022
G1 X49.317 Y132.832 E7.80642
G1 X50.257 Y132.245 E7.82263
G1 X51.236 Y131.725 E7.83884
G1 X52.249 Y131.274 E7.85505
G1 X53.290 Y130.894 E7.87126
G1 X54.356 Y130.589 E7.88747
G1 X55.440 Y130.358 E7.90368
G1 X56.538 Y130.204 E7.91988
G1 X57.645 Y130.127 E7.93611
G1 X58.200 Y130.117 E7.94421
G1 X112.552 Y130.111 E8.73888
G1 X113.256 Y130.062 E8.74920
G1 X113.955 Y129.963 E8.75953
G1 X114.646 Y129.817 E8.76985
G1 X115.325 Y129.622 E8.78018
G1 X115.988 Y129.380 E8.79050
G1 X116.634 Y129.093 E8.80083
G1 X117.257 Y128.762 E8.81115
G1 X117.856 Y128.387 E8.82147
G1 X118.427 Y127.972 E8.83180
G1 X118.968 Y127.518 E8.84212
G1 X119.476 Y127.028 E8.85245
G1 X119.949 Y126.503 E8.86277
G1 X120.383 Y125.947 E8.87310
G1 X120.778 Y125.361 E8.88342
G1 X121.131 Y124.750 E8.89375
G1 X121.441 Y124.115 E8.90407
G1 X121.705 Y123.460 E8.91440
G1 X121.924 Y122.789 E8.92472
G1 X122.087 Y122.134 E8.93458
G1 X122.217 Y121.408 E8.94537
G1 X122.291 Y120.706 E8.95569
G1 X122.316 Y120.002 E8.96599
G1 X122.316 Y90.002 E9.40461
G1 X122.354 Y88.892 E9.42085
G1 X122.470 Y87.789 E9.43706
G1 X122.654 Y86.747 E9.45253
G1 X122.931 Y85.622 E9.46947
G1 X123.273 Y84.568 E9.48568
G1 X123.689 Y83.540 E9.50189
G1 X124.175 Y82.543 E9.51810
G1 X124.729 Y81.583 E9.53431
G1 X125.349 Y80.664 E9.55052
G1 X126.031 Y79.791 E9.56672
G1 X126.773 Y78.967 E9.58293
G1 X127.571 Y78.197 E9.59914
G1 X128.420 Y77.484 E9.61535
G1 X129.317 Y76.832 E9.63156
G1 X130.257 Y76.245 E9.64777
G1 X131.236 Y75.725 E9.66398
G1 X132.249 Y75.274 E9.68018
G1 X133.290 Y74.894 E9.69639
G1 X134.356 Y74.589 E9.71260
G1 X135.440 Y74.358 E9.72881
G1 X136.538 Y74.204 E9.74502
G1 X137.645 Y74.127 E9.76124
G1 X138.170 Y74.118 E9.76892
G1 X167.072 Y89.532 E10.24784
G1 X167.109 Y89.469 E10.24890
G1 X168.448 Y90.306 E10.27198
G1 X169.820 Y91.303 E10.29678
G1 X171.119 Y92.393 E10.32157
G1 X172.338 Y93.571 E10.34635
G1 X173.473 Y94.830 E10.37114
G1 X174.517 Y96.167 E10.39593
G1 X175.465 Y97.572 E10.42072
G1 X176.313 Y99.041 E10.44552
G1 X177.057 Y100.564 E10.47030
G1 X177.648 Y102.028 E10.49338
G1 X175.167 Y102.931 E10.53197
G1 X174.406 Y101.803 E10.55187
G1 X173.368 Y100.474 E10.57652
G1 X172.240 Y99.221 E10.60117
G1 X171.028 Y98.050 E10.62581
G1 X169.735 Y96.966 E10.65047
G1 X168.228 Y95.883 E10.67761
G1 X148.195 Y95.883 E10.97050
G1 X147.142 Y95.938 E10.98593
G1 X146.442 Y96.037 E10.99627
G1 X145.751 Y96.183 E11.00659
G1 X145.072 Y96.378 E11.01692
G1 X144.409 Y96.620 E11.02724
G1 X143.763 Y96.907 E11.03756
G1 X143.140 Y97.238 E11.04789
G1 X142.538 Y97.615 E11.05827
G1 X141.970 Y98.028 E11.06854
G1 X141.429 Y98.482 E11.07886
G1 X140.921 Y98.972 E11.08919
G1 X140.448 Y99.497 E11.09951
G1 X140.014 Y100.053 E11.10984
G1 X139.621 Y100.636 E11.12011
G1 X139.266 Y101.250 E11.13049
G1 X138.956 Y101.885 E11.14081
G1 X138.692 Y102.540 E11.15113
G1 X138.473 Y103.211 E11.16146
G1 X138.302 Y103.897 E11.17178
G1 X138.180 Y104.592 E11.18211
G1 X138.106 Y105.294 E11.19243
G1 X138.082 Y105.998 E11.20273
G1 X138.082 Y145.883 E11.78587
G1 X42.380 Y145.883 E13.18510
G1 X42.481 Y145.517 F7800.000
G1 E11.18510 F2400.00000
G92 E0
G1 X47.090 Y135.203 F7800.000
G1 E2.00000 F2400.00000
M201 X750 Y750
M204 P750 T750
G1 F1200
G1 X46.310 Y136.063 E2.01697
G1 X45.623 Y136.947 E2.03336
G1 X49.109 Y133.461 E2.10549
G1 X49.556 Y133.136 E2.11357
G1 X49.967 Y132.879 E2.12066
G1 X45.050 Y137.797 E2.22238
G1 X44.669 Y138.454 E2.23349
G1 X50.658 Y132.465 E2.35738
G1 X51.248 Y132.151 E2.36716
G1 X44.354 Y139.045 E2.50977
G1 X44.091 Y139.584 E2.51855
G1 X51.775 Y131.901 E2.67748
G1 X52.273 Y131.679 E2.68546
G1 X43.887 Y140.065 E2.85893
G1 X43.702 Y140.526 E2.86619
G1 X52.726 Y131.503 E3.05285
G1 X53.160 Y131.344 E3.05961
G1 X43.542 Y140.963 E3.25857
G1 X43.409 Y141.372 E3.26487
G1 X53.577 Y131.204 E3.47520
G1 X53.965 Y131.093 E3.48110
G1 X43.279 Y141.779 E3.70214
G1 X43.187 Y142.147 E3.70769
G1 X54.352 Y130.982 E3.93864
G1 X54.715 Y130.896 E3.94409
G1 X43.095 Y142.515 E4.18443
G1 X43.011 Y142.876 E4.18985
G1 X55.066 Y130.821 E4.43921
G1 X55.417 Y130.747 E4.44446
G1 X42.952 Y143.211 E4.70229
G1 X42.893 Y143.547 E4.70728
G1 X55.748 Y130.692 E4.97319
G1 X56.069 Y130.647 E4.97794
G1 X42.835 Y143.881 E5.25169
G1 X42.802 Y144.190 E5.25624
G1 X56.391 Y130.602 E5.53732
G1 X56.704 Y130.565 E5.54193
G1 X42.770 Y144.499 E5.83015
G1 X42.737 Y144.808 E5.83469
G1 X57.001 Y130.544 E6.12974
G1 X57.298 Y130.523 E6.13410
G1 X42.718 Y145.104 E6.43570
G1 X42.708 Y145.390 E6.43989
G1 X57.595 Y130.503 E6.74784
G1 X57.881 Y130.493 E6.75203
G1 X42.861 Y145.513 E7.06272
G1 X43.138 Y145.513 E7.06676
G1 X58.163 Y130.488 E7.37755
G1 X58.440 Y130.487 E7.38161
G1 X43.414 Y145.513 E7.69243
G1 X43.691 Y145.513 E7.69647
G1 X58.717 Y130.487 E8.00729
G1 X58.993 Y130.487 E8.01133
G1 X43.967 Y145.513 E8.32215
G1 X44.244 Y145.513 E8.32619
G1 X59.270 Y130.487 E8.63701
G1 X59.546 Y130.487 E8.64105
G1 X44.520 Y145.513 E8.95187
G1 X44.796 Y145.513 E8.95592
G1 X59.823 Y130.487 E9.26674
G1 X60.099 Y130.487 E9.27078
G1 X45.073 Y145.513 E9.58160
G1 X45.349 Y145.513 E9.58564
G1 X60.375 Y130.487 E9.89646
G1 X60.652 Y130.487 E9.90051
G1 X45.626 Y145.513 E10.21133
G1 X45.902 Y145.513 E10.21537
G1 X60.928 Y130.487 E10.52619
G1 X61.205 Y130.487 E10.53024
G1 X46.178 Y145.513 E10.84106
G1 X46.455 Y145.513 E10.84510
G1 X61.481 Y130.487 E11.15592
G1 X61.758 Y130.487 E11.15997
G1 X46.731 Y145.513 E11.47079
G1 X47.008 Y145.513 E11.47484
G1 X62.034 Y130.487 E11.78566
G1 X62.310 Y130.487 E11.78970
G1 X47.284 Y145.513 E12.10053
G1 X47.560 Y145.513 E12.10457
G1 X62.587 Y130.487 E12.41540
G1 X62.863 Y130.486 E12.41944
G1 X47.837 Y145.513 E12.73027
G1 X48.113 Y145.513 E12.73431
G1 X63.140 Y130.486 E13.04514
G1 X63.416 Y130.486 E13.04918
G1 X48.390 Y145.513 E13.36001
G1 X48.666 Y145.513 E13.36405
G1 X63.693 Y130.486 E13.67488
G1 X63.969 Y130.486 E13.67892
G1 X48.942 Y145.513 E13.98975
G1 X49.219 Y145.513 E13.99380
G1 X64.246 Y130.486 E14.30463
G1 X64.522 Y130.486 E14.30867
G1 X49.495 Y145.513 E14.61950
G1 X49.772 Y145.513 E14.62354
G1 X64.798 Y130.486 E14.93437
G1 X65.075 Y130.486 E14.93842
G1 X50.048 Y145.513 E15.24925
G1 X50.325 Y145.513 E15.25329
G1 X65.351 Y130.486 E15.56412
G1 X65.628 Y130.486 E15.56817
G1 X50.601 Y145.513 E15.87900
G1 X50.877 Y145.513 E15.88304
G1 X65.904 Y130.486 E16.19388
G1 X66.181 Y130.486 E16.19792
G1 X51.154 Y145.513 E16.50875
G1 X51.430 Y145.513 E16.51280
G1 X66.457 Y130.486 E16.82363
G1 X66.734 Y130.486 E16.82767
G1 X51.707 Y145.513 E17.13851
G1 X51.983 Y145.513 E17.14255
G1 X67.010 Y130.486 E17.45339
G1 X67.286 Y130.486 E17.45743
G1 X52.259 Y145.513 E17.76827
G1 X52.536 Y145.513 E17.77231
G1 X67.563 Y130.486 E18.08315
G1 X67.839 Y130.486 E18.08719
G1 X52.812 Y145.513 E18.39803
G1 X53.089 Y145.513 E18.40207
G1 X68.116 Y130.486 E18.71291
G1 X68.392 Y130.486 E18.71696
G1 X53.365 Y145.513 E19.02780
G1 X53.641 Y145.513 E19.03184
G1 X68.669 Y130.486 E19.34268
G1 X68.945 Y130.486 E19.34672
G1 X53.918 Y145.513 E19.65756
G1 X54.194 Y145.513 E19.66161
G1 X69.221 Y130.486 E19.97245
G1 X69.498 Y130.486 E19.97649
G1 X54.471 Y145.513 E20.28733
G1 X54.747 Y145.513 E20.29138
G1 X69.774 Y130.486 E20.60222
