; generated by Slic3r 1.3.0-dev on 2019-01-16 at 07:48:42

; external perimeters extrusion width = 0.40mm (2.00mm^3/s)
; perimeters extrusion width = 0.67mm (5.03mm^3/s)
; infill extrusion width = 0.67mm (5.65mm^3/s)
; solid infill extrusion width = 0.26mm (1.52mm^3/s)
; top infill extrusion width = 0.26mm (1.09mm^3/s)
; support material extrusion width = 0.40mm (2.86mm^3/s)

M107
M190 S60 ; set bed temperature and wait for it to be reached
M104 S200 ; set temperature
G28 ; home all axes
G1 Z5 F5000 ; lift nozzle

; Filament gcode

M109 S200 ; set temperature and wait for it to be reached
G21 ; set units to millimeters
G90 ; use absolute coordinates
M82 ; use absolute distances for extrusion
G92 E0
;LAYER 0 at 0.18mm
M117 printing layer 0 at 0.18mm
G1 Z0.180 F7800.000
G1 E-2.00000 F2400.00000
G92 E0
G1 X41.189 Y71.865 F7800.000
G1 E2.00000 F2400.00000
M204 S2000
G1 F1200
G1 X42.372 Y71.664 E2.01753
G1 X120.282 Y71.667 E3.15664
G1 X120.569 Y71.678 E3.16084
G1 X121.069 Y71.743 E3.16820
G1 X121.497 Y71.849 E3.17465
G1 X121.961 Y72.021 E3.18189
G1 X122.410 Y72.252 E3.18927
G1 X122.715 Y72.450 E3.19459
G1 X179.766 Y113.644 E4.22343
G1 X180.861 Y114.921 E4.24803
G1 X181.248 Y116.360 E4.26982
G1 X181.293 Y117.394 E4.28495
G1 X181.304 Y118.025 E4.29418
G1 X181.274 Y119.669 E4.31822
G1 X181.064 Y121.987 E4.35224
G1 X181.017 Y122.316 E4.35710
G1 X180.682 Y124.066 E4.38316
G1 X180.602 Y124.399 E4.38816
G1 X180.151 Y125.937 E4.41159
G1 X180.036 Y126.270 E4.41675
G1 X179.477 Y127.656 E4.43860
G1 X179.324 Y127.984 E4.44389
G1 X178.652 Y129.263 E4.46501
G1 X178.464 Y129.579 E4.47039
G1 X177.670 Y130.772 E4.49134
G1 X177.444 Y131.076 E4.49688
G1 X176.483 Y132.233 E4.51887
G1 X176.234 Y132.504 E4.52425
G1 X175.199 Y133.518 E4.54544
G1 X174.936 Y133.751 E4.55057
G1 X173.711 Y134.736 E4.57355
G1 X173.427 Y134.942 E4.57868
G1 X171.947 Y135.910 E4.60454
G1 X171.646 Y136.087 E4.60965
G1 X169.812 Y137.045 E4.63990
G1 X169.497 Y137.191 E4.64497
G1 X167.160 Y138.138 E4.68184
G1 X166.815 Y138.258 E4.68719
G1 X163.110 Y139.331 E4.74358
G1 X120.924 Y149.338 E5.37749
G1 X119.567 Y149.585 E5.39764
G1 X119.190 Y149.633 E5.40320
G1 X117.815 Y149.735 E5.42336
G1 X117.435 Y149.743 E5.42892
G1 X116.057 Y149.698 E5.44908
G1 X115.678 Y149.666 E5.45464
G1 X114.313 Y149.476 E5.47479
G1 X113.939 Y149.403 E5.48035
G1 X112.602 Y149.070 E5.50051
G1 X112.238 Y148.958 E5.50607
G1 X110.943 Y148.485 E5.52622
G1 X110.594 Y148.335 E5.53179
G1 X109.356 Y147.727 E5.55194
G1 X109.024 Y147.542 E5.55750
G1 X107.858 Y146.806 E5.57766
G1 X107.548 Y146.587 E5.58322
G1 X106.287 Y145.580 E5.60681
G1 X45.172 Y90.394 E6.81074
G1 X43.856 Y89.084 E6.83789
G1 X43.604 Y88.805 E6.84338
G1 X42.614 Y87.581 E6.86640
G1 X42.330 Y87.199 E6.87335
G1 X41.418 Y85.795 E6.89784
G1 X41.230 Y85.470 E6.90333
G1 X40.470 Y83.978 E6.92781
G1 X40.317 Y83.635 E6.93330
G1 X39.753 Y82.165 E6.95632
G1 X39.601 Y81.714 E6.96327
G1 X39.167 Y80.096 E6.98776
G1 X39.089 Y79.729 E6.99325
G1 X38.827 Y78.075 E7.01773
G1 X38.788 Y77.702 E7.02322
G1 X38.700 Y76.029 E7.04771
G1 X38.699 Y75.649 E7.05327
G1 X38.737 Y75.165 E7.06037
G1 X38.780 Y74.875 E7.06465
G1 X38.933 Y74.232 E7.07432
G1 X39.776 Y72.776 E7.09891
G1 X41.139 Y71.897 E7.12263
G1 X41.341 Y72.020 F7800.000
G1 F1200
G1 X42.372 Y71.860 E7.13788
G1 X120.282 Y71.862 E8.27699
G1 X120.557 Y71.873 E8.28101
G1 X121.034 Y71.935 E8.28803
G1 X121.437 Y72.035 E8.29411
G1 X121.881 Y72.199 E8.30103
G1 X122.309 Y72.419 E8.30807
G1 X122.601 Y72.608 E8.31316
G1 X179.652 Y113.802 E9.34200
G1 X180.708 Y115.051 E9.36590
G1 X181.053 Y116.371 E9.38585
G1 X181.108 Y117.892 E9.40811
G1 X181.064 Y119.926 E9.43785
G1 X180.869 Y121.968 E9.46784
G1 X180.825 Y122.279 E9.47244
G1 X180.490 Y124.029 E9.49849
G1 X180.414 Y124.344 E9.50322
G1 X179.964 Y125.882 E9.52665
G1 X179.854 Y126.197 E9.53153
G1 X179.295 Y127.583 E9.55338
G1 X179.152 Y127.893 E9.55838
G1 X178.479 Y129.172 E9.57950
G1 X178.301 Y129.471 E9.58459
G1 X177.507 Y130.664 E9.60554
G1 X177.293 Y130.951 E9.61077
G1 X176.333 Y132.108 E9.63277
G1 X176.097 Y132.364 E9.63786
G1 X175.062 Y133.378 E9.65904
G1 X174.814 Y133.599 E9.66389
G1 X173.589 Y134.583 E9.68687
G1 X173.320 Y134.778 E9.69172
G1 X171.840 Y135.747 E9.71759
G1 X171.555 Y135.914 E9.72241
G1 X169.722 Y136.872 E9.75266
G1 X169.424 Y137.010 E9.75746
G1 X167.086 Y137.957 E9.79433
G1 X166.760 Y138.070 E9.79939
G1 X163.065 Y139.141 E9.85564
G1 X120.889 Y149.146 E10.48939
G1 X119.532 Y149.393 E10.50955
G1 X119.176 Y149.438 E10.51481
G1 X117.801 Y149.540 E10.53496
G1 X117.441 Y149.547 E10.54022
G1 X116.063 Y149.503 E10.56037
G1 X115.705 Y149.472 E10.56563
G1 X114.340 Y149.282 E10.58579
G1 X113.987 Y149.214 E10.59105
G1 X112.649 Y148.880 E10.61120
G1 X112.305 Y148.775 E10.61646
G1 X111.010 Y148.301 E10.63662
G1 X110.680 Y148.160 E10.64187
G1 X109.442 Y147.552 E10.66203
G1 X109.128 Y147.377 E10.66729
G1 X107.962 Y146.641 E10.68744
G1 X107.669 Y146.433 E10.69270
G1 X106.418 Y145.435 E10.71610
G1 X45.303 Y90.249 E11.92003
G1 X43.994 Y88.945 E11.94704
G1 X43.756 Y88.682 E11.95223
G1 X42.765 Y87.458 E11.97525
G1 X42.494 Y87.093 E11.98190
G1 X41.581 Y85.688 E12.00639
G1 X41.404 Y85.381 E12.01158
G1 X40.689 Y83.978 E12.03459
G1 X40.499 Y83.565 E12.04125
G1 X39.899 Y82.001 E12.06574
G1 X39.789 Y81.664 E12.07093
G1 X39.382 Y80.143 E12.09394
G1 X39.282 Y79.699 E12.10060
G1 X39.020 Y78.045 E12.12509
G1 X38.983 Y77.692 E12.13028
G1 X38.896 Y76.019 E12.15476
G1 X38.895 Y75.654 E12.16010
G1 X38.931 Y75.190 E12.16690
G1 X39.053 Y74.533 E12.17668
G1 X39.121 Y74.287 E12.18040
G1 X39.949 Y72.878 E12.20430
G1 X41.290 Y72.052 E12.22733
G1 X41.490 Y72.179 F7800.000
G1 F1200
G1 X42.372 Y72.055 E12.24034
G1 X120.282 Y72.058 E13.37945
G1 X120.545 Y72.068 E13.38330
G1 X120.998 Y72.127 E13.38998
G1 X121.379 Y72.221 E13.39572
G1 X121.801 Y72.377 E13.40229
G1 X122.208 Y72.586 E13.40898
G1 X122.487 Y72.767 E13.41383
G1 X179.538 Y113.961 E14.44267
G1 X180.553 Y115.179 E14.46587
G1 X180.858 Y116.381 E14.48399
G1 X180.913 Y117.896 E14.50616
G1 X180.869 Y119.907 E14.53557
G1 X180.633 Y122.242 E14.56989
G1 X180.298 Y123.993 E14.59594
G1 X180.227 Y124.289 E14.60039
G1 X179.776 Y125.827 E14.62382
G1 X179.673 Y126.124 E14.62842
G1 X179.114 Y127.510 E14.65027
G1 X178.979 Y127.802 E14.65498
G1 X178.306 Y129.081 E14.67611
G1 X178.139 Y129.363 E14.68090
G1 X177.344 Y130.556 E14.70185
G1 X177.143 Y130.826 E14.70678
G1 X176.182 Y131.984 E14.72878
G1 X175.960 Y132.225 E14.73357
G1 X174.925 Y133.239 E14.75476
G1 X174.691 Y133.446 E14.75933
G1 X173.466 Y134.431 E14.78231
G1 X173.213 Y134.615 E14.78688
G1 X171.733 Y135.583 E14.81274
G1 X171.465 Y135.741 E14.81729
G1 X169.631 Y136.699 E14.84754
G1 X169.351 Y136.829 E14.85206
G1 X167.013 Y137.776 E14.88894
G1 X166.705 Y137.883 E14.89369
G1 X163.019 Y138.951 E14.94980
G1 X120.854 Y148.954 E15.58341
G1 X119.497 Y149.200 E15.60356
G1 X119.161 Y149.243 E15.60852
G1 X117.786 Y149.345 E15.62867
G1 X117.447 Y149.352 E15.63363
G1 X116.070 Y149.308 E15.65378
G1 X115.732 Y149.279 E15.65874
G1 X114.367 Y149.089 E15.67890
G1 X114.034 Y149.024 E15.68385
G1 X112.696 Y148.690 E15.70400
G1 X112.372 Y148.591 E15.70896
G1 X111.078 Y148.118 E15.72912
G1 X110.766 Y147.985 E15.73407
G1 X109.529 Y147.377 E15.75423
G1 X109.233 Y147.211 E15.75918
G1 X108.067 Y146.476 E15.77934
G1 X107.790 Y146.280 E15.78429
G1 X106.549 Y145.290 E15.80751
G1 X45.434 Y90.104 E17.01144
G1 X44.132 Y88.807 E17.03830
G1 X43.908 Y88.559 E17.04319
G1 X42.917 Y87.335 E17.06621
G1 X42.657 Y86.987 E17.07256
G1 X41.745 Y85.582 E17.09705
G1 X41.578 Y85.292 E17.10194
G1 X40.863 Y83.890 E17.12496
G1 X40.682 Y83.495 E17.13132
G1 X40.082 Y81.931 E17.15580
G1 X39.978 Y81.613 E17.16069
G1 X39.571 Y80.092 E17.18371
G1 X39.475 Y79.668 E17.19007
G1 X39.213 Y78.014 E17.21455
G1 X39.178 Y77.681 E17.21944
G1 X39.091 Y76.009 E17.24393
G1 X39.090 Y75.659 E17.24904
G1 X39.124 Y75.216 E17.25554
G1 X39.243 Y74.578 E17.26503
G1 X39.308 Y74.343 E17.26860
G1 X40.122 Y72.981 E17.29179
G1 X41.438 Y72.209 E17.31410
G1 E15.31410 F2400.00000
G92 E0
G1 X42.617 Y75.563 F7800.000
G1 E2.00000 F2400.00000
G1 F1200
G1 X120.347 Y75.576 E3.13647
G1 X120.484 Y75.662 E3.13884
G1 X120.535 Y75.746 E3.14027
G1 X120.558 Y75.870 E3.14212
G1 X120.558 Y115.850 E3.72665
G1 X120.622 Y117.067 E3.74448
G1 X120.814 Y118.279 E3.76242
G1 X121.131 Y119.465 E3.78036
G1 X121.571 Y120.610 E3.79830
G1 X122.128 Y121.704 E3.81625
G1 X122.797 Y122.733 E3.83419
G1 X123.569 Y123.687 E3.85213
G1 X124.437 Y124.554 E3.87007
G1 X125.390 Y125.327 E3.88802
G1 X126.419 Y125.995 E3.90596
G1 X127.513 Y126.552 E3.92390
G1 X128.659 Y126.992 E3.94184
G1 X129.844 Y127.310 E3.95979
G1 X131.056 Y127.502 E3.97773
G1 X132.273 Y127.565 E3.99555
G1 X162.290 Y127.565 E4.43441
G1 X164.036 Y127.474 E4.45998
G1 X165.772 Y127.198 E4.48567
G1 X167.468 Y126.741 E4.51136
G1 X169.108 Y126.109 E4.53705
G1 X170.672 Y125.309 E4.56274
G1 X172.143 Y124.349 E4.58843
G1 X173.506 Y123.240 E4.61412
G1 X174.745 Y121.994 E4.63981
G1 X175.846 Y120.624 E4.66550
G1 X176.798 Y119.147 E4.69119
G1 X177.312 Y118.128 E4.70788
G1 X177.403 Y118.150 E4.70924
G1 X177.376 Y119.586 E4.73024
G1 X177.185 Y121.599 E4.75979
G1 X176.856 Y123.317 E4.78538
G1 X176.414 Y124.826 E4.80836
G1 X175.867 Y126.183 E4.82976
G1 X175.210 Y127.432 E4.85040
G1 X174.434 Y128.598 E4.87087
G1 X173.494 Y129.730 E4.89239
G1 X172.482 Y130.722 E4.91310
G1 X171.280 Y131.688 E4.93564
G1 X169.826 Y132.639 E4.96105
G1 X168.019 Y133.584 E4.99086
G1 X165.711 Y134.519 E5.02728
G1 X162.202 Y135.540 E5.08070
G1 X120.218 Y145.504 E5.71159
G1 X118.886 Y145.746 E5.73139
G1 X117.544 Y145.846 E5.75106
G1 X116.199 Y145.802 E5.77073
G1 X114.867 Y145.617 E5.79040
G1 X113.561 Y145.291 E5.81007
G1 X112.298 Y144.829 E5.82974
G1 X111.090 Y144.236 E5.84941
G1 X109.952 Y143.518 E5.86908
G1 X108.897 Y142.684 E5.88875
G1 X107.936 Y141.742 E5.90842
G1 X107.132 Y140.767 E5.92690
G1 X106.338 Y139.581 E5.94777
G1 X105.720 Y138.387 E5.96743
G1 X105.232 Y137.133 E5.98710
G1 X104.879 Y135.835 E6.00677
G1 X104.666 Y134.506 E6.02644
G1 X104.594 Y133.154 E6.04623
G1 X104.594 Y101.214 E6.51323
G1 X104.541 Y100.209 E6.52794
G1 X104.383 Y99.207 E6.54277
G1 X104.120 Y98.227 E6.55761
G1 X103.756 Y97.279 E6.57244
G1 X103.296 Y96.375 E6.58728
G1 X102.743 Y95.525 E6.60211
G1 X102.105 Y94.736 E6.61694
G1 X101.387 Y94.019 E6.63178
G1 X100.599 Y93.380 E6.64661
G1 X99.748 Y92.828 E6.66145
G1 X98.844 Y92.367 E6.67628
G1 X97.897 Y92.003 E6.69111
G1 X96.917 Y91.741 E6.70595
G1 X95.915 Y91.582 E6.72078
G1 X94.910 Y91.529 E6.73550
G1 X58.290 Y91.529 E7.27090
G1 X56.642 Y91.443 E7.29503
G1 X55.118 Y91.202 E7.31758
G1 X53.433 Y90.761 E7.34305
G1 X51.901 Y90.173 E7.36704
G1 X50.438 Y89.427 E7.39105
G1 X49.061 Y88.533 E7.41506
G1 X47.785 Y87.500 E7.43907
G1 X46.624 Y86.339 E7.46307
G1 X45.590 Y85.062 E7.48708
G1 X44.696 Y83.685 E7.51109
G1 X43.996 Y82.311 E7.53364
G1 X43.362 Y80.688 E7.55911
G1 X42.937 Y79.103 E7.58310
G1 X42.680 Y77.481 E7.60711
G1 X42.595 Y75.846 E7.63106
G1 X42.612 Y75.623 E7.63433
G1 X42.464 Y75.367 F7800.000
G1 F1200
G1 X120.275 Y75.370 E8.77197
G1 X120.394 Y75.385 E8.77374
G1 X120.497 Y75.424 E8.77534
G1 X120.633 Y75.530 E8.77787
G1 X120.721 Y75.675 E8.78035
G1 X120.753 Y75.852 E8.78298
G1 X120.753 Y115.845 E9.36770
G1 X120.816 Y117.047 E9.38529
G1 X121.005 Y118.239 E9.40294
G1 X121.317 Y119.404 E9.42058
G1 X121.750 Y120.531 E9.43822
G1 X122.298 Y121.606 E9.45587
G1 X122.955 Y122.618 E9.47351
G1 X123.714 Y123.556 E9.49115
G1 X124.567 Y124.409 E9.50880
G1 X125.505 Y125.169 E9.52644
G1 X126.517 Y125.826 E9.54408
G1 X127.593 Y126.374 E9.56173
G1 X128.719 Y126.806 E9.57937
G1 X129.885 Y127.118 E9.59701
G1 X131.077 Y127.307 E9.61465
G1 X132.279 Y127.370 E9.63225
G1 X162.285 Y127.370 E10.07096
G1 X164.016 Y127.279 E10.09631
G1 X165.731 Y127.006 E10.12170
G1 X167.408 Y126.555 E10.14709
G1 X169.028 Y125.931 E10.17247
G1 X170.574 Y125.140 E10.19786
G1 X172.028 Y124.191 E10.22325
G1 X173.375 Y123.095 E10.24864
G1 X173.558 Y122.910 E10.25244
G1 X174.599 Y121.863 E10.27403
G1 X175.687 Y120.510 E10.29942
G1 X176.628 Y119.050 E10.32481
G1 X177.409 Y117.501 E10.35018
G1 X177.485 Y117.314 E10.35313
G1 X177.578 Y117.330 E10.35451
G1 X177.601 Y117.964 E10.36378
G1 X177.572 Y119.597 E10.38767
G1 X177.378 Y121.626 E10.41747
G1 X177.046 Y123.363 E10.44332
G1 X176.599 Y124.890 E10.46659
G1 X176.044 Y126.265 E10.48827
G1 X175.378 Y127.532 E10.50920
G1 X174.591 Y128.715 E10.52997
G1 X173.638 Y129.863 E10.55178
G1 X172.612 Y130.868 E10.57278
G1 X171.395 Y131.846 E10.59560
G1 X169.925 Y132.808 E10.62129
G1 X168.101 Y133.761 E10.65138
G1 X165.775 Y134.704 E10.68808
G1 X162.252 Y135.729 E10.74172
G1 X120.258 Y145.695 E11.37276
G1 X118.910 Y145.940 E11.39278
G1 X117.548 Y146.041 E11.41276
G1 X116.183 Y145.997 E11.43273
G1 X114.830 Y145.809 E11.45270
G1 X113.504 Y145.478 E11.47268
G1 X112.221 Y145.009 E11.49265
G1 X110.995 Y144.406 E11.51263
G1 X109.839 Y143.678 E11.53260
G1 X108.768 Y142.830 E11.55257
G1 X107.792 Y141.874 E11.57255
G1 X106.975 Y140.884 E11.59132
G1 X106.169 Y139.680 E11.61250
G1 X105.542 Y138.467 E11.63246
G1 X105.046 Y137.194 E11.65244
G1 X104.688 Y135.876 E11.67241
G1 X104.471 Y134.527 E11.69239
G1 X104.399 Y133.160 E11.71241
G1 X104.399 Y101.219 E12.17940
G1 X104.347 Y100.229 E12.19389
G1 X104.191 Y99.247 E12.20843
G1 X103.934 Y98.287 E12.22296
G1 X103.578 Y97.359 E12.23749
G1 X103.126 Y96.473 E12.25203
G1 X102.585 Y95.640 E12.26656
G1 X101.959 Y94.867 E12.28110
G1 X101.256 Y94.164 E12.29563
G1 X100.484 Y93.538 E12.31017
G1 X99.650 Y92.997 E12.32470
G1 X98.764 Y92.546 E12.33924
G1 X97.836 Y92.189 E12.35377
G1 X96.876 Y91.932 E12.36831
G1 X95.894 Y91.777 E12.38284
G1 X94.904 Y91.725 E12.39733
G1 X58.285 Y91.725 E12.93274
G1 X56.621 Y91.638 E12.95709
G1 X55.078 Y91.393 E12.97993
G1 X53.373 Y90.947 E13.00570
G1 X51.821 Y90.351 E13.03000
G1 X50.340 Y89.597 E13.05431
G1 X48.946 Y88.691 E13.07861
G1 X47.654 Y87.645 E13.10292
G1 X46.478 Y86.469 E13.12723
G1 X45.432 Y85.177 E13.15153
G1 X44.527 Y83.783 E13.17584
G1 X43.817 Y82.391 E13.19868
G1 X43.176 Y80.749 E13.22445
G1 X42.746 Y79.144 E13.24875
G1 X42.486 Y77.502 E13.27306
G1 X42.399 Y75.843 E13.29734
G1 X42.422 Y75.547 E13.30169
G1 X42.451 Y75.426 E13.30351
G1 X42.801 Y75.583 F7800.000
G1 X42.777 Y75.779 F7800.000
M204 S750
G1 F1200
G1 X42.819 Y75.737 E13.30437
G1 X43.095 Y75.737 E13.30841
G1 X42.779 Y76.053 E13.31495
G1 X42.793 Y76.316 E13.31880
G1 X43.372 Y75.737 E13.33077
G1 X43.648 Y75.737 E13.33481
G1 X42.807 Y76.579 E13.35222
G1 X42.821 Y76.841 E13.35606
G1 X43.925 Y75.737 E13.37890
G1 X44.201 Y75.737 E13.38295
G1 X42.834 Y77.104 E13.41122
G1 X42.848 Y77.367 E13.41507
G1 X44.477 Y75.737 E13.44877
G1 X44.754 Y75.737 E13.45282
G1 X42.875 Y77.616 E13.49168
G1 X42.913 Y77.855 E13.49522
G1 X45.030 Y75.737 E13.53901
G1 X45.307 Y75.737 E13.54306
G1 X42.951 Y78.093 E13.59179
G1 X42.989 Y78.332 E13.59533
G1 X45.583 Y75.737 E13.64900
G1 X45.860 Y75.737 E13.65305
G1 X43.027 Y78.570 E13.71166
G1 X43.064 Y78.809 E13.71519
G1 X46.136 Y75.737 E13.77874
G1 X46.413 Y75.737 E13.78278
G1 X43.102 Y79.048 E13.85127
G1 X43.158 Y79.269 E13.85460
G1 X46.689 Y75.737 E13.92766
G1 X46.965 Y75.737 E13.93170
G1 X43.216 Y79.487 E14.00927
G1 X43.274 Y79.705 E14.01257
G1 X47.242 Y75.737 E14.09465
G1 X47.518 Y75.737 E14.09870
G1 X43.333 Y79.923 E14.18529
G1 X43.391 Y80.141 E14.18859
G1 X47.795 Y75.738 E14.27969
G1 X48.071 Y75.738 E14.28373
G1 X43.450 Y80.359 E14.37934
G1 X43.508 Y80.577 E14.38265
G1 X48.348 Y75.738 E14.48277
G1 X48.624 Y75.738 E14.48681
G1 X43.579 Y80.782 E14.59117
G1 X43.657 Y80.981 E14.59430
G1 X48.900 Y75.738 E14.70277
G1 X49.177 Y75.738 E14.70681
G1 X43.735 Y81.180 E14.81940
G1 X43.812 Y81.378 E14.82252
G1 X49.453 Y75.738 E14.93922
G1 X49.730 Y75.738 E14.94327
G1 X43.890 Y81.577 E15.06408
G1 X43.968 Y81.776 E15.06720
G1 X50.006 Y75.738 E15.19213
G1 X50.283 Y75.738 E15.19617
G1 X44.045 Y81.975 E15.32521
G1 X44.123 Y82.174 E15.32833
G1 X50.559 Y75.738 E15.46148
G1 X50.836 Y75.738 E15.46552
G1 X44.210 Y82.363 E15.60259
G1 X44.304 Y82.546 E15.60560
G1 X51.112 Y75.738 E15.74645
G1 X51.388 Y75.738 E15.75049
G1 X44.397 Y82.729 E15.89514
