; generated by Slic3r 1.3.0 on 2019-01-18 at 22:55:37

; external perimeters extrusion width = 0.44mm (2.22mm^3/s)
; perimeters extrusion width = 0.56mm (4.14mm^3/s)
; infill extrusion width = 0.50mm (4.11mm^3/s)
; solid infill extrusion width = 0.26mm (1.52mm^3/s)
; top infill extrusion width = 0.26mm (1.09mm^3/s)

M107
M190 S60 ; set bed temperature and wait for it to be reached
M104 S200 ; set temperature
G90                    ;absolute positioning
G28 ; home all axes
G1 Z5 F5000 ; lift nozzle

; Filament gcode

M109 S200 ; set temperature and wait for it to be reached
G21 ; set units to millimeters
G90 ; use absolute coordinates
M82 ; use absolute distances for extrusion
G92 E0
;LAYER 0 at 0.18mm
M117 printing layer 0 at 0.18mm
G1 Z0.180 F7800.000
G1 E-2.00000 F2400.00000
G92 E0
G1 X51.054 Y86.251 F7800.000
G1 E2.00000 F2400.00000
M201 X2000 Y2000
M204 P2000 T2000
G1 F1200
G1 X80.122 Y70.832 E2.48109
G1 X81.864 Y70.414 E2.50729
G1 X82.610 Y70.432 E2.51819
G1 X83.724 Y70.510 E2.53452
G1 X85.079 Y70.692 E2.55451
G1 X86.418 Y70.968 E2.57449
G1 X87.734 Y71.336 E2.59448
G1 X89.022 Y71.795 E2.61447
G1 X90.274 Y72.343 E2.63445
G1 X91.485 Y72.977 E2.65444
G1 X92.805 Y73.798 E2.67716
G1 X172.805 Y129.798 E4.10491
G1 X173.957 Y130.645 E4.12581
G1 X174.999 Y131.530 E4.14580
G1 X175.802 Y132.306 E4.16213
G1 X176.723 Y133.316 E4.18211
G1 X177.572 Y134.388 E4.20210
G1 X178.343 Y135.516 E4.22209
G1 X179.009 Y136.652 E4.24134
G1 X179.743 Y138.149 E4.26571
G1 X180.247 Y139.420 E4.28570
G1 X180.661 Y140.722 E4.30568
G1 X180.984 Y142.051 E4.32567
G1 X181.212 Y143.398 E4.34566
G1 X181.329 Y144.509 E4.36199
G1 X181.385 Y145.875 E4.38197
G1 X181.048 Y147.523 E4.40656
G1 X179.997 Y148.835 E4.43115
G1 X177.801 Y149.586 E4.46508
G1 X81.801 Y149.586 E5.86866
G1 X80.166 Y149.192 E5.89326
G1 X79.139 Y148.402 E5.91221
G1 X39.536 Y104.498 E6.77667
G1 X38.733 Y103.020 E6.80127
G1 X38.873 Y100.753 E6.83447
G1 X39.512 Y99.173 E6.85938
G1 X40.361 Y97.413 E6.88796
G1 X41.325 Y95.725 E6.91639
G1 X42.563 Y93.890 E6.94874
G1 X43.773 Y92.356 E6.97731
G1 X44.913 Y91.089 E7.00223
G1 X46.311 Y89.727 E7.03077
G1 X48.000 Y88.309 E7.06302
G1 X49.502 Y87.222 E7.09012
G1 X51.002 Y86.282 E7.11600
G1 X51.156 Y86.417 F7800.000
G1 F1200
G1 X80.213 Y71.004 E7.59691
G1 X81.861 Y70.610 E7.62168
G1 X82.596 Y70.627 E7.63244
G1 X83.710 Y70.705 E7.64877
G1 X85.052 Y70.885 E7.66856
G1 X86.377 Y71.159 E7.68834
G1 X87.680 Y71.524 E7.70813
G1 X88.955 Y71.979 E7.72792
G1 X90.194 Y72.522 E7.74770
G1 X91.393 Y73.150 E7.76749
G1 X92.693 Y73.958 E7.78986
G1 X172.693 Y129.958 E9.21761
G1 X173.832 Y130.794 E9.23827
G1 X174.863 Y131.671 E9.25805
G1 X175.666 Y132.446 E9.27438
G1 X176.578 Y133.446 E9.29417
G1 X177.418 Y134.508 E9.31395
G1 X178.181 Y135.625 E9.33374
G1 X178.840 Y136.750 E9.35279
G1 X179.562 Y138.222 E9.37677
G1 X180.061 Y139.480 E9.39656
G1 X180.472 Y140.769 E9.41634
G1 X180.791 Y142.085 E9.43613
G1 X181.018 Y143.419 E9.45592
G1 X181.135 Y144.530 E9.47225
G1 X181.190 Y145.882 E9.49203
G1 X180.852 Y147.481 E9.51593
G1 X179.804 Y148.736 E9.53984
G1 X177.801 Y149.391 E9.57064
G1 X81.801 Y149.391 E10.97423
G1 X80.215 Y148.997 E10.99813
G1 X79.284 Y148.271 E11.01539
G1 X39.681 Y104.368 E11.87986
G1 X38.911 Y102.925 E11.90376
G1 X39.055 Y100.827 E11.93452
G1 X39.693 Y99.247 E11.95943
G1 X40.536 Y97.499 E11.98781
G1 X41.495 Y95.822 E12.01604
G1 X42.717 Y94.010 E12.04800
G1 X43.918 Y92.486 E12.07637
G1 X45.058 Y91.220 E12.10128
G1 X46.447 Y89.867 E12.12962
G1 X48.115 Y88.467 E12.16147
G1 X49.610 Y87.385 E12.18845
G1 X51.105 Y86.449 E12.21424
G1 X51.258 Y86.584 F7800.000
G1 F1200
G1 X80.305 Y71.177 E12.69497
G1 X81.858 Y70.805 E12.71831
G1 X82.583 Y70.822 E12.72892
G1 X83.697 Y70.900 E12.74524
G1 X85.025 Y71.079 E12.76483
G1 X86.337 Y71.350 E12.78442
G1 X87.626 Y71.711 E12.80400
G1 X88.888 Y72.162 E12.82360
G1 X90.115 Y72.700 E12.84318
G1 X91.302 Y73.322 E12.86277
G1 X92.581 Y74.118 E12.88479
G1 X172.581 Y130.118 E14.31254
G1 X173.706 Y130.944 E14.33295
G1 X174.727 Y131.811 E14.35254
G1 X175.531 Y132.587 E14.36887
G1 X176.433 Y133.577 E14.38845
G1 X177.264 Y134.628 E14.40804
G1 X178.019 Y135.734 E14.42763
G1 X178.671 Y136.847 E14.44648
G1 X179.381 Y138.295 E14.47006
G1 X179.876 Y139.540 E14.48965
G1 X180.282 Y140.817 E14.50923
G1 X180.599 Y142.119 E14.52882
G1 X180.824 Y143.439 E14.54841
G1 X180.940 Y144.550 E14.56474
G1 X180.995 Y145.888 E14.58432
G1 X180.655 Y147.438 E14.60752
G1 X179.612 Y148.633 E14.63071
G1 X177.801 Y149.195 E14.65843
G1 X81.801 Y149.195 E16.06201
G1 X80.265 Y148.802 E16.08521
G1 X79.429 Y148.140 E16.10079
G1 X39.826 Y104.237 E16.96526
G1 X39.089 Y102.832 E16.98845
G1 X39.236 Y100.900 E17.01679
G1 X39.874 Y99.320 E17.04170
G1 X40.712 Y97.584 E17.06988
G1 X41.664 Y95.920 E17.09791
G1 X42.871 Y94.130 E17.12947
G1 X44.063 Y92.617 E17.15764
G1 X45.203 Y91.351 E17.18255
G1 X46.582 Y90.008 E17.21070
G1 X48.230 Y88.625 E17.24214
G1 X49.718 Y87.548 E17.26900
G1 X51.207 Y86.615 E17.29469
G1 E15.29469 F2400.00000
G92 E0
G1 X82.114 Y145.688 F7800.000
G1 E2.00000 F2400.00000
G1 F1200
G1 X82.114 Y105.995 E2.58034
G1 X82.089 Y105.281 E2.59079
G1 X82.014 Y104.565 E2.60131
G1 X81.889 Y103.856 E2.61183
G1 X81.715 Y103.157 E2.62236
G1 X81.492 Y102.473 E2.63288
G1 X81.223 Y101.805 E2.64341
G1 X80.907 Y101.159 E2.65393
G1 X80.547 Y100.535 E2.66445
G1 X80.145 Y99.938 E2.67498
G1 X79.701 Y99.371 E2.68550
G1 X79.220 Y98.836 E2.69603
G1 X78.702 Y98.336 E2.70655
G1 X78.151 Y97.874 E2.71707
G1 X77.568 Y97.450 E2.72760
G1 X76.958 Y97.069 E2.73812
G1 X76.322 Y96.731 E2.74865
G1 X75.665 Y96.438 E2.75917
G1 X74.988 Y96.192 E2.76969
G1 X74.296 Y95.994 E2.78022
G1 X73.592 Y95.844 E2.79074
G1 X72.877 Y95.744 E2.80131
G1 X71.810 Y95.688 E2.81693
G1 X51.709 Y95.688 E3.11082
G1 X50.145 Y96.812 E3.13898
G1 X48.841 Y97.905 E3.16385
G1 X47.620 Y99.085 E3.18869
G1 X46.482 Y100.348 E3.21354
G1 X45.436 Y101.688 E3.23839
G1 X44.756 Y102.695 E3.25616
G1 X42.609 Y101.913 E3.28956
G1 X43.122 Y100.644 E3.30958
G1 X43.859 Y99.132 E3.33417
G1 X44.701 Y97.676 E3.35876
G1 X45.641 Y96.282 E3.38335
G1 X46.677 Y94.956 E3.40794
G1 X47.802 Y93.706 E3.43253
G1 X49.012 Y92.538 E3.45712
G1 X50.300 Y91.457 E3.48170
G1 X51.661 Y90.468 E3.50630
G1 X52.824 Y89.741 E3.52635
G1 X52.854 Y89.793 E3.52722
G1 X81.861 Y74.322 E4.00787
G1 X82.349 Y74.322 E4.01500
G1 X83.441 Y74.399 E4.03101
G1 X84.526 Y74.551 E4.04702
G1 X85.597 Y74.779 E4.06303
G1 X86.649 Y75.080 E4.07904
G1 X87.678 Y75.455 E4.09505
G1 X88.678 Y75.900 E4.11106
G1 X89.645 Y76.414 E4.12707
G1 X90.574 Y76.995 E4.14308
G1 X91.460 Y77.638 E4.15909
G1 X92.298 Y78.342 E4.17510
G1 X93.086 Y79.103 E4.19111
G1 X93.819 Y79.916 E4.20711
G1 X94.493 Y80.779 E4.22312
G1 X95.105 Y81.687 E4.23913
G1 X95.653 Y82.635 E4.25514
G1 X96.133 Y83.619 E4.27115
G1 X96.543 Y84.635 E4.28716
G1 X96.881 Y85.676 E4.30317
G1 X97.146 Y86.738 E4.31918
G1 X97.336 Y87.817 E4.33519
G1 X97.451 Y88.906 E4.35120
G1 X97.489 Y90.005 E4.36729
G1 X97.489 Y120.005 E4.80591
G1 X97.514 Y120.719 E4.81635
G1 X97.589 Y121.435 E4.82687
G1 X97.714 Y122.144 E4.83740
G1 X97.888 Y122.843 E4.84792
G1 X98.111 Y123.527 E4.85845
G1 X98.380 Y124.195 E4.86897
G1 X98.696 Y124.841 E4.87950
G1 X99.056 Y125.465 E4.89002
G1 X99.458 Y126.062 E4.90054
G1 X99.902 Y126.629 E4.91107
G1 X100.362 Y127.140 E4.92113
G1 X100.901 Y127.663 E4.93211
G1 X101.452 Y128.126 E4.94264
G1 X102.035 Y128.550 E4.95317
G1 X102.673 Y128.946 E4.96415
G1 X103.281 Y129.269 E4.97421
G1 X103.938 Y129.562 E4.98473
G1 X104.615 Y129.808 E4.99526
G1 X105.307 Y130.006 E5.00578
G1 X106.011 Y130.156 E5.01631
G1 X106.724 Y130.256 E5.02683
G1 X107.442 Y130.306 E5.03735
G1 X161.799 Y130.312 E5.83209
G1 X162.346 Y130.322 E5.84010
G1 X163.441 Y130.399 E5.85615
G1 X164.526 Y130.551 E5.87216
G1 X165.597 Y130.779 E5.88817
G1 X166.649 Y131.080 E5.90418
G1 X167.678 Y131.455 E5.92019
G1 X168.678 Y131.900 E5.93620
G1 X169.645 Y132.414 E5.95220
G1 X170.574 Y132.995 E5.96821
G1 X171.460 Y133.638 E5.98422
G1 X172.298 Y134.342 E6.00023
G1 X173.086 Y135.103 E6.01624
G1 X173.819 Y135.916 E6.03225
G1 X174.493 Y136.779 E6.04826
G1 X175.105 Y137.687 E6.06427
G1 X175.653 Y138.635 E6.08028
G1 X176.133 Y139.619 E6.09629
G1 X176.543 Y140.635 E6.11230
G1 X176.881 Y141.676 E6.12831
G1 X177.146 Y142.738 E6.14431
G1 X177.337 Y143.827 E6.16047
G1 X177.451 Y144.906 E6.17633
G1 X177.478 Y145.688 E6.18777
G1 X82.174 Y145.688 E7.58119
G1 X81.918 Y145.883 F7800.000
G1 F1200
G1 X81.918 Y105.998 E8.16433
G1 X81.894 Y105.294 E8.17463
G1 X81.820 Y104.592 E8.18495
G1 X81.698 Y103.897 E8.19528
G1 X81.527 Y103.211 E8.20560
G1 X81.308 Y102.540 E8.21593
G1 X81.044 Y101.885 E8.22625
G1 X80.734 Y101.250 E8.23657
G1 X80.381 Y100.639 E8.24690
G1 X79.986 Y100.053 E8.25722
G1 X79.552 Y99.497 E8.26755
G1 X79.079 Y98.972 E8.27787
G1 X78.571 Y98.482 E8.28820
G1 X78.030 Y98.028 E8.29852
G1 X77.459 Y97.613 E8.30885
G1 X76.860 Y97.238 E8.31917
G1 X76.237 Y96.907 E8.32950
G1 X75.591 Y96.620 E8.33982
G1 X74.928 Y96.378 E8.35014
G1 X74.249 Y96.183 E8.36047
G1 X73.558 Y96.037 E8.37079
G1 X72.858 Y95.938 E8.38113
G1 X71.805 Y95.883 E8.39656
G1 X51.772 Y95.883 E8.68945
G1 X50.265 Y96.966 E8.71659
G1 X48.972 Y98.050 E8.74125
G1 X47.760 Y99.221 E8.76589
G1 X46.632 Y100.474 E8.79054
G1 X45.594 Y101.803 E8.81519
G1 X44.833 Y102.931 E8.83509
G1 X42.352 Y102.028 E8.87368
G1 X42.943 Y100.564 E8.89676
G1 X43.687 Y99.041 E8.92155
G1 X44.535 Y97.572 E8.94634
G1 X45.483 Y96.167 E8.97113
G1 X46.527 Y94.830 E8.99592
G1 X47.662 Y93.571 E9.02071
G1 X48.881 Y92.393 E9.04549
G1 X50.180 Y91.303 E9.07028
G1 X51.552 Y90.306 E9.09508
G1 X52.891 Y89.469 E9.11816
G1 X52.928 Y89.532 E9.11923
G1 X81.812 Y74.127 E9.59785
G1 X82.356 Y74.127 E9.60580
G1 X83.462 Y74.204 E9.62201
G1 X84.560 Y74.358 E9.63821
G1 X85.644 Y74.589 E9.65442
G1 X86.710 Y74.894 E9.67063
G1 X87.751 Y75.274 E9.68684
G1 X88.764 Y75.725 E9.70305
G1 X89.743 Y76.245 E9.71926
G1 X90.683 Y76.832 E9.73547
G1 X91.580 Y77.484 E9.75168
G1 X92.429 Y78.197 E9.76788
G1 X93.227 Y78.967 E9.78409
G1 X93.969 Y79.791 E9.80030
G1 X94.651 Y80.664 E9.81651
G1 X95.271 Y81.583 E9.83272
G1 X95.825 Y82.543 E9.84893
G1 X96.311 Y83.540 E9.86514
G1 X96.727 Y84.568 E9.88135
G1 X97.069 Y85.622 E9.89755
G1 X97.337 Y86.698 E9.91376
G1 X97.530 Y87.789 E9.92997
G1 X97.646 Y88.892 E9.94618
G1 X97.684 Y90.002 E9.96242
G1 X97.684 Y120.002 E10.40104
G1 X97.709 Y120.706 E10.41133
G1 X97.783 Y121.408 E10.42166
G1 X97.905 Y122.103 E10.43198
G1 X98.076 Y122.789 E10.44231
G1 X98.295 Y123.460 E10.45263
G1 X98.559 Y124.115 E10.46296
G1 X98.869 Y124.750 E10.47328
G1 X99.222 Y125.361 E10.48361
G1 X99.617 Y125.947 E10.49393
G1 X100.051 Y126.503 E10.50426
G1 X100.503 Y127.004 E10.51412
G1 X101.032 Y127.518 E10.52490
G1 X101.573 Y127.972 E10.53523
G1 X102.144 Y128.388 E10.54556
G1 X102.771 Y128.776 E10.55634
G1 X103.366 Y129.093 E10.56620
G1 X104.012 Y129.380 E10.57652
G1 X104.675 Y129.622 E10.58685
G1 X105.354 Y129.817 E10.59717
G1 X106.045 Y129.963 E10.60750
G1 X106.744 Y130.062 E10.61782
G1 X107.448 Y130.111 E10.62815
G1 X161.800 Y130.117 E11.42281
G1 X162.355 Y130.127 E11.43092
G1 X163.462 Y130.204 E11.44714
G1 X164.560 Y130.358 E11.46335
G1 X165.644 Y130.589 E11.47956
G1 X166.710 Y130.894 E11.49577
G1 X167.751 Y131.274 E11.51198
G1 X168.764 Y131.725 E11.52819
G1 X169.743 Y132.245 E11.54439
G1 X170.683 Y132.832 E11.56060
G1 X171.580 Y133.484 E11.57681
G1 X172.429 Y134.197 E11.59302
G1 X173.227 Y134.967 E11.60923
G1 X173.969 Y135.791 E11.62544
G1 X174.651 Y136.664 E11.64165
G1 X175.271 Y137.583 E11.65785
G1 X175.825 Y138.543 E11.67406
G1 X176.311 Y139.540 E11.69027
G1 X176.727 Y140.568 E11.70648
G1 X177.069 Y141.622 E11.72269
G1 X177.337 Y142.698 E11.73890
G1 X177.531 Y143.800 E11.75526
G1 X177.646 Y144.892 E11.77132
G1 X177.680 Y145.883 E11.78581
G1 X81.978 Y145.883 E13.18504
G1 X82.117 Y145.536 F7800.000
G1 E11.18504 F2400.00000
G92 E0
G1 X92.886 Y134.909 F7800.000
G1 X91.048 Y129.451 F7800.000
G1 X90.235 Y125.566 F7800.000
G1 X89.950 Y123.249 F7800.000
G1 X89.813 Y105.228 F7800.000
G1 X89.666 Y102.697 F7800.000
G1 X89.158 Y99.170 F7800.000
G1 X88.484 Y96.240 F7800.000
G1 X87.250 Y92.470 F7800.000
G1 X86.505 Y90.610 F7800.000
G1 X85.114 Y88.239 F7800.000
G1 X83.751 Y87.038 F7800.000
G1 X78.585 Y87.117 F7800.000
G1 X74.536 Y87.609 F7800.000
G1 X54.724 Y92.418 F7800.000
G1 X51.493 Y93.445 F7800.000
G1 X50.678 Y93.872 F7800.000
G1 X48.901 Y95.382 F7800.000
G1 X46.011 Y98.534 F7800.000
G1 X44.309 Y101.201 F7800.000
G1 X44.583 Y102.452 F7800.000
G1 E2.00000 F2400.00000
M201 X750 Y750
M204 P750 T750
G1 F1200
G1 X44.914 Y102.121 E2.00685
G1 X45.298 Y101.552 E2.01689
G1 X45.624 Y101.135 E2.02463
G1 X44.380 Y102.379 E2.05035
G1 X44.178 Y102.305 E2.05351
G1 X47.010 Y99.473 E2.11206
M201 X2000 Y2000
M204 P2000 T2000
G1 E0.11206 F2400.00000
G92 E0
G1 X47.933 Y93.852 F7800.000
G1 E2.00000 F2400.00000
M201 X750 Y750
M204 P750 T750
G1 F1200
G1 X47.919 Y93.867 E2.00030
G1 X49.163 Y92.662 E2.02562
G1 X50.552 Y91.509 E2.05202
G1 X46.258 Y95.804 E2.14081
G1 X45.779 Y96.417 E2.15220
G1 X45.484 Y96.854 E2.15991
G1 X51.561 Y90.777 E2.28557
G1 X51.791 Y90.610 E2.28973
G1 X52.360 Y90.254 E2.29954
G1 X44.911 Y97.704 E2.45358
G1 X44.511 Y98.380 E2.46507
G1 X52.923 Y89.968 E2.63901
G1 X53.515 Y89.652 E2.64882
G1 X44.133 Y99.034 E2.84281
G1 X43.833 Y99.610 E2.85231
G1 X54.107 Y89.336 E3.06475
G1 X54.699 Y89.021 E3.07456
G1 X43.570 Y100.150 E3.30468
G1 X43.307 Y100.689 E3.31346
G1 X55.291 Y88.705 E3.56127
G1 X55.883 Y88.389 E3.57108
G1 X43.112 Y101.160 E3.83516
G1 X42.925 Y101.624 E3.84247
G1 X56.475 Y88.073 E4.12267
G1 X57.067 Y87.757 E4.13248
G1 X42.962 Y101.862 E4.42414
G1 X43.165 Y101.936 E4.42729
G1 X57.659 Y87.442 E4.72700
G1 X58.252 Y87.126 E4.73682
G1 X43.368 Y102.010 E5.04458
G1 X43.570 Y102.084 E5.04773
G1 X58.844 Y86.810 E5.36356
G1 X59.436 Y86.494 E5.37337
G1 X43.773 Y102.157 E5.69724
G1 X43.975 Y102.231 E5.70040
G1 X60.028 Y86.178 E6.03233
G1 X60.620 Y85.863 E6.04214
G1 X48.768 Y97.714 E6.28720
G1 X50.004 Y96.678 E6.31078
G1 X50.277 Y96.482 E6.31570
G1 X61.212 Y85.547 E6.54181
G1 X61.804 Y85.231 E6.55162
G1 X51.259 Y95.776 E6.76966
G1 X51.625 Y95.513 E6.77625
G1 X51.799 Y95.513 E6.77879
G1 X62.396 Y84.915 E6.99792
G1 X62.988 Y84.600 E7.00773
G1 X52.075 Y95.513 E7.23340
G1 X52.351 Y95.513 E7.23744
G1 X63.580 Y84.284 E7.46963
G1 X64.173 Y83.968 E7.47945
G1 X52.628 Y95.513 E7.71817
G1 X52.904 Y95.513 E7.72221
G1 X64.765 Y83.652 E7.96747
G1 X65.357 Y83.336 E7.97728
G1 X53.180 Y95.513 E8.22906
G1 X53.456 Y95.513 E8.23310
G1 X65.949 Y83.021 E8.49142
G1 X66.541 Y82.705 E8.50123
G1 X53.733 Y95.513 E8.76607
G1 X54.009 Y95.513 E8.77011
G1 X67.133 Y82.389 E9.04148
G1 X67.725 Y82.073 E9.05130
G1 X54.285 Y95.513 E9.32920
G1 X54.562 Y95.513 E9.33324
G1 X68.317 Y81.757 E9.61767
G1 X68.909 Y81.442 E9.62748
G1 X54.838 Y95.513 E9.91845
G1 X55.114 Y95.513 E9.92249
G1 X69.501 Y81.126 E10.21998
G1 X70.094 Y80.810 E10.22979
G1 X55.391 Y95.513 E10.53382
G1 X55.667 Y95.513 E10.53786
G1 X70.686 Y80.494 E10.84841
G1 X71.278 Y80.178 E10.85822
G1 X55.943 Y95.513 E11.17530
G1 X56.220 Y95.513 E11.17934
G1 X71.870 Y79.863 E11.50295
G1 X72.462 Y79.547 E11.51277
G1 X56.496 Y95.513 E11.84291
G1 X56.772 Y95.513 E11.84695
G1 X73.054 Y79.231 E12.18362
G1 X73.646 Y78.915 E12.19343
G1 X57.048 Y95.513 E12.53663
G1 X57.325 Y95.513 E12.54067
G1 X74.238 Y78.600 E12.89040
G1 X74.830 Y78.284 E12.90022
G1 X57.601 Y95.513 E13.25648
G1 X57.877 Y95.513 E13.26052
G1 X75.422 Y77.968 E13.62331
G1 X76.015 Y77.652 E13.63312
G1 X58.154 Y95.513 E14.00244
G1 X58.430 Y95.513 E14.00648
G1 X76.607 Y77.336 E14.38233
G1 X77.199 Y77.021 E14.39214
G1 X58.706 Y95.513 E14.77452
G1 X58.983 Y95.513 E14.77856
G1 X77.791 Y76.705 E15.16747
G1 X78.383 Y76.389 E15.17729
G1 X59.259 Y95.513 E15.57273
G1 X59.535 Y95.513 E15.57677
G1 X78.975 Y76.073 E15.97874
G1 X79.567 Y75.757 E15.98855
G1 X59.812 Y95.513 E16.39705
G1 X60.088 Y95.513 E16.40109
G1 X80.159 Y75.442 E16.81612
G1 X80.751 Y75.126 E16.82593
G1 X60.364 Y95.513 E17.24749
G1 X60.640 Y95.513 E17.25153
G1 X81.343 Y74.810 E17.67962
G1 X81.933 Y74.497 E17.68938
G1 X60.917 Y95.513 E18.12394
G1 X61.193 Y95.513 E18.12798
