; generated by Slic3r 1.3.0-dev on 2019-01-18 at 14:58:49

; external perimeters extrusion width = 0.40mm (2.00mm^3/s)
; perimeters extrusion width = 0.67mm (5.03mm^3/s)
; infill extrusion width = 0.67mm (5.65mm^3/s)
; solid infill extrusion width = 0.26mm (1.52mm^3/s)
; top infill extrusion width = 0.26mm (1.09mm^3/s)

M107
M190 S60 ; set bed temperature and wait for it to be reached
M104 S200 ; set temperature
G28 ; home all axes
G1 Z5 F5000 ; lift nozzle

; Filament gcode

M109 S200 ; set temperature and wait for it to be reached
G21 ; set units to millimeters
G90 ; use absolute coordinates
M82 ; use absolute distances for extrusion
G92 E0
;LAYER 0 at 0.18mm
M117 printing layer 0 at 0.18mm
G1 Z0.180 F7800.000
G1 E-2.00000 F2400.00000
G92 E0
G1 X49.591 Y88.382 F7800.000
G1 E2.00000 F2400.00000
M204 S2000
G1 F1200
G1 X77.318 Y70.806 E2.47998
G1 X79.541 Y70.224 E2.51357
G1 X81.214 Y70.311 E2.53806
G1 X81.607 Y70.353 E2.54383
G1 X83.261 Y70.615 E2.56833
G1 X83.648 Y70.697 E2.57412
G1 X85.266 Y71.130 E2.59860
G1 X85.643 Y71.253 E2.60439
G1 X87.206 Y71.853 E2.62887
G1 X87.568 Y72.014 E2.63466
G1 X89.060 Y72.774 E2.65915
G1 X89.402 Y72.972 E2.66493
G1 X90.916 Y73.958 E2.69134
G1 X170.916 Y129.958 E4.11909
G1 X172.429 Y131.171 E4.14744
G1 X172.723 Y131.436 E4.15323
G1 X173.907 Y132.620 E4.17771
G1 X174.172 Y132.914 E4.18350
G1 X175.226 Y134.216 E4.20799
G1 X175.459 Y134.536 E4.21377
G1 X176.371 Y135.941 E4.23826
G1 X176.569 Y136.283 E4.24405
G1 X177.329 Y137.775 E4.26853
G1 X177.490 Y138.137 E4.27432
G1 X178.090 Y139.701 E4.29881
G1 X178.213 Y140.077 E4.30459
G1 X178.646 Y141.695 E4.32908
G1 X178.728 Y142.082 E4.33486
G1 X178.990 Y143.737 E4.35937
G1 X179.032 Y144.129 E4.36514
G1 X179.119 Y145.802 E4.38962
G1 X178.813 Y147.502 E4.41488
G1 X177.783 Y148.889 E4.44014
G1 X176.243 Y149.673 E4.46541
G1 X175.343 Y149.781 E4.47866
G1 X79.343 Y149.781 E5.88225
G1 X77.661 Y149.387 E5.90751
G1 X76.302 Y148.248 E5.93343
G1 X41.616 Y101.327 E6.78655
G1 X40.934 Y99.739 E6.81181
G1 X41.349 Y97.246 E6.84877
G1 X41.734 Y96.551 E6.86038
G1 X41.945 Y96.214 E6.86619
G1 X43.312 Y94.263 E6.90102
G1 X43.555 Y93.952 E6.90680
G1 X45.118 Y92.154 E6.94163
G1 X45.393 Y91.869 E6.94741
G1 X47.135 Y90.245 E6.98224
G1 X47.438 Y89.990 E6.98802
G1 X49.542 Y88.417 E7.02644
G1 X49.696 Y88.547 F7800.000
G1 F1200
G1 X77.423 Y70.971 E7.50642
G1 X79.531 Y70.419 E7.53827
G1 X81.203 Y70.507 E7.56276
G1 X81.576 Y70.546 E7.56824
G1 X83.231 Y70.808 E7.59273
G1 X83.598 Y70.886 E7.59822
G1 X85.216 Y71.319 E7.62271
G1 X85.573 Y71.435 E7.62820
G1 X87.136 Y72.035 E7.65268
G1 X87.479 Y72.188 E7.65817
G1 X88.971 Y72.948 E7.68265
G1 X89.296 Y73.136 E7.68814
G1 X90.804 Y74.118 E7.71445
G1 X170.804 Y130.118 E9.14220
G1 X172.306 Y131.323 E9.17035
G1 X172.585 Y131.574 E9.17584
G1 X173.769 Y132.758 E9.20032
G1 X174.020 Y133.037 E9.20581
G1 X175.074 Y134.339 E9.23030
G1 X175.295 Y134.642 E9.23579
G1 X176.207 Y136.047 E9.26027
G1 X176.395 Y136.372 E9.26576
G1 X177.155 Y137.864 E9.29025
G1 X177.308 Y138.207 E9.29573
G1 X177.908 Y139.771 E9.32022
G1 X178.024 Y140.127 E9.32571
G1 X178.457 Y141.745 E9.35019
G1 X178.535 Y142.112 E9.35568
G1 X178.797 Y143.768 E9.38019
G1 X178.836 Y144.140 E9.38565
G1 X178.924 Y145.812 E9.41014
G1 X178.616 Y147.466 E9.43473
G1 X177.588 Y148.797 E9.45932
G1 X175.343 Y149.586 E9.49411
G1 X79.343 Y149.586 E10.89770
G1 X77.708 Y149.192 E10.92229
G1 X76.459 Y148.132 E10.94624
G1 X41.773 Y101.211 E11.79935
G1 X41.119 Y99.661 E11.82395
G1 X41.520 Y97.341 E11.85838
G1 X41.905 Y96.646 E11.86999
G1 X42.105 Y96.326 E11.87550
G1 X43.472 Y94.375 E11.91034
G1 X43.703 Y94.080 E11.91581
G1 X45.266 Y92.282 E11.95065
G1 X45.526 Y92.012 E11.95613
G1 X47.268 Y90.387 E11.99095
G1 X47.555 Y90.146 E11.99644
G1 X49.647 Y88.582 E12.03463
G1 X49.801 Y88.712 F7800.000
G1 F1200
G1 X77.528 Y71.136 E12.51460
G1 X79.520 Y70.614 E12.54472
G1 X81.193 Y70.702 E12.56921
G1 X81.545 Y70.739 E12.57439
G1 X83.200 Y71.001 E12.59888
G1 X83.547 Y71.074 E12.60407
G1 X85.165 Y71.508 E12.62856
G1 X85.502 Y71.618 E12.63375
G1 X87.066 Y72.218 E12.65824
G1 X87.390 Y72.362 E12.66342
G1 X88.882 Y73.122 E12.68791
G1 X89.190 Y73.300 E12.69310
G1 X90.692 Y74.278 E12.71931
G1 X170.692 Y130.278 E14.14705
G1 X172.183 Y131.475 E14.17501
G1 X172.447 Y131.712 E14.18020
G1 X173.631 Y132.896 E14.20468
G1 X173.868 Y133.160 E14.20987
G1 X174.922 Y134.462 E14.23436
G1 X175.131 Y134.749 E14.23955
G1 X176.043 Y136.153 E14.26403
G1 X176.221 Y136.461 E14.26922
G1 X176.981 Y137.953 E14.29371
G1 X177.125 Y138.277 E14.29890
G1 X177.725 Y139.841 E14.32338
G1 X177.835 Y140.178 E14.32857
G1 X178.269 Y141.796 E14.35306
G1 X178.342 Y142.143 E14.35825
G1 X178.604 Y143.798 E14.38275
G1 X178.641 Y144.150 E14.38792
G1 X178.729 Y145.822 E14.41241
G1 X178.419 Y147.427 E14.43631
G1 X177.393 Y148.701 E14.46021
G1 X175.343 Y149.391 E14.49184
G1 X79.343 Y149.391 E15.89542
G1 X77.756 Y148.997 E15.91933
G1 X76.616 Y148.016 E15.94132
G1 X41.930 Y101.094 E16.79443
G1 X41.304 Y99.584 E16.81834
G1 X41.691 Y97.435 E16.85026
G1 X42.076 Y96.741 E16.86187
G1 X42.265 Y96.439 E16.86708
G1 X43.632 Y94.487 E16.90192
G1 X43.850 Y94.208 E16.90710
G1 X45.413 Y92.410 E16.94193
G1 X45.659 Y92.155 E16.94711
G1 X47.401 Y90.530 E16.98194
G1 X47.673 Y90.302 E16.98712
G1 X49.751 Y88.747 E17.02508
G1 X49.905 Y88.877 F7800.000
G1 F1200
G1 X77.632 Y71.301 E17.50506
G1 X79.510 Y70.809 E17.53344
G1 X81.183 Y70.897 E17.55793
G1 X81.515 Y70.932 E17.56281
G1 X83.169 Y71.194 E17.58730
G1 X83.497 Y71.263 E17.59219
G1 X85.114 Y71.697 E17.61668
G1 X85.432 Y71.800 E17.62157
G1 X86.996 Y72.400 E17.64606
G1 X87.301 Y72.536 E17.65095
G1 X88.794 Y73.296 E17.67543
G1 X89.083 Y73.464 E17.68032
G1 X90.580 Y74.438 E17.70643
G1 X170.580 Y130.438 E19.13418
G1 X172.060 Y131.626 E19.16193
G1 X172.309 Y131.850 E19.16682
G1 X173.493 Y133.034 E19.19131
G1 X173.717 Y133.283 E19.19620
G1 X174.771 Y134.584 E19.22068
G1 X174.967 Y134.855 E19.22557
G1 X175.879 Y136.260 E19.25006
G1 X176.047 Y136.549 E19.25495
G1 X176.807 Y138.042 E19.27944
G1 X176.943 Y138.347 E19.28432
G1 X177.543 Y139.911 E19.30881
G1 X177.646 Y140.229 E19.31370
G1 X178.080 Y141.846 E19.33819
G1 X178.149 Y142.173 E19.34308
G1 X178.411 Y143.829 E19.36758
G1 X178.446 Y144.160 E19.37245
G1 X178.534 Y145.833 E19.39694
G1 X178.221 Y147.388 E19.42013
G1 X177.199 Y148.601 E19.44332
G1 X175.343 Y149.195 E19.47182
G1 X79.343 Y149.195 E20.87541
G1 X77.806 Y148.802 E20.89860
G1 X76.773 Y147.899 E20.91865
G1 X42.087 Y100.978 E21.77177
G1 X41.491 Y99.509 E21.79496
G1 X41.862 Y97.530 E21.82439
G1 X42.425 Y96.551 E21.84091
G1 X43.792 Y94.599 E21.87574
G1 X43.997 Y94.336 E21.88062
G1 X45.560 Y92.538 E21.91546
G1 X45.793 Y92.298 E21.92034
G1 X47.535 Y90.673 E21.95517
G1 X47.791 Y90.458 E21.96006
G1 X49.856 Y88.912 E21.99778
G1 E19.99778 F2400.00000
G92 E0
G1 X93.710 Y144.432 F7800.000
G1 E2.00000 F2400.00000
G1 F1200
G1 X93.710 Y143.876 E2.00813
G1 X94.670 Y143.078 E2.02638
G1 X94.187 Y142.943 E2.03372
G1 X93.840 Y142.751 E2.03952
G1 X93.553 Y142.480 E2.04529
G1 X93.336 Y142.140 E2.05118
G1 X93.187 Y141.743 E2.05739
G1 X93.136 Y141.474 E2.06139
G1 X93.030 Y141.484 E2.06295
G1 X93.029 Y144.368 E2.10512
G1 X91.789 Y144.368 E2.12325
G1 X91.799 Y142.892 E2.14483
G1 X91.696 Y142.949 E2.14656
G1 X91.301 Y143.062 E2.15256
G1 X91.062 Y143.086 E2.15607
G1 X90.744 Y143.080 E2.16073
G1 X90.376 Y143.009 E2.16621
G1 X90.055 Y142.862 E2.17137
G1 X89.892 Y142.744 E2.17431
G1 X89.657 Y142.486 E2.17942
G1 X89.482 Y142.166 E2.18475
G1 X89.358 Y141.776 E2.19073
G1 X89.268 Y141.777 E2.19205
G1 X89.175 Y142.142 E2.19755
G1 X89.052 Y142.398 E2.20170
G1 X88.878 Y142.618 E2.20581
G1 X88.659 Y142.797 E2.20994
G1 X88.402 Y142.930 E2.21417
G1 X88.114 Y143.020 E2.21859
G1 X87.797 Y143.072 E2.22328
G1 X87.447 Y143.089 E2.22839
G1 X87.079 Y143.066 E2.23379
G1 X86.743 Y142.994 E2.23881
G1 X86.442 Y142.868 E2.24358
G1 X86.185 Y142.684 E2.24820
G1 X85.982 Y142.448 E2.25276
G1 X85.843 Y142.176 E2.25723
G1 X85.790 Y142.008 E2.25980
G1 X85.738 Y141.691 E2.26449
G1 X85.732 Y139.918 E2.29043
G1 X85.708 Y139.667 E2.29411
G1 X85.444 Y139.690 E2.29798
G1 X85.444 Y141.843 E2.32946
G1 X85.473 Y143.024 E2.34674
G1 X84.271 Y143.024 E2.36430
G1 X84.268 Y142.933 E2.36564
G1 X84.079 Y143.029 E2.36874
G1 X83.871 Y143.076 E2.37185
G1 X83.586 Y143.087 E2.37602
G1 X83.110 Y143.005 E2.38308
G1 X83.110 Y141.821 E2.40040
G1 X83.669 Y141.899 E2.40865
G1 X83.785 Y141.897 E2.41035
G1 X83.918 Y141.854 E2.41238
G1 X84.026 Y141.756 E2.41452
G1 X84.140 Y141.508 E2.41852
G1 X84.181 Y141.311 E2.42146
G1 X84.203 Y141.070 E2.42499
G1 X84.207 Y138.688 E2.45983
G1 X85.412 Y138.688 E2.47745
G1 X85.700 Y138.638 E2.48172
G1 X86.081 Y138.626 E2.48730
G1 X86.373 Y138.686 E2.49166
G1 X86.561 Y138.784 E2.49476
G1 X86.716 Y138.927 E2.49784
G1 X86.786 Y139.049 E2.49990
G1 X87.062 Y138.840 E2.50497
G1 X87.270 Y138.742 E2.50834
G1 X87.502 Y138.673 E2.51187
G1 X87.968 Y138.623 E2.51873
G1 X88.297 Y138.645 E2.52354
G1 X88.699 Y138.762 E2.52967
G1 X88.952 Y138.918 E2.53401
G1 X89.209 Y139.214 E2.53974
G1 X89.331 Y139.474 E2.54395
G1 X89.366 Y139.650 E2.54656
G1 X89.457 Y139.655 E2.54789
G1 X89.485 Y139.569 E2.54922
G1 X89.666 Y139.238 E2.55474
G1 X89.910 Y138.968 E2.56006
G1 X90.214 Y138.773 E2.56533
G1 X90.562 Y138.659 E2.57070
G1 X90.932 Y138.624 E2.57612
G1 X91.402 Y138.667 E2.58302
G1 X91.844 Y138.826 E2.58989
G1 X91.854 Y138.688 E2.59193
G1 X93.058 Y138.688 E2.60953
G1 X93.030 Y139.825 E2.62617
G1 X93.122 Y139.846 E2.62755
G1 X93.311 Y139.446 E2.63402
G1 X93.464 Y139.225 E2.63795
G1 X93.653 Y139.036 E2.64186
G1 X93.873 Y138.882 E2.64578
G1 X94.121 Y138.766 E2.64978
G1 X94.392 Y138.685 E2.65391
G1 X94.684 Y138.638 E2.65824
G1 X94.989 Y138.624 E2.66271
G1 X95.438 Y138.657 E2.66929
G1 X95.838 Y138.766 E2.67535
G1 X96.191 Y138.953 E2.68119
G1 X96.487 Y139.217 E2.68699
G1 X96.716 Y139.551 E2.69291
G1 X96.874 Y139.943 E2.69909
G1 X96.964 Y140.386 E2.70570
G1 X96.994 Y140.880 E2.71294
G1 X96.964 Y141.354 E2.71988
G1 X96.873 Y141.783 E2.72629
G1 X96.715 Y142.165 E2.73234
G1 X96.487 Y142.494 E2.73818
G1 X96.194 Y142.758 E2.74395
G1 X95.846 Y142.945 E2.74973
G1 X95.768 Y142.967 E2.75091
G1 X95.768 Y143.269 E2.75532
G1 X94.877 Y144.432 E2.77675
G1 X93.770 Y144.432 E2.79293
G1 X93.906 Y144.237 F7800.000
G1 F1200
G1 X93.906 Y143.968 E2.79686
G1 X95.108 Y142.969 E2.81972
G1 X95.076 Y142.889 E2.82098
G1 X94.618 Y142.861 E2.82768
G1 X94.262 Y142.761 E2.83309
G1 X93.956 Y142.592 E2.83820
G1 X93.705 Y142.354 E2.84325
G1 X93.511 Y142.052 E2.84850
G1 X93.376 Y141.690 E2.85415
G1 X93.296 Y141.269 E2.86042
G1 X93.270 Y140.589 E2.87037
G1 X95.909 Y140.589 E2.90896
G1 X95.883 Y140.290 E2.91334
G1 X95.823 Y140.074 E2.91661
G1 X95.734 Y139.889 E2.91963
G1 X95.616 Y139.737 E2.92243
G1 X95.481 Y139.632 E2.92493
G1 X95.310 Y139.556 E2.92767
G1 X95.109 Y139.518 E2.93065
G1 X94.741 Y139.534 E2.93605
G1 X94.528 Y139.595 E2.93929
G1 X94.418 Y139.653 E2.94111
G1 X94.276 Y139.770 E2.94380
G1 X94.209 Y139.852 E2.94535
G1 X94.085 Y140.099 E2.94939
G1 X93.321 Y139.882 E2.96100
G1 X93.481 Y139.544 E2.96646
G1 X93.615 Y139.351 E2.96990
G1 X93.779 Y139.186 E2.97330
G1 X93.971 Y139.052 E2.97673
G1 X94.191 Y138.949 E2.98027
G1 X94.435 Y138.876 E2.98400
G1 X94.704 Y138.833 E2.98798
G1 X94.987 Y138.819 E2.99212
G1 X95.405 Y138.851 E2.99825
G1 X95.766 Y138.949 E3.00372
G1 X96.079 Y139.114 E3.00889
G1 X96.339 Y139.347 E3.01400
G1 X96.543 Y139.644 E3.01926
G1 X96.686 Y140.000 E3.02487
G1 X96.770 Y140.412 E3.03102
G1 X96.798 Y140.880 E3.03788
G1 X96.770 Y141.328 E3.04443
G1 X96.685 Y141.725 E3.05037
G1 X96.542 Y142.071 E3.05585
G1 X96.339 Y142.364 E3.06106
G1 X96.081 Y142.597 E3.06615
G1 X95.772 Y142.763 E3.07126
G1 X95.352 Y142.867 E3.07760
G1 X95.356 Y142.979 E3.07925
G1 X95.573 Y142.979 E3.08241
G1 X95.573 Y143.203 E3.08568
G1 X94.780 Y144.237 E3.10473
G1 X93.966 Y144.237 E3.11664
G1 X93.641 Y144.286 F7800.000
G1 X92.834 Y144.173 F7800.000
G1 F1200
G1 X91.986 Y144.173 E3.12904
G1 X91.997 Y142.506 E3.15340
G1 X91.783 Y142.678 E3.15742
G1 X91.621 Y142.767 E3.16012
G1 X91.264 Y142.870 E3.16555
G1 X91.054 Y142.891 E3.16863
G1 X90.764 Y142.885 E3.17287
G1 X90.436 Y142.822 E3.17776
G1 X90.154 Y142.693 E3.18229
G1 X90.023 Y142.598 E3.18466
G1 X89.817 Y142.371 E3.18914
G1 X89.661 Y142.085 E3.19391
G1 X89.549 Y141.734 E3.19929
G1 X89.485 Y141.334 E3.20522
G1 X89.464 Y140.873 E3.21196
G1 X89.485 Y140.407 E3.21878
G1 X89.552 Y139.998 E3.22484
G1 X89.665 Y139.646 E3.23024
G1 X89.826 Y139.352 E3.23515
G1 X90.038 Y139.118 E3.23976
G1 X90.298 Y138.951 E3.24429
G1 X90.603 Y138.851 E3.24897
G1 X90.932 Y138.820 E3.25381
G1 X91.359 Y138.859 E3.26007
G1 X91.701 Y138.983 E3.26540
G1 X91.854 Y139.083 E3.26807
G1 X92.011 Y139.228 E3.27119
G1 X92.036 Y138.883 E3.27625
G1 X92.856 Y138.883 E3.28824
G1 X92.835 Y139.498 E3.29725
G1 X92.834 Y144.113 E3.36471
G1 X92.833 Y144.573 F7800.000
G1 E1.36471 F2400.00000
G92 E0
G1 X93.394 Y143.748 F7800.000
G1 X91.106 Y143.733 F7800.000
G1 X90.486 Y144.385 F7800.000
G1 X89.335 Y144.173 F7800.000
G1 X89.252 Y143.786 F7800.000
G1 X89.430 Y143.323 F7800.000
G1 X90.039 Y142.586 F7800.000
G1 X89.085 Y141.703 F7800.000
G1 E2.00000 F2400.00000
G1 F1200
G1 X88.990 Y142.075 E2.00561
G1 X88.885 Y142.294 E2.00915
G1 X88.738 Y142.481 E2.01263
G1 X88.551 Y142.632 E2.01615
G1 X88.327 Y142.748 E2.01984
G1 X88.068 Y142.830 E2.02380
G1 X87.776 Y142.877 E2.02814
G1 X87.449 Y142.893 E2.03293
G1 X87.106 Y142.872 E2.03795
G1 X86.802 Y142.807 E2.04249
G1 X86.538 Y142.697 E2.04667
G1 X86.318 Y142.539 E2.05063
G1 X86.145 Y142.338 E2.05451
G1 X86.024 Y142.101 E2.05839
G1 X85.980 Y141.963 E2.06052
G1 X85.933 Y141.675 E2.06478
G1 X85.928 Y139.908 E2.09062
G1 X85.902 Y139.641 E2.09455
G1 X85.855 Y139.526 E2.09636
G1 X85.812 Y139.489 E2.09718
G1 X85.737 Y139.469 E2.09833
G1 X85.380 Y139.500 E2.10357
G1 X85.380 Y138.891 E2.11246
G1 X85.719 Y138.833 E2.11750
G1 X86.064 Y138.822 E2.12255
G1 X86.307 Y138.872 E2.12616
G1 X86.447 Y138.945 E2.12848
G1 X86.561 Y139.050 E2.13075
G1 X86.674 Y139.249 E2.13409
G1 X86.723 Y139.412 E2.13657
G1 X86.835 Y139.271 E2.13921
G1 X86.991 Y139.124 E2.14233
G1 X87.159 Y139.010 E2.14530
G1 X87.340 Y138.925 E2.14823
G1 X87.541 Y138.865 E2.15130
G1 X87.972 Y138.819 E2.15764
G1 X88.263 Y138.838 E2.16190
G1 X88.619 Y138.942 E2.16732
G1 X88.824 Y139.069 E2.17084
G1 X89.043 Y139.322 E2.17575
G1 X89.144 Y139.536 E2.17921
G1 X89.216 Y139.895 E2.18455
G1 X89.195 Y140.315 E2.19071
G1 X89.116 Y140.577 E2.19471
G1 X88.983 Y140.804 E2.19855
G1 X88.797 Y140.993 E2.20243
G1 X88.555 Y141.142 E2.20658
G1 X88.256 Y141.249 E2.21122
G1 X87.713 Y141.333 E2.21926
G1 X86.783 Y141.354 E2.23287
G1 X86.785 Y141.549 E2.23571
G1 X86.826 Y141.812 E2.23960
G1 X86.875 Y141.932 E2.24149
G1 X86.984 Y142.063 E2.24399
G1 X87.144 Y142.147 E2.24663
G1 X87.372 Y142.188 E2.25002
G1 X87.725 Y142.174 E2.25518
G1 X87.968 Y142.101 E2.25890
G1 X88.093 Y141.987 E2.26137
G1 X88.157 Y141.850 E2.26358
G1 X88.204 Y141.626 E2.26692
G1 X89.025 Y141.698 E2.27897
G1 X89.466 Y141.747 F7800.000
G1 E0.27897 F2400.00000
G92 E0
G1 X87.703 Y141.518 F7800.000
G1 X88.765 Y143.574 F7800.000
G1 X88.881 Y144.282 F7800.000
G1 X86.428 Y144.328 F7800.000
G1 X86.305 Y143.711 F7800.000
G1 X85.272 Y142.829 F7800.000
G1 E2.00000 F2400.00000
G1 F1200
G1 X84.460 Y142.829 E2.01188
G1 X84.452 Y142.604 E2.01517
G1 X84.371 Y142.580 E2.01640
G1 X84.217 Y142.740 E2.01965
G1 X84.012 Y142.843 E2.02301
G1 X83.845 Y142.882 E2.02552
G1 X83.599 Y142.891 E2.02911
G1 X83.305 Y142.841 E2.03347
G1 X83.305 Y142.045 E2.04509
G1 X83.657 Y142.095 E2.05028
G1 X83.817 Y142.092 E2.05263
G1 X84.018 Y142.028 E2.05570
G1 X84.179 Y141.882 E2.05888
G1 X84.261 Y141.745 E2.06122
G1 X84.328 Y141.562 E2.06407
G1 X84.375 Y141.340 E2.06738
G1 X84.399 Y141.079 E2.07121
G1 X84.402 Y138.883 E2.10332
G1 X85.248 Y138.883 E2.11570
G1 X85.248 Y141.846 E2.15902
G1 X85.271 Y142.769 E2.17252
G1 X85.273 Y143.229 F7800.000
G1 E0.17252 F2400.00000
G92 E0
G1 X85.218 Y141.829 F7800.000
G1 X85.715 Y141.242 F7800.000
G1 X83.453 Y141.175 F7800.000
G1 X81.919 Y139.758 F7800.000
G1 X82.041 Y137.218 F7800.000
G1 X85.277 Y137.378 F7800.000
