; generated by Slic3r 1.3.0 on 2019-01-18 at 21:00:55

; external perimeters extrusion width = 0.44mm (2.22mm^3/s)
; perimeters extrusion width = 0.56mm (4.14mm^3/s)
; infill extrusion width = 0.50mm (4.11mm^3/s)
; solid infill extrusion width = 0.26mm (1.52mm^3/s)
; top infill extrusion width = 0.26mm (1.09mm^3/s)

M107
M190 S60 ; set bed temperature and wait for it to be reached
M104 S200 ; set temperature
G90                    ;absolute positioning
G28 ; home all axes
G1 Z5 F5000 ; lift nozzle

; Filament gcode

M109 S200 ; set temperature and wait for it to be reached
G21 ; set units to millimeters
G90 ; use absolute coordinates
M82 ; use absolute distances for extrusion
G92 E0
;LAYER 0 at 0.18mm
M117 printing layer 0 at 0.18mm
G1 Z0.180 F7800.000
G1 E-2.00000 F2400.00000
G92 E0
G1 X44.740 Y86.670 F7800.000
G1 E2.00000 F2400.00000
M201 X2000 Y2000
M204 P2000 T2000
G1 F1200
G1 X84.740 Y70.670 E2.62988
G1 X86.260 Y70.419 E2.65240
G1 X87.932 Y70.507 E2.67689
G1 X88.305 Y70.546 E2.68237
G1 X89.960 Y70.808 E2.70686
G1 X90.327 Y70.886 E2.71235
G1 X91.945 Y71.319 E2.73683
G1 X92.302 Y71.435 E2.74232
G1 X93.865 Y72.035 E2.76681
G1 X94.208 Y72.188 E2.77229
G1 X95.700 Y72.948 E2.79678
G1 X96.025 Y73.136 E2.80227
G1 X97.533 Y74.118 E2.82858
G1 X177.533 Y130.118 E4.25632
G1 X179.035 Y131.323 E4.28448
G1 X179.314 Y131.574 E4.28996
G1 X180.498 Y132.758 E4.31445
G1 X180.749 Y133.037 E4.31994
G1 X181.803 Y134.339 E4.34443
G1 X182.024 Y134.642 E4.34991
G1 X182.936 Y136.047 E4.37440
G1 X183.124 Y136.372 E4.37989
G1 X183.850 Y137.797 E4.40327
G1 X184.037 Y138.207 E4.40986
G1 X184.637 Y139.771 E4.43435
G1 X184.753 Y140.127 E4.43983
G1 X185.167 Y141.672 E4.46322
G1 X185.264 Y142.112 E4.46980
G1 X185.526 Y143.767 E4.49429
G1 X185.565 Y144.140 E4.49978
G1 X185.653 Y145.812 E4.52427
G1 X185.345 Y147.466 E4.54886
G1 X184.317 Y148.797 E4.57345
G1 X182.072 Y149.586 E4.60824
G1 X86.072 Y149.586 E6.01182
G1 X83.763 Y148.744 E6.04776
G1 X35.619 Y108.226 E6.96777
G1 X34.622 Y106.871 E6.99236
G1 X34.420 Y104.737 E7.02370
G1 X34.938 Y102.297 E7.06016
G1 X35.035 Y101.934 E7.06566
G1 X35.960 Y99.087 E7.10943
G1 X36.095 Y98.736 E7.11493
G1 X37.313 Y96.001 E7.15870
G1 X37.483 Y95.667 E7.16418
G1 X38.980 Y93.074 E7.20795
G1 X39.184 Y92.760 E7.21343
G1 X40.943 Y90.338 E7.25720
G1 X41.181 Y90.046 E7.26270
G1 X43.185 Y87.821 E7.30648
G1 X43.548 Y87.453 E7.31404
G1 X44.690 Y86.703 E7.33402
G1 X44.813 Y86.852 F7800.000
G1 F1200
G1 X84.813 Y70.852 E7.96390
G1 X86.249 Y70.614 E7.98519
G1 X87.922 Y70.702 E8.00968
G1 X88.274 Y70.739 E8.01486
G1 X89.929 Y71.001 E8.03935
G1 X90.276 Y71.074 E8.04454
G1 X91.894 Y71.508 E8.06902
G1 X92.231 Y71.618 E8.07421
G1 X93.795 Y72.218 E8.09870
G1 X94.119 Y72.362 E8.10389
G1 X95.611 Y73.122 E8.12837
G1 X95.919 Y73.300 E8.13356
G1 X97.421 Y74.278 E8.15977
G1 X177.421 Y130.278 E9.58752
G1 X178.912 Y131.475 E9.61547
G1 X179.176 Y131.712 E9.62066
G1 X180.360 Y132.896 E9.64515
G1 X180.597 Y133.160 E9.65033
G1 X181.651 Y134.462 E9.67482
G1 X181.860 Y134.749 E9.68001
G1 X182.772 Y136.153 E9.70450
G1 X182.950 Y136.461 E9.70969
G1 X183.676 Y137.886 E9.73307
G1 X183.854 Y138.277 E9.73936
G1 X184.454 Y139.841 E9.76385
G1 X184.564 Y140.178 E9.76903
G1 X184.978 Y141.723 E9.79242
G1 X185.071 Y142.143 E9.79871
G1 X185.333 Y143.797 E9.82320
G1 X185.370 Y144.150 E9.82838
G1 X185.458 Y145.823 E9.85287
G1 X185.148 Y147.428 E9.87677
G1 X184.122 Y148.701 E9.90067
G1 X182.072 Y149.391 E9.93230
G1 X86.072 Y149.391 E11.33589
G1 X83.889 Y148.594 E11.36987
G1 X35.745 Y108.076 E12.28987
G1 X34.785 Y106.753 E12.31378
G1 X34.611 Y104.778 E12.34277
G1 X35.129 Y102.338 E12.37923
G1 X35.221 Y101.995 E12.38443
G1 X36.146 Y99.147 E12.42820
G1 X36.274 Y98.815 E12.43340
G1 X37.492 Y96.081 E12.47717
G1 X37.653 Y95.765 E12.48235
G1 X39.150 Y93.172 E12.52613
G1 X39.343 Y92.875 E12.53130
G1 X41.102 Y90.453 E12.57507
G1 X41.326 Y90.176 E12.58028
G1 X43.330 Y87.952 E12.62405
G1 X43.685 Y87.592 E12.63145
G1 X44.763 Y86.885 E12.65029
G1 X44.885 Y87.033 F7800.000
G1 F1200
G1 X84.885 Y71.033 E13.28017
G1 X86.239 Y70.809 E13.30023
G1 X87.912 Y70.897 E13.32472
G1 X88.244 Y70.932 E13.32961
G1 X89.898 Y71.194 E13.35410
G1 X90.226 Y71.263 E13.35899
G1 X91.843 Y71.697 E13.38347
G1 X92.161 Y71.800 E13.38836
G1 X93.725 Y72.400 E13.41285
G1 X94.030 Y72.536 E13.41774
G1 X95.523 Y73.296 E13.44223
G1 X95.812 Y73.464 E13.44711
G1 X97.309 Y74.438 E13.47323
G1 X177.309 Y130.438 E14.90097
G1 X178.789 Y131.626 E14.92873
G1 X179.038 Y131.850 E14.93361
G1 X180.222 Y133.034 E14.95810
G1 X180.446 Y133.283 E14.96299
G1 X181.500 Y134.585 E14.98748
G1 X181.696 Y134.855 E14.99237
G1 X182.608 Y136.260 E15.01686
G1 X182.776 Y136.549 E15.02174
G1 X183.502 Y137.974 E15.04513
G1 X183.672 Y138.347 E15.05112
G1 X184.272 Y139.911 E15.07560
G1 X184.375 Y140.229 E15.08049
G1 X184.789 Y141.774 E15.10388
G1 X184.878 Y142.173 E15.10987
G1 X185.140 Y143.828 E15.13436
G1 X185.175 Y144.160 E15.13924
G1 X185.263 Y145.833 E15.16373
G1 X184.950 Y147.388 E15.18692
G1 X183.928 Y148.601 E15.21012
G1 X182.072 Y149.195 E15.23861
G1 X86.072 Y149.195 E16.64220
G1 X84.014 Y148.445 E16.67422
G1 X35.870 Y107.927 E17.59423
G1 X34.948 Y106.636 E17.61742
G1 X34.802 Y104.818 E17.64408
G1 X35.320 Y102.379 E17.68055
G1 X35.407 Y102.055 E17.68545
G1 X36.332 Y99.208 E17.72922
G1 X36.452 Y98.895 E17.73411
G1 X37.670 Y96.160 E17.77789
G1 X37.822 Y95.862 E17.78277
G1 X39.319 Y93.270 E17.82654
G1 X39.501 Y92.990 E17.83142
G1 X41.260 Y90.568 E17.87519
G1 X41.471 Y90.307 E17.88009
G1 X43.475 Y88.082 E17.92387
G1 X43.823 Y87.730 E17.93111
G1 X44.835 Y87.066 E17.94881
G1 E15.94881 F2400.00000
G92 E0
G1 X89.950 Y141.288 F7800.000
G1 E2.00000 F2400.00000
G1 F1200
G1 X91.230 Y141.130 E2.01886
G1 X91.339 Y141.475 E2.02415
G1 X91.453 Y141.620 E2.02685
G1 X91.587 Y141.691 E2.02907
G1 X91.876 Y141.756 E2.03339
G1 X92.341 Y141.746 E2.04019
G1 X92.579 Y141.681 E2.04381
G1 X92.637 Y141.645 E2.04480
G1 X92.688 Y141.572 E2.04610
G1 X92.700 Y141.434 E2.04813
G1 X92.684 Y141.384 E2.04890
G1 X92.630 Y141.320 E2.05012
G1 X92.499 Y141.242 E2.05234
G1 X92.243 Y141.154 E2.05631
G1 X91.127 Y140.843 E2.07324
G1 X90.854 Y140.733 E2.07755
G1 X90.581 Y140.578 E2.08214
G1 X90.317 Y140.350 E2.08724
G1 X90.123 Y140.072 E2.09219
G1 X90.001 Y139.747 E2.09727
G1 X89.961 Y139.383 E2.10262
G1 X89.998 Y139.022 E2.10793
G1 X90.110 Y138.692 E2.11302
G1 X90.300 Y138.404 E2.11807
G1 X90.560 Y138.169 E2.12319
G1 X90.873 Y137.990 E2.12846
G1 X91.228 Y137.867 E2.13396
G1 X91.623 Y137.796 E2.13983
G1 X92.047 Y137.774 E2.14604
G1 X92.475 Y137.791 E2.15229
G1 X92.851 Y137.848 E2.15786
G1 X93.189 Y137.945 E2.16300
G1 X93.487 Y138.088 E2.16783
G1 X93.742 Y138.281 E2.17251
G1 X93.949 Y138.523 E2.17717
G1 X94.104 Y138.808 E2.18190
G1 X94.238 Y139.221 E2.18826
G1 X94.401 Y138.818 E2.19463
G1 X94.664 Y138.439 E2.20137
G1 X95.003 Y138.143 E2.20794
G1 X95.405 Y137.934 E2.21457
G1 X95.861 Y137.812 E2.22147
G1 X96.299 Y137.776 E2.22790
G1 X96.623 Y137.783 E2.23264
G1 X96.879 Y137.816 E2.23641
G1 X97.328 Y137.941 E2.24322
G1 X97.726 Y138.160 E2.24987
G1 X98.056 Y138.468 E2.25647
G1 X98.272 Y138.795 E2.26220
G1 X98.356 Y138.770 E2.26348
G1 X98.356 Y137.928 E2.27579
G1 X98.991 Y137.800 E2.28527
G1 X99.402 Y137.773 E2.29129
G1 X99.662 Y137.792 E2.29510
G1 X99.901 Y137.855 E2.29871
G1 X100.116 Y137.967 E2.30226
G1 X100.297 Y138.128 E2.30580
G1 X100.434 Y138.329 E2.30936
G1 X100.525 Y138.559 E2.31297
G1 X100.576 Y138.811 E2.31673
G1 X100.591 Y139.077 E2.32062
G1 X100.591 Y141.722 E2.35929
G1 X101.102 Y141.722 E2.36675
G1 X101.052 Y141.299 E2.37297
G1 X101.047 Y137.838 E2.42358
G1 X102.407 Y137.838 E2.44347
G1 X102.408 Y141.028 E2.49011
G1 X102.449 Y141.412 E2.49576
G1 X102.508 Y141.580 E2.49836
G1 X102.580 Y141.669 E2.50004
G1 X102.732 Y141.730 E2.50243
G1 X102.986 Y141.751 E2.50615
G1 X103.330 Y141.691 E2.51125
G1 X103.467 Y141.610 E2.51358
G1 X103.588 Y141.495 E2.51602
G1 X103.751 Y141.172 E2.52131
G1 X103.795 Y140.960 E2.52447
G1 X103.812 Y140.689 E2.52844
G1 X103.812 Y137.838 E2.57014
G1 X105.168 Y137.838 E2.58996
G1 X105.168 Y137.862 E2.59032
G1 X105.662 Y137.783 E2.59763
G1 X106.023 Y137.777 E2.60291
G1 X106.266 Y137.815 E2.60651
G1 X106.561 Y137.946 E2.61123
G1 X106.741 Y138.111 E2.61480
G1 X106.855 Y138.310 E2.61815
G1 X106.999 Y138.173 E2.62105
G1 X107.220 Y138.022 E2.62497
G1 X107.458 Y137.910 E2.62881
G1 X107.714 Y137.833 E2.63272
G1 X107.986 Y137.788 E2.63675
G1 X108.271 Y137.773 E2.64093
G1 X108.624 Y137.797 E2.64610
G1 X108.804 Y137.833 E2.64879
G1 X109.107 Y137.939 E2.65347
G1 X109.368 Y138.104 E2.65799
G1 X109.497 Y138.223 E2.66056
G1 X109.679 Y138.462 E2.66496
G1 X109.814 Y138.756 E2.66968
G1 X109.886 Y139.124 E2.67517
G1 X109.975 Y139.131 E2.67647
G1 X110.057 Y138.902 E2.68003
G1 X110.296 Y138.551 E2.68623
G1 X110.623 Y138.263 E2.69260
G1 X111.020 Y138.043 E2.69924
G1 X111.475 Y137.891 E2.70626
G1 X111.986 Y137.802 E2.71384
G1 X112.540 Y137.774 E2.72195
G1 X113.082 Y137.797 E2.72988
G1 X113.562 Y137.871 E2.73697
G1 X113.993 Y137.998 E2.74354
G1 X114.374 Y138.181 E2.74973
G1 X114.701 Y138.422 E2.75567
G1 X114.966 Y138.722 E2.76152
G1 X115.164 Y139.073 E2.76741
G1 X115.394 Y139.777 E2.77825
G1 X114.043 Y140.047 E2.79838
G1 X113.822 Y139.494 E2.80709
G1 X113.727 Y139.364 E2.80946
G1 X113.606 Y139.257 E2.81181
G1 X113.336 Y139.119 E2.81624
G1 X113.115 Y139.057 E2.81959
G1 X112.843 Y139.017 E2.82362
G1 X112.526 Y139.004 E2.82825
G1 X112.206 Y139.018 E2.83294
G1 X111.803 Y139.093 E2.83893
G1 X111.610 Y139.169 E2.84196
G1 X111.455 Y139.266 E2.84464
G1 X111.324 Y139.426 E2.84766
G1 X111.270 Y139.615 E2.85054
G1 X111.278 Y139.839 E2.85381
G1 X111.320 Y139.950 E2.85554
G1 X111.436 Y140.078 E2.85807
G1 X111.583 Y140.170 E2.86061
G1 X111.792 Y140.256 E2.86391
G1 X113.394 Y140.657 E2.88805
G1 X113.761 Y140.778 E2.89370
G1 X114.053 Y140.906 E2.89837
G1 X114.374 Y141.099 E2.90385
G1 X114.632 Y141.331 E2.90892
G1 X114.862 Y141.669 E2.91490
G1 X114.983 Y141.998 E2.92001
G1 X115.033 Y142.441 E2.92654
G1 X114.991 Y142.857 E2.93265
G1 X114.863 Y143.225 E2.93834
G1 X114.753 Y143.413 E2.94153
G1 X114.497 Y143.705 E2.94721
G1 X114.166 Y143.939 E2.95313
G1 X113.961 Y144.040 E2.95648
G1 X113.544 Y144.178 E2.96289
G1 X113.064 Y144.261 E2.97001
G1 X112.291 Y144.282 E2.98132
G1 X111.825 Y144.242 E2.98817
G1 X111.412 Y144.159 E2.99432
G1 X111.048 Y144.030 E2.99997
G1 X110.740 Y143.852 E3.00518
G1 X110.586 Y143.725 E3.00809
G1 X110.347 Y143.455 E3.01336
G1 X110.157 Y143.125 E3.01894
G1 X109.894 Y142.415 E3.03000
G1 X111.272 Y142.173 E3.05046
G1 X111.481 Y142.676 E3.05842
G1 X111.561 Y142.784 E3.06039
G1 X111.661 Y142.875 E3.06236
G1 X111.787 Y142.948 E3.06450
G1 X111.948 Y143.006 E3.06699
G1 X112.279 Y143.064 E3.07190
G1 X112.702 Y143.073 E3.07809
G1 X112.970 Y143.048 E3.08202
G1 X113.192 Y143.000 E3.08534
G1 X113.364 Y142.934 E3.08803
G1 X113.487 Y142.857 E3.09016
G1 X113.566 Y142.774 E3.09184
G1 X113.617 Y142.679 E3.09340
G1 X113.644 Y142.560 E3.09520
G1 X113.642 Y142.408 E3.09741
G1 X113.600 Y142.276 E3.09944
G1 X113.501 Y142.168 E3.10159
G1 X113.230 Y142.016 E3.10613
G1 X112.798 Y141.886 E3.11272
G1 X111.753 Y141.639 E3.12842
G1 X111.349 Y141.525 E3.13456
G1 X110.905 Y141.348 E3.14155
G1 X110.596 Y141.177 E3.14671
G1 X110.285 Y140.910 E3.15270
G1 X110.145 Y140.731 E3.15602
G1 X110.032 Y140.532 E3.15937
G1 X109.909 Y140.172 E3.16493
G1 X109.896 Y140.036 E3.16694
G1 X109.800 Y140.026 E3.16835
G1 X109.773 Y140.114 E3.16970
G1 X109.596 Y140.421 E3.17487
G1 X109.348 Y140.678 E3.18009
G1 X109.030 Y140.877 E3.18558
G1 X108.802 Y140.959 E3.18912
G1 X108.814 Y141.052 E3.19050
G1 X109.790 Y141.142 E3.20483
G1 X109.631 Y141.805 E3.21480
G1 X109.493 Y142.109 E3.21967
G1 X109.298 Y142.372 E3.22446
G1 X109.049 Y142.586 E3.22926
G1 X108.754 Y142.747 E3.23418
G1 X108.421 Y142.858 E3.23931
G1 X108.052 Y142.922 E3.24479
G1 X107.644 Y142.943 E3.25075
G1 X107.216 Y142.916 E3.25702
G1 X106.829 Y142.834 E3.26281
G1 X106.485 Y142.689 E3.26827
G1 X106.192 Y142.479 E3.27354
G1 X105.960 Y142.210 E3.27873
G1 X105.798 Y141.892 E3.28396
G1 X105.705 Y141.541 E3.28927
G1 X105.681 Y141.336 E3.29227
G1 X105.675 Y139.251 E3.32276
G1 X105.647 Y138.965 E3.32696
G1 X105.623 Y138.906 E3.32789
G1 X105.565 Y138.894 E3.32876
G1 X105.168 Y138.941 E3.33461
G1 X105.168 Y141.619 E3.37377
G1 X105.196 Y142.878 E3.39219
G1 X103.890 Y142.878 E3.41128
G1 X103.879 Y142.620 E3.41507
G1 X103.504 Y142.817 E3.42126
G1 X103.147 Y142.912 E3.42666
G1 X102.880 Y142.940 E3.43058
G1 X102.548 Y142.937 E3.43544
G1 X102.195 Y142.885 E3.44066
G1 X102.013 Y142.833 E3.44343
G1 X101.725 Y142.698 E3.44808
G1 X101.574 Y142.589 E3.45079
G1 X101.358 Y142.354 E3.45546
G1 X101.188 Y142.032 E3.46079
G1 X101.099 Y142.054 E3.46213
G1 X101.099 Y142.878 E3.47419
G1 X100.501 Y142.878 E3.48294
G1 X100.285 Y143.838 E3.49732
G1 X99.236 Y143.838 E3.51266
G1 X99.236 Y142.878 E3.52670
G1 X98.429 Y142.878 E3.53850
G1 X98.429 Y141.843 E3.55364
G1 X98.333 Y141.824 E3.55506
G1 X98.307 Y141.890 E3.55609
G1 X98.052 Y142.269 E3.56278
G1 X97.718 Y142.569 E3.56934
G1 X97.316 Y142.781 E3.57599
G1 X96.856 Y142.904 E3.58295
G1 X96.344 Y142.943 E3.59046
G1 X95.824 Y142.905 E3.59808
G1 X95.361 Y142.785 E3.60507
G1 X94.958 Y142.578 E3.61169
G1 X94.628 Y142.283 E3.61817
G1 X94.380 Y141.905 E3.62477
G1 X94.210 Y141.457 E3.63179
G1 X94.112 Y140.943 E3.63944
G1 X94.080 Y140.361 E3.64795
G1 X94.114 Y139.783 E3.65642
G1 X94.179 Y139.463 E3.66119
G1 X93.065 Y139.681 E3.67780
G1 X92.885 Y139.242 E3.68474
G1 X92.832 Y139.170 E3.68603
G1 X92.665 Y139.054 E3.68900
G1 X92.545 Y139.012 E3.69086
G1 X92.170 Y138.959 E3.69641
G1 X91.728 Y138.978 E3.70287
G1 X91.510 Y139.031 E3.70616
G1 X91.392 Y139.099 E3.70815
G1 X91.335 Y139.171 E3.70949
G1 X91.304 Y139.280 E3.71114
G1 X91.308 Y139.389 E3.71274
G1 X91.330 Y139.449 E3.71366
G1 X91.413 Y139.542 E3.71550
G1 X91.657 Y139.662 E3.71946
G1 X92.655 Y139.937 E3.73460
G1 X93.227 Y140.151 E3.74353
G1 X93.476 Y140.303 E3.74779
G1 X93.731 Y140.535 E3.75283
G1 X93.889 Y140.757 E3.75683
G1 X93.996 Y141.021 E3.76099
G1 X94.043 Y141.395 E3.76650
G1 X94.009 Y141.746 E3.77166
G1 X93.909 Y142.054 E3.77639
G1 X93.817 Y142.221 E3.77918
G1 X93.616 Y142.461 E3.78375
G1 X93.357 Y142.652 E3.78845
G1 X93.184 Y142.741 E3.79130
G1 X92.851 Y142.855 E3.79644
G1 X92.472 Y142.921 E3.80208
G1 X92.051 Y142.943 E3.80824
G1 X91.674 Y142.925 E3.81375
G1 X91.329 Y142.871 E3.81886
G1 X91.015 Y142.778 E3.82364
G1 X90.732 Y142.642 E3.82824
G1 X90.484 Y142.454 E3.83279
G1 X90.283 Y142.215 E3.83736
G1 X90.138 Y141.933 E3.84200
G1 X89.967 Y141.345 E3.85094
G1 E1.85094 F2400.00000
G92 E0
G1 X89.758 Y141.200 F7800.000
G1 X91.329 Y141.561 F7800.000
G1 X92.299 Y140.960 F7800.000
G1 X93.064 Y143.526 F7800.000
G1 X93.417 Y144.220 F7800.000
G1 X94.223 Y144.027 F7800.000
G1 X96.239 Y144.317 F7800.000
G1 X97.831 Y144.283 F7800.000
G1 X98.548 Y144.763 F7800.000
G1 X100.835 Y144.763 F7800.000
G1 X101.624 Y144.283 F7800.000
G1 X107.783 Y144.316 F7800.000
G1 X109.163 Y144.197 F7800.000
G1 X109.428 Y143.124 F7800.000
G1 X110.158 Y142.567 F7800.000
G1 E2.00000 F2400.00000
G1 F1200
G1 X111.152 Y142.393 E2.01475
G1 X111.310 Y142.772 E2.02076
G1 X111.415 Y142.916 E2.02337
G1 X111.546 Y143.034 E2.02594
G1 X111.705 Y143.126 E2.02862
G1 X111.897 Y143.195 E2.03161
G1 X112.260 Y143.259 E2.03700
G1 X112.709 Y143.268 E2.04357
G1 X113.000 Y143.241 E2.04784
G1 X113.248 Y143.187 E2.05154
G1 X113.451 Y143.109 E2.05473
G1 X113.611 Y143.009 E2.05749
G1 X113.726 Y142.890 E2.05991
G1 X113.801 Y142.749 E2.06225
G1 X113.840 Y142.580 E2.06478
G1 X113.837 Y142.377 E2.06775
G1 X113.778 Y142.190 E2.07062
G1 X113.625 Y142.016 E2.07400
G1 X113.484 Y141.920 E2.07650
G1 X113.300 Y141.834 E2.07947
G1 X112.849 Y141.697 E2.08636
G1 X111.802 Y141.450 E2.10208
G1 X111.412 Y141.339 E2.10801
G1 X110.989 Y141.171 E2.11468
G1 X110.708 Y141.016 E2.11936
G1 X110.427 Y140.774 E2.12478
G1 X110.308 Y140.622 E2.12761
G1 X110.211 Y140.451 E2.13048
G1 X110.101 Y140.131 E2.13543
G1 X110.064 Y139.747 E2.14108
G1 X110.106 Y139.347 E2.14695
G1 X110.232 Y138.991 E2.15248
G1 X110.443 Y138.682 E2.15795
G1 X110.736 Y138.424 E2.16365
