; generated by Slic3r 1.3.0-dev on 2019-01-15 at 09:24:31

; external perimeters extrusion width = 0.40mm (2.00mm^3/s)
; perimeters extrusion width = 0.67mm (5.03mm^3/s)
; infill extrusion width = 0.67mm (5.65mm^3/s)
; solid infill extrusion width = 0.26mm (1.52mm^3/s)
; top infill extrusion width = 0.26mm (1.09mm^3/s)
; support material extrusion width = 0.40mm (2.86mm^3/s)

M107
M190 S60 ; set bed temperature and wait for it to be reached
M104 S200 ; set temperature
G28 ; home all axes
G1 Z5 F5000 ; lift nozzle

; Filament gcode

M109 S200 ; set temperature and wait for it to be reached
G21 ; set units to millimeters
G90 ; use absolute coordinates
M82 ; use absolute distances for extrusion
G92 E0
;LAYER 0 at 0.18mm
M117 printing layer 0 at 0.18mm
G1 Z0.180 F7800.000
G1 E-2.00000 F2400.00000
G92 E0
G1 X66.652 Y36.110 F7800.000
G1 E2.00000 F2400.00000
M204 S2000
G1 F1200
G1 X67.751 Y34.836 E2.02459
G1 X69.842 Y34.163 E2.05671
G1 X77.748 Y34.164 E2.17230
G1 X131.210 Y35.474 E2.95418
G1 X132.383 Y35.552 E2.97137
G1 X133.405 Y35.667 E2.98642
G1 X134.441 Y35.831 E3.00175
G1 X135.430 Y36.031 E3.01650
G1 X136.278 Y36.239 E3.02927
G1 X137.267 Y36.523 E3.04431
G1 X138.390 Y36.904 E3.06164
G1 X139.203 Y37.221 E3.07440
G1 X140.146 Y37.632 E3.08945
G1 X141.209 Y38.156 E3.10678
G1 X142.110 Y38.654 E3.12183
G1 X142.987 Y39.191 E3.13687
G1 X143.713 Y39.676 E3.14963
G1 X144.545 Y40.281 E3.16467
G1 X145.470 Y41.023 E3.18201
G1 X146.255 Y41.718 E3.19733
G1 X146.982 Y42.418 E3.21209
G1 X147.585 Y43.049 E3.22485
G1 X148.266 Y43.820 E3.23990
G1 X149.008 Y44.745 E3.25723
G1 X149.524 Y45.448 E3.26999
G1 X150.099 Y46.302 E3.28503
G1 X150.714 Y47.316 E3.30236
G1 X151.206 Y48.219 E3.31741
G1 X151.592 Y49.002 E3.33017
G1 X152.009 Y49.942 E3.34521
G1 X152.386 Y50.900 E3.36026
G1 X152.767 Y52.023 E3.37759
G1 X153.051 Y53.012 E3.39264
G1 X153.293 Y54.012 E3.40768
G1 X153.463 Y54.868 E3.42044
G1 X153.623 Y55.884 E3.43548
G1 X153.738 Y56.907 E3.45053
G1 X153.809 Y57.934 E3.46557
G1 X153.836 Y59.040 E3.48176
G1 X153.835 Y76.101 E3.73119
G1 X152.156 Y176.165 E5.19441
G1 X151.600 Y178.022 E5.22276
G1 X151.129 Y178.767 E5.23563
G1 X149.293 Y180.230 E5.26996
G1 X137.652 Y184.341 E5.45047
G1 X136.458 Y184.546 E5.46818
G1 X88.958 Y184.546 E6.16267
G1 X87.322 Y184.151 E6.18726
G1 X86.047 Y183.055 E6.21185
G1 X85.478 Y181.827 E6.23163
G1 X79.363 Y157.309 E6.60109
G1 X79.297 Y156.982 E6.60597
G1 X66.297 Y71.742 E7.86665
G1 X66.256 Y71.206 E7.87451
G1 X66.252 Y68.447 E7.91485
G1 X66.256 Y37.744 E8.36374
G1 X66.638 Y36.168 E8.38745
G1 X66.847 Y36.158 F7800.000
G1 F1200
G1 X67.940 Y34.942 E8.41135
G1 X69.842 Y34.358 E8.44045
G1 X77.743 Y34.359 E8.55596
G1 X131.205 Y35.670 E9.33785
G1 X132.362 Y35.746 E9.35480
G1 X133.376 Y35.860 E9.36972
G1 X134.403 Y36.022 E9.38492
G1 X135.384 Y36.221 E9.39956
G1 X136.232 Y36.428 E9.41232
G1 X137.353 Y36.755 E9.42940
G1 X138.319 Y37.086 E9.44432
G1 X139.269 Y37.459 E9.45924
G1 X140.067 Y37.811 E9.47200
G1 X141.115 Y38.327 E9.48908
G1 X142.008 Y38.821 E9.50400
G1 X142.879 Y39.353 E9.51892
G1 X143.605 Y39.838 E9.53168
G1 X144.430 Y40.439 E9.54660
G1 X145.341 Y41.170 E9.56369
G1 X146.106 Y41.845 E9.57860
G1 X146.736 Y42.449 E9.59136
G1 X147.544 Y43.293 E9.60845
G1 X148.120 Y43.949 E9.62120
G1 X148.761 Y44.743 E9.63612
G1 X149.367 Y45.564 E9.65105
G1 X150.016 Y46.535 E9.66813
G1 X150.543 Y47.410 E9.68305
G1 X151.031 Y48.306 E9.69797
G1 X151.479 Y49.222 E9.71289
G1 X151.831 Y50.021 E9.72565
G1 X152.203 Y50.971 E9.74057
G1 X152.579 Y52.077 E9.75765
G1 X152.862 Y53.058 E9.77257
G1 X153.101 Y54.050 E9.78749
G1 X153.271 Y54.906 E9.80025
G1 X153.430 Y55.914 E9.81517
G1 X153.544 Y56.928 E9.83009
G1 X153.614 Y57.946 E9.84501
G1 X153.640 Y59.040 E9.86101
G1 X153.640 Y76.097 E10.11040
G1 X151.961 Y176.161 E11.57361
G1 X151.435 Y177.918 E11.60041
G1 X150.964 Y178.662 E11.61329
G1 X149.228 Y180.046 E11.64575
G1 X137.587 Y184.157 E11.82626
G1 X136.458 Y184.350 E11.84301
G1 X88.958 Y184.350 E12.53749
G1 X87.371 Y183.956 E12.56139
G1 X86.153 Y182.865 E12.58529
G1 X85.668 Y181.780 E12.60268
G1 X79.552 Y157.262 E12.97214
G1 X79.490 Y156.952 E12.97675
G1 X66.490 Y71.712 E14.23743
G1 X66.451 Y71.205 E14.24486
G1 X66.447 Y68.446 E14.28520
G1 X66.451 Y37.744 E14.73409
G1 X66.833 Y36.217 E14.75711
G1 X67.042 Y36.209 F7800.000
G1 F1200
G1 X68.128 Y35.052 E14.78030
G1 X69.842 Y34.554 E14.80640
G1 X77.738 Y34.555 E14.92185
G1 X131.200 Y35.865 E15.70373
G1 X132.340 Y35.940 E15.72044
G1 X133.346 Y36.053 E15.73524
G1 X134.365 Y36.214 E15.75032
G1 X135.337 Y36.411 E15.76482
G1 X136.185 Y36.618 E15.77759
G1 X137.158 Y36.898 E15.79238
G1 X138.248 Y37.268 E15.80922
G1 X139.061 Y37.585 E15.82197
G1 X139.989 Y37.990 E15.83677
G1 X141.021 Y38.499 E15.85360
G1 X141.907 Y38.988 E15.86840
G1 X142.770 Y39.516 E15.88319
G1 X143.496 Y40.001 E15.89595
G1 X144.425 Y40.681 E15.91279
G1 X145.212 Y41.317 E15.92758
G1 X145.985 Y42.000 E15.94266
G1 X146.700 Y42.689 E15.95717
G1 X147.303 Y43.319 E15.96993
G1 X147.973 Y44.078 E15.98473
G1 X148.693 Y44.976 E16.00156
G1 X149.289 Y45.794 E16.01636
G1 X149.774 Y46.519 E16.02912
G1 X150.371 Y47.503 E16.04595
G1 X150.855 Y48.392 E16.06075
G1 X151.241 Y49.175 E16.07350
G1 X151.652 Y50.100 E16.08830
G1 X152.021 Y51.042 E16.10309
G1 X152.391 Y52.132 E16.11993
G1 X152.672 Y53.105 E16.13472
G1 X152.909 Y54.088 E16.14952
G1 X153.080 Y54.944 E16.16228
G1 X153.236 Y55.944 E16.17707
G1 X153.350 Y56.949 E16.19187
G1 X153.419 Y57.959 E16.20667
G1 X153.445 Y59.040 E16.22248
G1 X153.444 Y76.094 E16.47182
G1 X151.765 Y176.158 E17.93503
G1 X151.270 Y177.813 E17.96029
G1 X150.799 Y178.558 E17.97317
G1 X149.163 Y179.862 E18.00376
G1 X137.521 Y183.973 E18.18427
G1 X136.458 Y184.155 E18.20005
G1 X88.958 Y184.155 E18.89453
G1 X87.421 Y183.761 E18.91772
G1 X86.263 Y182.677 E18.94092
G1 X85.857 Y181.733 E18.95594
G1 X79.742 Y157.214 E19.32540
G1 X79.683 Y156.923 E19.32974
G1 X66.683 Y71.683 E20.59043
G1 X66.646 Y71.205 E20.59743
G1 X66.643 Y68.446 E20.63777
G1 X66.647 Y37.745 E21.08665
G1 X67.027 Y36.267 E21.10896
G1 E19.10896 F2400.00000
G92 E0
G1 X139.907 Y78.698 F7800.000
G1 E2.00000 F2400.00000
G1 F1200
G1 X140.184 Y78.450 E2.00543
G1 X140.476 Y78.243 E2.01068
G1 X140.811 Y78.056 E2.01629
G1 X141.155 Y77.913 E2.02173
G1 X141.512 Y77.811 E2.02716
G1 X141.878 Y77.748 E2.03259
G1 X142.237 Y77.728 E2.03783
G1 X142.620 Y77.748 E2.04344
G1 X142.987 Y77.811 E2.04888
G1 X143.344 Y77.913 E2.05431
G1 X143.687 Y78.056 E2.05975
G1 X144.012 Y78.235 E2.06518
G1 X144.315 Y78.450 E2.07061
G1 X144.592 Y78.698 E2.07604
G1 X144.840 Y78.975 E2.08147
G1 X145.054 Y79.278 E2.08690
G1 X145.234 Y79.603 E2.09234
G1 X145.372 Y79.935 E2.09758
G1 X145.479 Y80.303 E2.10319
G1 X145.541 Y80.670 E2.10863
G1 X145.562 Y81.040 E2.11406
G1 X145.541 Y81.411 E2.11949
G1 X145.479 Y81.778 E2.12493
G1 X145.376 Y82.135 E2.13036
G1 X145.234 Y82.478 E2.13579
G1 X145.054 Y82.803 E2.14122
G1 X144.847 Y83.096 E2.14647
G1 X144.592 Y83.383 E2.15207
G1 X144.315 Y83.631 E2.15751
G1 X144.012 Y83.846 E2.16295
G1 X143.687 Y84.025 E2.16838
G1 X143.344 Y84.167 E2.17381
G1 X142.987 Y84.270 E2.17924
G1 X142.633 Y84.330 E2.18449
G1 X142.250 Y84.353 E2.19009
G1 X141.878 Y84.332 E2.19554
G1 X141.512 Y84.270 E2.20097
G1 X141.155 Y84.167 E2.20640
G1 X140.812 Y84.025 E2.21183
G1 X140.487 Y83.846 E2.21726
G1 X140.184 Y83.631 E2.22269
G1 X139.907 Y83.383 E2.22813
G1 X139.659 Y83.106 E2.23356
G1 X139.444 Y82.803 E2.23899
G1 X139.265 Y82.478 E2.24442
G1 X139.127 Y82.146 E2.24967
G1 X139.020 Y81.778 E2.25527
G1 X138.957 Y81.411 E2.26071
G1 X138.937 Y81.040 E2.26615
G1 X138.957 Y80.670 E2.27158
G1 X139.020 Y80.303 E2.27701
G1 X139.122 Y79.946 E2.28244
G1 X139.265 Y79.603 E2.28787
G1 X139.444 Y79.278 E2.29331
G1 X139.659 Y78.975 E2.29874
G1 X139.867 Y78.743 E2.30329
G1 X140.045 Y78.836 F7800.000
G1 F1200
G1 X140.306 Y78.603 E2.30840
G1 X140.581 Y78.408 E2.31333
G1 X140.897 Y78.232 E2.31862
G1 X141.220 Y78.098 E2.32373
G1 X141.556 Y78.001 E2.32884
G1 X141.900 Y77.943 E2.33396
G1 X142.237 Y77.924 E2.33889
G1 X142.598 Y77.943 E2.34417
G1 X142.943 Y78.001 E2.34929
G1 X143.279 Y78.098 E2.35440
G1 X143.602 Y78.232 E2.35951
G1 X143.908 Y78.401 E2.36462
G1 X144.193 Y78.603 E2.36973
G1 X144.454 Y78.836 E2.37484
G1 X144.687 Y79.097 E2.37995
G1 X144.889 Y79.382 E2.38506
G1 X145.058 Y79.688 E2.39017
G1 X145.187 Y80.000 E2.39510
G1 X145.288 Y80.347 E2.40039
G1 X145.347 Y80.691 E2.40551
G1 X145.367 Y81.040 E2.41062
G1 X145.347 Y81.389 E2.41573
G1 X145.288 Y81.734 E2.42084
G1 X145.192 Y82.070 E2.42595
G1 X145.058 Y82.393 E2.43106
G1 X144.889 Y82.699 E2.43617
G1 X144.694 Y82.974 E2.44110
G1 X144.454 Y83.244 E2.44639
G1 X144.193 Y83.478 E2.45150
G1 X143.908 Y83.680 E2.45661
G1 X143.602 Y83.849 E2.46172
G1 X143.279 Y83.983 E2.46683
G1 X142.943 Y84.079 E2.47195
G1 X142.611 Y84.136 E2.47688
G1 X142.250 Y84.158 E2.48216
G1 X141.900 Y84.138 E2.48728
G1 X141.556 Y84.079 E2.49239
G1 X141.220 Y83.983 E2.49750
G1 X140.897 Y83.849 E2.50261
G1 X140.591 Y83.680 E2.50772
G1 X140.306 Y83.478 E2.51283
G1 X140.045 Y83.245 E2.51794
G1 X139.812 Y82.984 E2.52305
G1 X139.610 Y82.699 E2.52816
G1 X139.441 Y82.393 E2.53327
G1 X139.312 Y82.081 E2.53821
G1 X139.210 Y81.734 E2.54349
G1 X139.152 Y81.389 E2.54861
G1 X139.132 Y81.040 E2.55372
G1 X139.152 Y80.691 E2.55883
G1 X139.210 Y80.347 E2.56394
G1 X139.307 Y80.011 E2.56905
G1 X139.441 Y79.688 E2.57416
G1 X139.610 Y79.382 E2.57927
G1 X139.812 Y79.097 E2.58438
G1 X140.005 Y78.881 E2.58862
G1 X140.045 Y78.836 F7800.000
G1 E0.58862 F2400.00000
G92 E0
G1 X138.124 Y77.152 F7800.000
G1 E2.00000 F2400.00000
G1 F1200
G1 X137.736 Y77.594 E2.00861
G1 X137.123 Y78.234 E2.02156
G1 X136.483 Y78.847 E2.03452
G1 X135.817 Y79.432 E2.04748
G1 X135.126 Y79.986 E2.06044
G1 X134.411 Y80.510 E2.07339
G1 X133.674 Y81.003 E2.08635
G1 X132.916 Y81.462 E2.09931
G1 X132.139 Y81.889 E2.11227
G1 X131.345 Y82.281 E2.12522
G1 X130.533 Y82.638 E2.13818
G1 X129.707 Y82.959 E2.15114
G1 X128.868 Y83.244 E2.16409
G1 X128.017 Y83.492 E2.17705
G1 X127.157 Y83.702 E2.19001
G1 X126.287 Y83.875 E2.20297
G1 X125.411 Y84.010 E2.21592
G1 X124.550 Y84.104 E2.22859
G1 X123.646 Y84.164 E2.24184
G1 X122.760 Y84.184 E2.25480
G1 X121.874 Y84.164 E2.26775
G1 X120.990 Y84.107 E2.28071
G1 X120.109 Y84.010 E2.29367
G1 X119.233 Y83.875 E2.30662
G1 X118.383 Y83.706 E2.31929
G1 X117.503 Y83.492 E2.33254
G1 X116.652 Y83.244 E2.34550
G1 X115.813 Y82.959 E2.35845
G1 X114.987 Y82.638 E2.37141
G1 X114.176 Y82.281 E2.38437
G1 X113.381 Y81.889 E2.39732
G1 X112.621 Y81.472 E2.40999
G1 X111.846 Y81.003 E2.42324
G1 X111.109 Y80.510 E2.43620
G1 X110.395 Y79.986 E2.44915
G1 X109.704 Y79.432 E2.46211
G1 X109.037 Y78.847 E2.47507
G1 X108.397 Y78.234 E2.48803
G1 X107.784 Y77.594 E2.50098
G1 X107.200 Y76.928 E2.51394
G1 X106.645 Y76.237 E2.52690
G1 X106.121 Y75.522 E2.53985
G1 X105.629 Y74.785 E2.55281
G1 X105.169 Y74.028 E2.56577
G1 X104.743 Y73.251 E2.57873
G1 X104.351 Y72.456 E2.59168
G1 X103.994 Y71.645 E2.60464
G1 X103.673 Y70.819 E2.61760
G1 X103.388 Y69.979 E2.63056
G1 X103.140 Y69.129 E2.64351
G1 X102.929 Y68.268 E2.65647
G1 X102.756 Y67.399 E2.66943
G1 X102.622 Y66.523 E2.68238
G1 X102.525 Y65.642 E2.69534
G1 X102.467 Y64.757 E2.70830
G1 X102.448 Y63.871 E2.72126
G1 X102.467 Y62.985 E2.73421
G1 X102.525 Y62.101 E2.74717
G1 X102.622 Y61.220 E2.76013
G1 X102.756 Y60.344 E2.77309
G1 X102.929 Y59.475 E2.78604
G1 X103.140 Y58.614 E2.79900
G1 X103.388 Y57.763 E2.81196
G1 X103.673 Y56.924 E2.82491
G1 X103.994 Y56.098 E2.83787
G1 X104.351 Y55.287 E2.85083
G1 X104.743 Y54.492 E2.86379
G1 X105.169 Y53.715 E2.87674
G1 X105.629 Y52.957 E2.88970
G1 X106.121 Y52.221 E2.90266
G1 X106.645 Y51.506 E2.91562
G1 X107.200 Y50.815 E2.92857
G1 X107.784 Y50.148 E2.94153
G1 X108.397 Y49.508 E2.95449
G1 X109.037 Y48.895 E2.96744
G1 X109.704 Y48.311 E2.98040
G1 X110.395 Y47.756 E2.99336
G1 X111.109 Y47.232 E3.00632
G1 X111.846 Y46.740 E3.01927
G1 X112.604 Y46.280 E3.03223
G1 X113.381 Y45.854 E3.04519
G1 X114.176 Y45.462 E3.05815
G1 X114.987 Y45.105 E3.07110
G1 X115.813 Y44.784 E3.08406
G1 X116.652 Y44.499 E3.09702
G1 X117.503 Y44.251 E3.10997
G1 X118.364 Y44.040 E3.12293
G1 X119.233 Y43.868 E3.13589
G1 X120.109 Y43.733 E3.14885
G1 X120.990 Y43.636 E3.16180
G1 X121.874 Y43.578 E3.17476
G1 X122.740 Y43.559 E3.18743
G1 X123.646 Y43.578 E3.20067
G1 X124.531 Y43.636 E3.21363
G1 X125.411 Y43.733 E3.22659
G1 X126.287 Y43.868 E3.23955
G1 X127.157 Y44.040 E3.25250
G1 X128.017 Y44.251 E3.26546
G1 X128.868 Y44.499 E3.27842
G1 X129.707 Y44.784 E3.29138
G1 X130.533 Y45.105 E3.30433
G1 X131.345 Y45.462 E3.31729
G1 X132.139 Y45.854 E3.33025
G1 X132.916 Y46.280 E3.34320
G1 X133.674 Y46.740 E3.35616
G1 X134.411 Y47.232 E3.36912
G1 X135.110 Y47.745 E3.38179
G1 X135.817 Y48.311 E3.39503
G1 X136.483 Y48.895 E3.40799
G1 X137.123 Y49.508 E3.42095
G1 X137.736 Y50.148 E3.43391
G1 X138.320 Y50.815 E3.44686
G1 X138.875 Y51.506 E3.45982
G1 X139.399 Y52.221 E3.47278
G1 X139.892 Y52.957 E3.48573
G1 X140.351 Y53.715 E3.49869
G1 X140.768 Y54.475 E3.51136
G1 X141.169 Y55.287 E3.52460
G1 X141.526 Y56.098 E3.53756
G1 X141.848 Y56.924 E3.55052
G1 X142.133 Y57.763 E3.56348
G1 X142.381 Y58.614 E3.57643
G1 X142.591 Y59.475 E3.58939
G1 X142.764 Y60.344 E3.60235
G1 X142.899 Y61.220 E3.61531
G1 X142.995 Y62.101 E3.62826
G1 X143.053 Y62.985 E3.64122
G1 X143.073 Y63.871 E3.65418
G1 X143.053 Y64.757 E3.66714
G1 X142.995 Y65.642 E3.68009
G1 X142.899 Y66.523 E3.69305
G1 X142.764 Y67.399 E3.70601
G1 X142.591 Y68.268 E3.71896
G1 X142.381 Y69.129 E3.73192
G1 X142.133 Y69.979 E3.74488
G1 X141.848 Y70.819 E3.75784
G1 X141.526 Y71.645 E3.77079
G1 X141.170 Y72.456 E3.78375
G1 X140.778 Y73.251 E3.79671
G1 X140.351 Y74.028 E3.80967
G1 X139.892 Y74.785 E3.82262
G1 X139.399 Y75.522 E3.83558
G1 X138.875 Y76.237 E3.84854
G1 X138.164 Y77.107 E3.86496
G1 X137.977 Y77.023 F7800.000
G1 F1200
G1 X137.592 Y77.462 E3.87351
G1 X136.985 Y78.096 E3.88634
G1 X136.351 Y78.703 E3.89917
G1 X135.691 Y79.282 E3.91201
G1 X135.007 Y79.831 E3.92484
G1 X134.299 Y80.350 E3.93767
G1 X133.569 Y80.838 E3.95051
G1 X132.819 Y81.293 E3.96334
G1 X132.049 Y81.715 E3.97617
G1 X131.262 Y82.104 E3.98900
G1 X130.459 Y82.457 E4.00184
G1 X129.641 Y82.775 E4.01467
G1 X128.809 Y83.057 E4.02750
G1 X127.967 Y83.303 E4.04033
G1 X127.114 Y83.512 E4.05317
G1 X126.253 Y83.683 E4.06600
G1 X125.386 Y83.816 E4.07883
G1 X124.533 Y83.910 E4.09138
G1 X123.638 Y83.969 E4.10450
G1 X122.760 Y83.988 E4.11733
G1 X121.883 Y83.969 E4.13016
G1 X121.007 Y83.912 E4.14299
G1 X120.134 Y83.816 E4.15583
G1 X119.267 Y83.683 E4.16866
G1 X118.425 Y83.515 E4.18120
G1 X117.554 Y83.303 E4.19432
G1 X116.711 Y83.057 E4.20716
G1 X115.880 Y82.775 E4.21999
G1 X115.062 Y82.457 E4.23282
G1 X114.258 Y82.104 E4.24565
G1 X113.471 Y81.715 E4.25849
G1 X112.719 Y81.303 E4.27103
G1 X111.951 Y80.838 E4.28415
G1 X111.222 Y80.350 E4.29698
G1 X110.514 Y79.831 E4.30982
G1 X109.829 Y79.282 E4.32265
G1 X109.169 Y78.703 E4.33548
G1 X108.535 Y78.096 E4.34832
G1 X107.928 Y77.462 E4.36115
G1 X107.350 Y76.802 E4.37398
G1 X106.800 Y76.118 E4.38681
G1 X106.281 Y75.410 E4.39965
G1 X105.794 Y74.680 E4.41248
G1 X105.338 Y73.930 E4.42531
G1 X104.916 Y73.160 E4.43814
G1 X104.528 Y72.373 E4.45098
G1 X104.174 Y71.570 E4.46381
G1 X103.856 Y70.752 E4.47664
G1 X103.574 Y69.921 E4.48947
G1 X103.329 Y69.078 E4.50231
G1 X103.120 Y68.225 E4.51514
G1 X102.949 Y67.365 E4.52797
G1 X102.815 Y66.497 E4.54080
G1 X102.720 Y65.625 E4.55364
G1 X102.662 Y64.749 E4.56647
G1 X102.643 Y63.871 E4.57930
G1 X102.662 Y62.994 E4.59213
G1 X102.720 Y62.118 E4.60497
G1 X102.815 Y61.246 E4.61780
G1 X102.949 Y60.378 E4.63063
G1 X103.120 Y59.517 E4.64347
G1 X103.329 Y58.665 E4.65630
G1 X103.574 Y57.822 E4.66913
G1 X103.856 Y56.991 E4.68196
G1 X104.174 Y56.173 E4.69480
G1 X104.528 Y55.370 E4.70763
G1 X104.916 Y54.582 E4.72046
G1 X105.338 Y53.813 E4.73329
G1 X105.794 Y53.062 E4.74613
G1 X106.281 Y52.333 E4.75896
G1 X106.800 Y51.625 E4.77179
G1 X107.350 Y50.940 E4.78462
G1 X107.928 Y50.280 E4.79746
G1 X108.535 Y49.646 E4.81029
G1 X109.169 Y49.040 E4.82312
G1 X109.829 Y48.461 E4.83595
G1 X110.514 Y47.911 E4.84879
G1 X111.222 Y47.392 E4.86162
G1 X111.951 Y46.905 E4.87445
