; generated by Slic3r 1.3.1-dev (Build 4f5b935ecf1335755d607ec38395bd94106daa7f) on 2019-12-23 at 15:35:53

; external perimeters extrusion width = 0.44mm (2.22mm^3/s)
; perimeters extrusion width = 0.56mm (4.14mm^3/s)
; infill extrusion width = 0.50mm (4.11mm^3/s)
; solid infill extrusion width = 0.26mm (1.52mm^3/s)
; top infill extrusion width = 0.26mm (1.09mm^3/s)

M107
G92 E0
M190 S60 ; set bed temperature and wait for it to be reached
M104 S200 ; set temperature
G90                    ;absolute positioning
G28 ; home all axes
G1 Z5 F5000 ; lift nozzle

; Filament gcode

M109 S200 ; set temperature and wait for it to be reached
G21 ; set units to millimeters
G90 ; use absolute coordinates
M82 ; use absolute distances for extrusion
G92 E0
;LAYER 0 at 0.18mm
M117 printing layer 0 at 0.18mm
G1 Z0.180 F7800.000
G1 E-2.00000 F2400.00000
G92 E0
G1 X82.890 Y82.761 F7800.000
G1 E2.00000 F2400.00000
M201 X2000 Y2000
M204 P2000 T2000
G1 F1200.000
G1 X83.565 Y82.152 E2.01330
G1 X84.359 Y81.556 E2.02781
G1 X84.759 Y81.298 E2.03477
G1 X85.282 Y80.996 E2.04361
G1 X86.059 Y80.617 E2.05624
G1 X86.618 Y80.391 E2.06506
G1 X87.070 Y80.234 E2.07205
G1 X88.027 Y79.976 E2.08654
G1 X88.923 Y79.819 E2.09984
G1 X89.916 Y79.736 E2.11442
G1 X169.121 Y79.729 E3.27245
G1 X170.112 Y79.778 E3.28695
G1 X171.013 Y79.904 E3.30025
G1 X171.590 Y80.027 E3.30889
G1 X172.084 Y80.159 E3.31636
G1 X173.012 Y80.479 E3.33071
G1 X173.461 Y80.671 E3.33784
G1 X174.001 Y80.934 E3.34664
G1 X174.427 Y81.170 E3.35375
G1 X174.950 Y81.495 E3.36276
G1 X175.685 Y82.031 E3.37606
G1 X176.113 Y82.391 E3.38423
G1 X176.476 Y82.728 E3.39147
G1 X176.898 Y83.164 E3.40034
G1 X177.214 Y83.525 E3.40737
G1 X177.843 Y84.358 E3.42262
G1 X178.107 Y84.768 E3.42975
G1 X178.387 Y85.252 E3.43793
G1 X178.787 Y86.069 E3.45123
G1 X179.019 Y86.647 E3.46033
G1 X179.175 Y87.102 E3.46736
G1 X179.341 Y87.681 E3.47616
G1 X179.453 Y88.165 E3.48344
G1 X179.557 Y88.758 E3.49223
G1 X179.617 Y89.235 E3.49927
G1 X179.661 Y89.856 E3.50837
G1 X179.671 Y90.321 E3.51516
G1 X179.621 Y91.324 E3.52984
G1 X179.512 Y92.124 E3.54165
G1 X179.335 Y92.941 E3.55388
G1 X179.048 Y93.873 E3.56813
G1 X178.724 Y94.671 E3.58073
G1 X178.305 Y95.497 E3.59427
G1 X177.890 Y96.171 E3.60584
G1 X177.388 Y96.860 E3.61830
G1 X176.752 Y97.592 E3.63248
G1 X137.015 Y137.331 E4.45414
G1 X136.552 Y137.749 E4.46326
G1 X136.193 Y138.042 E4.47003
G1 X135.678 Y138.419 E4.47937
G1 X135.266 Y138.687 E4.48656
G1 X134.738 Y138.993 E4.49547
G1 X134.313 Y139.211 E4.50245
G1 X133.744 Y139.467 E4.51158
G1 X133.237 Y139.662 E4.51952
G1 X132.316 Y139.942 E4.53360
G1 X131.462 Y140.123 E4.54636
G1 X130.487 Y140.242 E4.56072
G1 X129.700 Y140.271 E4.57224
G1 X50.835 Y140.271 E5.72529
G1 X50.113 Y140.242 E5.73586
G1 X49.328 Y140.153 E5.74741
G1 X48.419 Y139.976 E5.76095
G1 X47.711 Y139.779 E5.77169
G1 X46.949 Y139.505 E5.78353
G1 X46.287 Y139.211 E5.79412
G1 X45.608 Y138.851 E5.80535
G1 X44.994 Y138.467 E5.81594
G1 X44.623 Y138.205 E5.82258
G1 X44.125 Y137.815 E5.83184
G1 X43.370 Y137.118 E5.84686
G1 X42.760 Y136.443 E5.86017
G1 X42.389 Y135.969 E5.86896
G1 X42.110 Y135.571 E5.87607
G1 X41.783 Y135.049 E5.88508
G1 X41.554 Y134.638 E5.89196
G1 X41.276 Y134.071 E5.90119
G1 X41.096 Y133.652 E5.90785
G1 X40.936 Y133.227 E5.91449
G1 X40.742 Y132.625 E5.92374
G1 X40.506 Y131.624 E5.93878
G1 X40.379 Y130.723 E5.95208
G1 X40.338 Y130.127 E5.96082
G1 X40.330 Y129.623 E5.96819
G1 X40.383 Y128.635 E5.98265
G1 X40.443 Y128.158 E5.98969
G1 X40.547 Y127.565 E5.99848
G1 X40.659 Y127.081 E6.00575
G1 X40.825 Y126.502 E6.01455
G1 X41.138 Y125.646 E6.02788
G1 X41.573 Y124.725 E6.04277
G1 X41.893 Y124.168 E6.05216
G1 X42.157 Y123.758 E6.05929
G1 X42.746 Y122.974 E6.07363
G1 X43.355 Y122.297 E6.08694
G1 X82.847 Y82.804 E6.90353
G1 X83.028 Y82.900 F7800.000
G1 F1200.000
G1 X83.688 Y82.304 E6.91653
G1 X84.470 Y81.717 E6.93083
G1 X84.860 Y81.465 E6.93760
G1 X85.377 Y81.167 E6.94634
G1 X86.135 Y80.797 E6.95867
G1 X86.688 Y80.573 E6.96739
G1 X87.128 Y80.421 E6.97420
G1 X88.071 Y80.167 E6.98847
G1 X88.947 Y80.013 E7.00148
G1 X89.923 Y79.931 E7.01580
G1 X169.121 Y79.924 E8.17373
G1 X169.904 Y79.955 E8.18519
G1 X170.891 Y80.080 E8.19973
G1 X171.329 Y80.167 E8.20626
G1 X171.931 Y80.318 E8.21534
G1 X172.371 Y80.454 E8.22207
G1 X172.941 Y80.662 E8.23094
G1 X173.378 Y80.848 E8.23789
G1 X173.913 Y81.108 E8.24658
G1 X174.683 Y81.555 E8.25959
G1 X175.140 Y81.864 E8.26767
G1 X175.538 Y82.164 E8.27495
G1 X176.308 Y82.837 E8.28991
G1 X176.994 Y83.567 E8.30455
G1 X177.541 Y84.268 E8.31755
G1 X177.876 Y84.765 E8.32632
G1 X178.123 Y85.179 E8.33337
G1 X178.568 Y86.057 E8.34776
G1 X178.746 Y86.479 E8.35444
G1 X178.954 Y87.052 E8.36336
G1 X179.091 Y87.504 E8.37027
G1 X179.235 Y88.081 E8.37896
G1 X179.327 Y88.556 E8.38604
G1 X179.411 Y89.147 E8.39477
G1 X179.452 Y89.608 E8.40153
G1 X179.475 Y90.226 E8.41058
G1 X179.443 Y91.115 E8.42359
G1 X179.331 Y92.021 E8.43693
G1 X179.163 Y92.828 E8.44898
G1 X178.880 Y93.764 E8.46327
G1 X178.584 Y94.508 E8.47498
G1 X178.227 Y95.234 E8.48681
G1 X177.727 Y96.064 E8.50098
G1 X177.237 Y96.737 E8.51315
G1 X176.610 Y97.459 E8.52713
G1 X136.881 Y137.189 E9.34861
G1 X136.424 Y137.602 E9.35761
G1 X136.074 Y137.887 E9.36421
G1 X135.566 Y138.259 E9.37342
G1 X135.163 Y138.521 E9.38045
G1 X134.643 Y138.822 E9.38923
G1 X134.228 Y139.036 E9.39606
G1 X133.668 Y139.287 E9.40504
G1 X133.174 Y139.477 E9.41277
G1 X132.267 Y139.753 E9.42663
G1 X131.431 Y139.930 E9.43912
G1 X130.514 Y140.044 E9.45263
G1 X129.700 Y140.076 E9.46455
G1 X50.839 Y140.076 E10.61755
G1 X50.130 Y140.047 E10.62793
G1 X49.358 Y139.960 E10.63927
G1 X48.463 Y139.785 E10.65261
G1 X47.769 Y139.592 E10.66315
G1 X47.023 Y139.324 E10.67474
G1 X46.333 Y139.017 E10.68577
G1 X45.706 Y138.682 E10.69618
G1 X45.035 Y138.259 E10.70777
G1 X44.250 Y137.664 E10.72217
G1 X43.906 Y137.363 E10.72885
G1 X43.467 Y136.939 E10.73778
G1 X43.146 Y136.593 E10.74467
G1 X42.763 Y136.137 E10.75338
G1 X42.242 Y135.417 E10.76638
G1 X41.727 Y134.548 E10.78115
G1 X41.453 Y133.989 E10.79025
G1 X41.278 Y133.580 E10.79675
G1 X41.120 Y133.164 E10.80326
G1 X40.930 Y132.572 E10.81235
G1 X40.698 Y131.587 E10.82714
G1 X40.574 Y130.706 E10.84014
G1 X40.533 Y130.119 E10.84876
G1 X40.525 Y129.626 E10.85596
G1 X40.578 Y128.653 E10.87020
G1 X40.636 Y128.188 E10.87706
G1 X40.739 Y127.603 E10.88575
G1 X40.848 Y127.131 E10.89283
G1 X41.012 Y126.559 E10.90153
G1 X41.318 Y125.722 E10.91455
G1 X41.745 Y124.818 E10.92917
G1 X42.060 Y124.269 E10.93843
G1 X42.319 Y123.868 E10.94541
G1 X42.898 Y123.097 E10.95951
G1 X43.493 Y122.435 E10.97251
G1 X82.985 Y82.942 E11.78910
G1 X83.166 Y83.038 F7800.000
G1 F1200.000
G1 X83.811 Y82.456 E11.80180
G1 X84.581 Y81.878 E11.81589
G1 X84.960 Y81.633 E11.82248
G1 X85.472 Y81.338 E11.83112
G1 X86.211 Y80.977 E11.84315
G1 X86.758 Y80.756 E11.85177
G1 X87.186 Y80.607 E11.85839
G1 X88.115 Y80.357 E11.87245
G1 X88.970 Y80.207 E11.88516
G1 X89.973 Y80.125 E11.89986
G1 X169.121 Y80.119 E13.05706
G1 X169.887 Y80.150 E13.06827
G1 X170.858 Y80.273 E13.08259
G1 X171.285 Y80.357 E13.08895
G1 X171.879 Y80.506 E13.09790
G1 X172.308 Y80.638 E13.10446
G1 X172.871 Y80.844 E13.11322
G1 X173.296 Y81.025 E13.11997
G1 X173.824 Y81.282 E13.12857
G1 X174.227 Y81.505 E13.13531
G1 X174.737 Y81.823 E13.14409
G1 X175.416 Y82.317 E13.15637
G1 X176.172 Y82.977 E13.17104
G1 X176.846 Y83.695 E13.18544
G1 X177.381 Y84.380 E13.19814
G1 X177.710 Y84.870 E13.20677
G1 X177.952 Y85.274 E13.21366
G1 X178.390 Y86.138 E13.22783
G1 X178.563 Y86.549 E13.23434
G1 X178.769 Y87.115 E13.24314
G1 X178.902 Y87.554 E13.24986
G1 X179.045 Y88.125 E13.25846
G1 X179.134 Y88.586 E13.26533
G1 X179.217 Y89.171 E13.27397
G1 X179.257 Y89.620 E13.28055
G1 X179.279 Y90.230 E13.28948
G1 X179.248 Y91.098 E13.30218
G1 X179.138 Y91.990 E13.31533
G1 X178.973 Y92.781 E13.32713
G1 X178.695 Y93.700 E13.34117
G1 X178.405 Y94.429 E13.35265
G1 X178.056 Y95.139 E13.36422
G1 X177.563 Y95.957 E13.37817
G1 X177.085 Y96.614 E13.39006
G1 X176.467 Y97.326 E13.40384
G1 X136.747 Y137.047 E14.22513
G1 X136.296 Y137.454 E14.23401
G1 X135.955 Y137.732 E14.24044
G1 X135.454 Y138.098 E14.24952
G1 X135.060 Y138.355 E14.25640
G1 X134.549 Y138.651 E14.26503
G1 X134.142 Y138.860 E14.27171
G1 X133.591 Y139.107 E14.28054
G1 X133.110 Y139.292 E14.28808
G1 X132.218 Y139.564 E14.30171
G1 X131.401 Y139.737 E14.31393
G1 X130.498 Y139.849 E14.32723
G1 X129.700 Y139.881 E14.33891
G1 X50.842 Y139.880 E15.49186
G1 X50.146 Y139.852 E15.50205
G1 X49.389 Y139.767 E15.51319
G1 X48.507 Y139.595 E15.52633
G1 X47.826 Y139.405 E15.53667
G1 X47.097 Y139.143 E15.54799
G1 X46.419 Y138.841 E15.55884
G1 X45.803 Y138.512 E15.56905
G1 X45.147 Y138.098 E15.58039
G1 X44.374 Y137.513 E15.59457
G1 X44.039 Y137.220 E15.60107
G1 X43.606 Y136.801 E15.60989
G1 X43.293 Y136.465 E15.61659
G1 X42.915 Y136.014 E15.62520
G1 X42.406 Y135.310 E15.63790
G1 X41.900 Y134.458 E15.65239
G1 X41.630 Y133.906 E15.66137
G1 X41.459 Y133.508 E15.66770
G1 X41.305 Y133.100 E15.67408
G1 X41.118 Y132.518 E15.68302
G1 X40.890 Y131.550 E15.69757
G1 X40.769 Y130.689 E15.71027
G1 X40.729 Y130.110 E15.71876
G1 X40.721 Y129.630 E15.72578
G1 X40.772 Y128.671 E15.73981
G1 X40.829 Y128.219 E15.74648
G1 X40.931 Y127.640 E15.75508
G1 X41.037 Y127.182 E15.76195
G1 X41.199 Y126.616 E15.77056
G1 X41.346 Y126.185 E15.77722
G1 X41.573 Y125.622 E15.78609
G1 X41.777 Y125.183 E15.79317
G1 X42.048 Y124.674 E15.80160
G1 X42.509 Y123.937 E15.81431
G1 X43.049 Y123.220 E15.82744
G1 X43.631 Y122.573 E15.84015
G1 X83.124 Y83.080 E16.65674
G1 X83.304 Y83.176 F7800.000
G1 F1200.000
G1 X83.934 Y82.608 E16.66914
G1 X84.692 Y82.038 E16.68301
G1 X85.061 Y81.800 E16.68942
G1 X85.566 Y81.508 E16.69795
G1 X86.288 Y81.157 E16.70969
G1 X86.828 Y80.938 E16.71821
G1 X87.244 Y80.794 E16.72465
G1 X88.158 Y80.547 E16.73850
G1 X88.994 Y80.401 E16.75090
G1 X89.979 Y80.320 E16.76535
G1 X169.121 Y80.315 E17.92246
G1 X169.870 Y80.345 E17.93341
G1 X170.826 Y80.465 E17.94750
G1 X171.241 Y80.547 E17.95369
G1 X171.827 Y80.695 E17.96253
G1 X172.244 Y80.823 E17.96890
G1 X172.800 Y81.026 E17.97756
G1 X173.213 Y81.202 E17.98412
G1 X173.735 Y81.457 E17.99262
G1 X174.127 Y81.673 E17.99917
G1 X174.631 Y81.987 E18.00784
G1 X175.295 Y82.470 E18.01984
G1 X176.035 Y83.117 E18.03422
G1 X176.699 Y83.823 E18.04839
G1 X177.221 Y84.492 E18.06080
G1 X177.545 Y84.974 E18.06929
G1 X177.781 Y85.369 E18.07601
G1 X178.213 Y86.219 E18.08996
G1 X178.381 Y86.619 E18.09629
G1 X178.584 Y87.178 E18.10499
G1 X178.714 Y87.605 E18.11152
G1 X178.854 Y88.169 E18.12001
G1 X178.941 Y88.617 E18.12669
G1 X179.023 Y89.195 E18.13522
G1 X179.065 Y89.674 E18.14226
G1 X179.084 Y90.233 E18.15043
G1 X179.054 Y91.081 E18.16284
G1 X178.945 Y91.960 E18.17579
G1 X178.783 Y92.734 E18.18734
G1 X178.510 Y93.636 E18.20113
G1 X178.226 Y94.351 E18.21238
G1 X177.885 Y95.045 E18.22368
G1 X177.400 Y95.850 E18.23742
G1 X176.933 Y96.491 E18.24902
G1 X176.324 Y97.193 E18.26260
G1 X136.613 Y136.905 E19.08371
G1 X136.168 Y137.307 E19.09248
G1 X135.836 Y137.577 E19.09874
G1 X135.341 Y137.938 E19.10769
G1 X134.957 Y138.189 E19.11440
G1 X134.454 Y138.481 E19.12290
G1 X134.057 Y138.685 E19.12943
G1 X133.515 Y138.927 E19.13811
G1 X133.046 Y139.108 E19.14545
G1 X132.200 Y139.367 E19.15839
G1 X131.458 Y139.529 E19.16950
G1 X130.683 Y139.637 E19.18094
G1 X129.700 Y139.685 E19.19533
G1 X50.845 Y139.685 E20.34824
G1 X50.162 Y139.658 E20.35823
G1 X49.420 Y139.574 E20.36916
G1 X48.551 Y139.405 E20.38210
G1 X47.883 Y139.218 E20.39224
G1 X47.170 Y138.962 E20.40331
G1 X46.505 Y138.665 E20.41397
G1 X45.900 Y138.343 E20.42398
G1 X45.259 Y137.938 E20.43507
G1 X44.498 Y137.362 E20.44903
G1 X44.172 Y137.077 E20.45535
G1 X43.744 Y136.663 E20.46405
G1 X43.441 Y136.337 E20.47057
G1 X43.067 Y135.891 E20.47908
G1 X42.570 Y135.204 E20.49148
G1 X42.074 Y134.368 E20.50570
G1 X41.807 Y133.824 E20.51456
G1 X41.641 Y133.436 E20.52072
G1 X41.490 Y133.036 E20.52697
G1 X41.306 Y132.465 E20.53575
G1 X41.082 Y131.512 E20.55005
G1 X40.963 Y130.672 E20.56245
G1 X40.924 Y130.102 E20.57081
G1 X40.916 Y129.633 E20.57767
G1 X40.967 Y128.689 E20.59149
G1 X41.022 Y128.250 E20.59797
G1 X41.123 Y127.677 E20.60647
G1 X41.226 Y127.232 E20.61314
G1 X41.386 Y126.673 E20.62165
G1 X41.529 Y126.254 E20.62812
G1 X41.753 Y125.698 E20.63688
G1 X41.952 Y125.270 E20.64378
G1 X42.219 Y124.769 E20.65209
G1 X42.669 Y124.049 E20.66450
G1 X43.201 Y123.342 E20.67744
G1 X43.769 Y122.712 E20.68985
G1 X83.262 Y83.218 E21.50643
G1 E19.50643 F2400.00000
G92 E0
G1 X170.608 Y91.709 F7800.000
G1 E2.00000 F2400.00000
G1 F1200.000
G1 X170.289 Y91.986 E2.00617
G1 X169.922 Y92.193 E2.01234
G1 X169.524 Y92.319 E2.01844
G1 X169.235 Y92.359 E2.02271
G1 X168.818 Y92.345 E2.02880
G1 X168.413 Y92.246 E2.03490
G1 X168.145 Y92.130 E2.03917
G1 X167.797 Y91.901 E2.04527
G1 X167.498 Y91.603 E2.05144
G1 X167.267 Y91.250 E2.05761
G1 X167.112 Y90.857 E2.06378
G1 X167.040 Y90.441 E2.06995
G1 X167.054 Y90.019 E2.07613
G1 X167.154 Y89.609 E2.08230
G1 X167.336 Y89.228 E2.08847
G1 X167.591 Y88.891 E2.09464
G1 X167.909 Y88.614 E2.10081
G1 X168.277 Y88.407 E2.10699
G1 X168.674 Y88.281 E2.11308
G1 X168.964 Y88.241 E2.11735
G1 X169.380 Y88.255 E2.12345
G1 X169.790 Y88.355 E2.12962
G1 X170.167 Y88.534 E2.13571
G1 X170.406 Y88.703 E2.13999
G1 X170.700 Y88.997 E2.14608
G1 X170.932 Y89.350 E2.15225
G1 X171.087 Y89.743 E2.15842
G1 X171.158 Y90.159 E2.16460
G1 X171.144 Y90.581 E2.17077
G1 X171.044 Y90.991 E2.17694
G1 X170.863 Y91.372 E2.18311
G1 X170.644 Y91.661 E2.18841
G1 X170.464 Y91.575 F7800.000
G1 F1200.000
G1 X170.176 Y91.826 E2.19399
G1 X169.843 Y92.013 E2.19958
G1 X169.481 Y92.128 E2.20513
G1 X169.225 Y92.163 E2.20892
G1 X168.845 Y92.150 E2.21447
G1 X168.476 Y92.060 E2.22003
G1 X168.238 Y91.957 E2.22381
G1 X167.921 Y91.749 E2.22937
G1 X167.650 Y91.479 E2.23495
G1 X167.441 Y91.159 E2.24054
G1 X167.301 Y90.804 E2.24612
G1 X167.236 Y90.427 E2.25171
G1 X167.249 Y90.046 E2.25729
G1 X167.339 Y89.675 E2.26288
G1 X167.503 Y89.330 E2.26846
G1 X167.734 Y89.025 E2.27405
G1 X168.022 Y88.774 E2.27963
G1 X168.355 Y88.587 E2.28522
G1 X168.717 Y88.472 E2.29077
G1 X168.974 Y88.437 E2.29456
G1 X169.354 Y88.450 E2.30011
G1 X169.725 Y88.540 E2.30570
G1 X170.068 Y88.703 E2.31125
G1 X170.279 Y88.853 E2.31504
G1 X170.548 Y89.121 E2.32059
G1 X170.757 Y89.441 E2.32618
G1 X170.898 Y89.796 E2.33176
G1 X170.962 Y90.173 E2.33735
G1 X170.949 Y90.554 E2.34293
G1 X170.859 Y90.925 E2.34852
G1 X170.695 Y91.270 E2.35410
G1 X170.500 Y91.527 E2.35881
G1 X170.464 Y91.575 F7800.000
G1 E0.35881 F2400.00000
G92 E0
G1 X173.766 Y94.785 F7800.000
G1 E2.00000 F2400.00000
G1 F1200.000
G1 X173.574 Y94.983 E2.00403
G1 X173.096 Y95.397 E2.01328
G1 X172.545 Y95.785 E2.02313
G1 X171.957 Y96.112 E2.03297
G1 X171.336 Y96.379 E2.04285
G1 X170.874 Y96.529 E2.04995
G1 X170.216 Y96.680 E2.05983
G1 X169.548 Y96.762 E2.06967
G1 X168.875 Y96.773 E2.07951
G1 X168.204 Y96.715 E2.08935
G1 X167.543 Y96.587 E2.09919
G1 X166.897 Y96.391 E2.10907
G1 X166.447 Y96.209 E2.11617
G1 X165.846 Y95.901 E2.12605
G1 X165.282 Y95.533 E2.13589
G1 X164.759 Y95.108 E2.14573
G1 X164.311 Y94.661 E2.15499
G1 X163.997 Y94.290 E2.16209
G1 X163.587 Y93.701 E2.17260
G1 X163.282 Y93.149 E2.18181
G1 X163.018 Y92.529 E2.19166
G1 X162.819 Y91.884 E2.20153
G1 X162.718 Y91.409 E2.20864
G1 X162.637 Y90.738 E2.21851
G1 X162.626 Y90.065 E2.22836
G1 X162.680 Y89.434 E2.23761
G1 X162.763 Y88.955 E2.24473
G1 X162.938 Y88.302 E2.25460
G1 X163.178 Y87.674 E2.26444
G1 X163.483 Y87.073 E2.27428
G1 X163.849 Y86.506 E2.28416
G1 X164.149 Y86.123 E2.29126
G1 X164.610 Y85.630 E2.30114
G1 X165.120 Y85.190 E2.31098
G1 X165.635 Y84.827 E2.32020
G1 X166.262 Y84.477 E2.33070
G1 X166.707 Y84.281 E2.33780
G1 X167.306 Y84.076 E2.34706
G1 X167.962 Y83.923 E2.35691
G1 X168.630 Y83.840 E2.36675
G1 X169.305 Y83.826 E2.37662
G1 X169.790 Y83.860 E2.38373
G1 X170.457 Y83.967 E2.39360
G1 X171.107 Y84.142 E2.40344
G1 X171.735 Y84.383 E2.41329
G1 X172.335 Y84.689 E2.42313
G1 X172.900 Y85.055 E2.43297
G1 X173.425 Y85.479 E2.44284
G1 X173.774 Y85.817 E2.44995
G1 X174.216 Y86.328 E2.45982
G1 X174.600 Y86.881 E2.46966
G1 X174.926 Y87.471 E2.47951
G1 X175.174 Y88.053 E2.48877
