; generated by Slic3r 1.3.1-dev (Build 4f5b935ecf1335755d607ec38395bd94106daa7f) on 2019-12-18 at 16:45:08

; external perimeters extrusion width = 0.44mm (2.22mm^3/s)
; perimeters extrusion width = 0.56mm (4.14mm^3/s)
; infill extrusion width = 0.50mm (4.11mm^3/s)
; solid infill extrusion width = 0.26mm (1.52mm^3/s)
; top infill extrusion width = 0.26mm (1.09mm^3/s)

M107
G92 E0
M190 S60 ; set bed temperature and wait for it to be reached
M104 S200 ; set temperature
G90                    ;absolute positioning
G28 ; home all axes
G1 Z5 F5000 ; lift nozzle

; Filament gcode

M109 S200 ; set temperature and wait for it to be reached
G21 ; set units to millimeters
G90 ; use absolute coordinates
M82 ; use absolute distances for extrusion
G92 E0
;LAYER 0 at 0.18mm
M117 printing layer 0 at 0.18mm
G1 Z0.180 F7800.000
G1 E-2.00000 F2400.00000
G92 E0
G1 X94.381 Y46.880 F7800.000
G1 E2.00000 F2400.00000
M201 X2000 Y2000
M204 P2000 T2000
G1 F1200.000
G1 X95.640 Y44.390 E2.04080
G1 X96.510 Y42.748 E2.06796
G1 X97.620 Y40.747 E2.10141
G1 X98.769 Y39.519 E2.12600
G1 X100.740 Y38.929 E2.15609
G1 X127.475 Y38.932 E2.54697
G1 X129.110 Y39.326 E2.57156
G1 X130.595 Y40.751 E2.60165
G1 X131.704 Y42.752 E2.63510
G1 X132.595 Y44.435 E2.66293
G1 X133.668 Y46.555 E2.69768
G1 X134.886 Y49.057 E2.73836
G1 X134.976 Y49.250 E2.74148
G1 X135.310 Y50.760 E2.76410
G1 X135.317 Y152.990 E4.25876
G1 X134.982 Y154.501 E4.28139
G1 X134.045 Y156.450 E4.31302
G1 X132.573 Y159.372 E4.36085
G1 X131.712 Y160.999 E4.38776
G1 X130.601 Y163.004 E4.42127
G1 X129.382 Y164.278 E4.44706
G1 X105.921 Y178.962 E4.85172
G1 X105.168 Y179.399 E4.86444
G1 X104.034 Y179.949 E4.88287
G1 X103.344 Y180.224 E4.89374
G1 X102.392 Y180.536 E4.90838
G1 X101.166 Y180.829 E4.92681
G1 X100.176 Y180.982 E4.94146
G1 X99.177 Y181.063 E4.95611
G1 X98.434 Y181.076 E4.96697
G1 X97.433 Y181.031 E4.98162
G1 X96.183 Y180.873 E5.00005
G1 X95.203 Y180.666 E5.01469
G1 X94.240 Y180.389 E5.02934
G1 X93.540 Y180.139 E5.04020
G1 X92.387 Y179.630 E5.05864
G1 X91.730 Y179.282 E5.06950
G1 X90.876 Y178.758 E5.08415
G1 X89.859 Y178.014 E5.10258
G1 X89.100 Y177.357 E5.11725
G1 X88.394 Y176.649 E5.13187
G1 X87.902 Y176.092 E5.14274
G1 X87.140 Y175.088 E5.16117
G1 X86.600 Y174.244 E5.17581
G1 X86.241 Y173.594 E5.18668
G1 X85.811 Y172.689 E5.20132
G1 X85.449 Y171.755 E5.21597
G1 X85.090 Y170.546 E5.23440
G1 X84.930 Y169.821 E5.24526
G1 X84.777 Y168.831 E5.25991
G1 X84.686 Y167.573 E5.27834
G1 X84.695 Y166.578 E5.29290
G1 X92.911 Y50.507 E6.99417
G1 X93.257 Y49.207 E7.01385
G1 X94.355 Y46.934 E7.05075
G1 X94.556 Y46.968 F7800.000
G1 F1200.000
G1 X95.813 Y44.482 E7.09148
G1 X96.681 Y42.843 E7.11860
G1 X97.790 Y40.844 E7.15202
G1 X98.915 Y39.658 E7.17592
G1 X100.740 Y39.125 E7.20372
G1 X127.475 Y39.127 E7.59460
G1 X129.061 Y39.521 E7.61850
G1 X130.425 Y40.847 E7.64631
G1 X131.533 Y42.846 E7.67973
G1 X132.421 Y44.524 E7.70748
G1 X133.493 Y46.641 E7.74218
G1 X134.709 Y49.139 E7.78280
G1 X134.799 Y49.332 E7.78591
G1 X135.115 Y50.760 E7.80730
G1 X135.121 Y152.990 E9.30196
G1 X134.805 Y154.418 E9.32335
G1 X133.870 Y156.363 E9.35491
G1 X132.399 Y159.283 E9.40271
G1 X131.541 Y160.904 E9.42953
G1 X130.431 Y162.907 E9.46301
G1 X129.278 Y164.112 E9.48739
G1 X105.817 Y178.796 E9.89205
G1 X105.070 Y179.230 E9.90468
G1 X104.186 Y179.669 E9.91912
G1 X103.271 Y180.042 E9.93356
G1 X102.097 Y180.415 E9.95158
G1 X101.374 Y180.588 E9.96244
G1 X100.401 Y180.756 E9.97688
G1 X99.174 Y180.867 E9.99490
G1 X98.431 Y180.881 E10.00576
G1 X97.444 Y180.836 E10.02020
G1 X96.221 Y180.681 E10.03822
G1 X95.255 Y180.477 E10.05266
G1 X94.539 Y180.279 E10.06353
G1 X93.606 Y179.955 E10.07797
G1 X92.478 Y179.458 E10.09598
G1 X91.822 Y179.110 E10.10685
G1 X90.980 Y178.593 E10.12129
G1 X89.986 Y177.865 E10.13931
G1 X89.237 Y177.217 E10.15378
G1 X88.540 Y176.520 E10.16819
G1 X88.049 Y175.963 E10.17905
G1 X87.303 Y174.982 E10.19707
G1 X86.771 Y174.149 E10.21151
G1 X86.301 Y173.281 E10.22595
G1 X85.989 Y172.607 E10.23682
G1 X85.632 Y171.686 E10.25126
G1 X85.281 Y170.504 E10.26928
G1 X85.121 Y169.779 E10.28014
G1 X84.970 Y168.803 E10.29458
G1 X84.881 Y167.573 E10.31260
G1 X84.890 Y166.591 E10.32696
G1 X93.106 Y50.521 E12.02823
G1 X93.433 Y49.291 E12.04684
G1 X94.530 Y47.021 E12.08370
G1 X94.731 Y47.055 F7800.000
G1 F1200.000
G1 X95.986 Y44.573 E12.12436
G1 X96.852 Y42.937 E12.15142
G1 X97.960 Y40.940 E12.18481
G1 X99.060 Y39.797 E12.20800
G1 X100.740 Y39.320 E12.23354
G1 X127.475 Y39.322 E12.62442
G1 X129.011 Y39.716 E12.64761
G1 X130.255 Y40.943 E12.67316
G1 X131.362 Y42.940 E12.70654
G1 X132.247 Y44.613 E12.73420
G1 X133.315 Y46.722 E12.76878
G1 X134.511 Y49.178 E12.80871
G1 X134.621 Y49.414 E12.81253
G1 X134.919 Y50.761 E12.83268
G1 X134.926 Y152.990 E14.32734
G1 X134.628 Y154.336 E14.34750
G1 X133.695 Y156.277 E14.37899
G1 X132.225 Y159.194 E14.42675
G1 X131.370 Y160.810 E14.45348
G1 X130.261 Y162.811 E14.48694
G1 X129.174 Y163.947 E14.50991
G1 X105.713 Y178.631 E14.91457
G1 X104.973 Y179.061 E14.92709
G1 X104.100 Y179.493 E14.94133
G1 X103.199 Y179.861 E14.95556
G1 X102.051 Y180.225 E14.97317
G1 X101.329 Y180.398 E14.98403
G1 X100.369 Y180.563 E14.99827
G1 X99.170 Y180.672 E15.01587
G1 X98.427 Y180.686 E15.02673
G1 X97.455 Y180.641 E15.04097
G1 X96.488 Y180.527 E15.05520
G1 X95.307 Y180.289 E15.07281
G1 X94.591 Y180.090 E15.08367
G1 X93.672 Y179.771 E15.09791
G1 X92.570 Y179.285 E15.11551
G1 X91.913 Y178.937 E15.12638
G1 X91.084 Y178.427 E15.14061
G1 X90.112 Y177.716 E15.15822
G1 X89.374 Y177.078 E15.17248
G1 X88.687 Y176.391 E15.18669
G1 X88.196 Y175.834 E15.19755
G1 X87.467 Y174.875 E15.21516
G1 X86.942 Y174.055 E15.22939
G1 X86.582 Y173.405 E15.24026
G1 X86.166 Y172.525 E15.25449
G1 X85.814 Y171.617 E15.26873
G1 X85.471 Y170.462 E15.28633
G1 X85.312 Y169.737 E15.29719
G1 X85.163 Y168.774 E15.31143
G1 X85.077 Y167.573 E15.32903
G1 X85.085 Y166.605 E15.34319
G1 X93.301 Y50.535 E17.04446
G1 X93.609 Y49.376 E17.06200
G1 X94.704 Y47.109 E17.09882
G1 E15.09882 F2400.00000
G92 E0
G1 X104.015 Y162.029 F7800.000
G1 E2.00000 F2400.00000
G1 F1200.000
G1 X104.454 Y162.536 E2.00981
G1 X104.848 Y163.083 E2.01966
G1 X105.274 Y163.831 E2.03224
G1 X105.479 Y164.263 E2.03924
G1 X105.713 Y164.891 E2.04904
G1 X105.891 Y165.538 E2.05886
G1 X106.010 Y166.199 E2.06867
G1 X106.070 Y166.867 E2.07848
G1 X106.070 Y167.538 E2.08829
G1 X106.010 Y168.206 E2.09810
G1 X105.891 Y168.867 E2.10791
G1 X105.713 Y169.513 E2.11771
G1 X105.547 Y169.962 E2.12470
G1 X105.190 Y170.745 E2.13729
G1 X104.846 Y171.325 E2.14714
G1 X104.454 Y171.869 E2.15695
G1 X104.014 Y172.376 E2.16676
G1 X103.531 Y172.842 E2.17657
G1 X103.009 Y173.263 E2.18638
G1 X102.451 Y173.636 E2.19619
G1 X101.862 Y173.957 E2.20600
G1 X101.247 Y174.225 E2.21581
G1 X100.610 Y174.437 E2.22562
G1 X99.957 Y174.591 E2.23543
G1 X99.295 Y174.686 E2.24521
G1 X98.820 Y174.717 E2.25217
G1 X98.152 Y174.711 E2.26195
G1 X97.484 Y174.646 E2.27176
G1 X96.823 Y174.520 E2.28160
G1 X95.996 Y174.272 E2.29422
G1 X95.552 Y174.097 E2.30120
G1 X94.950 Y173.803 E2.31099
G1 X94.376 Y173.455 E2.32080
G1 X93.836 Y173.058 E2.33061
G1 X93.333 Y172.614 E2.34042
G1 X92.871 Y172.127 E2.35023
G1 X92.455 Y171.601 E2.36004
G1 X92.087 Y171.040 E2.36985
G1 X91.770 Y170.448 E2.37966
G1 X91.508 Y169.831 E2.38947
G1 X91.302 Y169.192 E2.39928
G1 X91.153 Y168.538 E2.40909
G1 X91.064 Y167.873 E2.41890
G1 X91.034 Y167.202 E2.42871
G1 X91.064 Y166.532 E2.43852
G1 X91.153 Y165.867 E2.44833
G1 X91.302 Y165.213 E2.45814
G1 X91.508 Y164.574 E2.46795
G1 X91.770 Y163.957 E2.47776
G1 X92.087 Y163.365 E2.48757
G1 X92.454 Y162.804 E2.49738
G1 X92.871 Y162.277 E2.50719
G1 X93.332 Y161.791 E2.51700
G1 X93.835 Y161.347 E2.52681
G1 X94.376 Y160.949 E2.53662
G1 X94.949 Y160.603 E2.54641
G1 X95.377 Y160.388 E2.55340
G1 X96.177 Y160.068 E2.56601
G1 X96.825 Y159.884 E2.57585
G1 X97.484 Y159.759 E2.58566
G1 X98.149 Y159.693 E2.59544
G1 X98.626 Y159.683 E2.60241
G1 X99.294 Y159.718 E2.61219
G1 X99.958 Y159.814 E2.62200
G1 X100.611 Y159.968 E2.63181
G1 X101.248 Y160.180 E2.64162
G1 X101.863 Y160.448 E2.65143
G1 X102.452 Y160.769 E2.66124
G1 X103.010 Y161.142 E2.67105
G1 X103.532 Y161.563 E2.68086
G1 X103.972 Y161.987 E2.68979
G1 X103.873 Y162.163 F7800.000
G1 F1200.000
G1 X104.301 Y162.657 E2.69935
G1 X104.684 Y163.188 E2.70892
G1 X105.101 Y163.921 E2.72124
G1 X105.299 Y164.339 E2.72801
G1 X105.527 Y164.951 E2.73756
G1 X105.700 Y165.582 E2.74712
G1 X105.816 Y166.225 E2.75667
G1 X105.874 Y166.876 E2.76623
G1 X105.874 Y167.529 E2.77578
G1 X105.816 Y168.180 E2.78534
G1 X105.700 Y168.823 E2.79489
G1 X105.527 Y169.454 E2.80445
G1 X105.367 Y169.887 E2.81121
G1 X105.017 Y170.655 E2.82354
G1 X104.683 Y171.218 E2.83311
G1 X104.300 Y171.748 E2.84266
G1 X103.872 Y172.242 E2.85222
G1 X103.402 Y172.695 E2.86177
G1 X102.893 Y173.105 E2.87133
G1 X102.350 Y173.468 E2.88088
G1 X101.776 Y173.781 E2.89044
G1 X101.177 Y174.042 E2.89999
G1 X100.557 Y174.248 E2.90955
G1 X99.921 Y174.399 E2.91910
G1 X99.275 Y174.491 E2.92864
G1 X98.815 Y174.522 E2.93539
G1 X98.162 Y174.516 E2.94493
G1 X97.512 Y174.452 E2.95448
G1 X96.869 Y174.330 E2.96405
G1 X96.060 Y174.088 E2.97639
G1 X95.630 Y173.918 E2.98315
G1 X95.044 Y173.631 E2.99269
G1 X94.485 Y173.293 E3.00225
G1 X93.958 Y172.906 E3.01180
G1 X93.468 Y172.473 E3.02136
G1 X93.019 Y171.999 E3.03091
G1 X92.613 Y171.487 E3.04047
G1 X92.255 Y170.940 E3.05002
G1 X91.947 Y170.364 E3.05958
G1 X91.691 Y169.762 E3.06913
G1 X91.491 Y169.140 E3.07869
G1 X91.346 Y168.503 E3.08824
G1 X91.259 Y167.855 E3.09780
G1 X91.230 Y167.202 E3.10735
G1 X91.259 Y166.549 E3.11691
G1 X91.346 Y165.902 E3.12646
G1 X91.490 Y165.264 E3.13602
G1 X91.691 Y164.643 E3.14557
G1 X91.947 Y164.041 E3.15513
G1 X92.255 Y163.465 E3.16468
G1 X92.613 Y162.918 E3.17424
G1 X93.019 Y162.406 E3.18379
G1 X93.468 Y161.931 E3.19335
G1 X93.958 Y161.499 E3.20290
G1 X94.485 Y161.112 E3.21245
G1 X95.043 Y160.774 E3.22200
G1 X95.457 Y160.566 E3.22877
G1 X96.240 Y160.253 E3.24110
G1 X96.869 Y160.074 E3.25067
G1 X97.511 Y159.952 E3.26022
G1 X98.161 Y159.888 E3.26976
G1 X98.623 Y159.878 E3.27652
G1 X99.275 Y159.913 E3.28606
G1 X99.922 Y160.006 E3.29562
G1 X100.558 Y160.156 E3.30517
G1 X101.178 Y160.363 E3.31473
G1 X101.777 Y160.623 E3.32428
G1 X102.350 Y160.937 E3.33384
G1 X102.894 Y161.300 E3.34339
G1 X103.403 Y161.710 E3.35295
G1 X103.830 Y162.122 E3.36162
G1 X103.873 Y162.163 F7800.000
G1 E1.36162 F2400.00000
G92 E0
G1 X112.730 Y152.039 F7800.000
G1 E2.00000 F2400.00000
G1 F1200.000
G1 X112.435 Y151.780 E2.00574
G1 X112.189 Y151.475 E2.01147
G1 X111.998 Y151.132 E2.01721
G1 X111.867 Y150.762 E2.02295
G1 X111.801 Y150.375 E2.02869
G1 X111.801 Y149.983 E2.03442
G1 X111.867 Y149.596 E2.04016
G1 X111.998 Y149.226 E2.04590
G1 X112.189 Y148.884 E2.05163
G1 X112.436 Y148.578 E2.05737
G1 X112.730 Y148.319 E2.06311
G1 X113.064 Y148.113 E2.06885
G1 X113.428 Y147.967 E2.07458
G1 X113.812 Y147.884 E2.08032
G1 X114.204 Y147.868 E2.08606
G1 X114.593 Y147.918 E2.09179
G1 X114.968 Y148.032 E2.09753
G1 X115.319 Y148.209 E2.10327
G1 X115.634 Y148.442 E2.10901
G1 X115.906 Y148.726 E2.11474
G1 X116.125 Y149.051 E2.12048
G1 X116.287 Y149.408 E2.12622
G1 X116.386 Y149.788 E2.13195
G1 X116.419 Y150.179 E2.13769
G1 X116.386 Y150.570 E2.14343
G1 X116.287 Y150.950 E2.14916
G1 X116.125 Y151.307 E2.15490
G1 X115.906 Y151.633 E2.16064
G1 X115.634 Y151.916 E2.16638
G1 X115.319 Y152.149 E2.17211
G1 X114.968 Y152.326 E2.17785
G1 X114.593 Y152.441 E2.18359
G1 X114.204 Y152.491 E2.18932
G1 X113.812 Y152.474 E2.19506
G1 X113.428 Y152.391 E2.20080
G1 X113.064 Y152.245 E2.20654
G1 X112.781 Y152.071 E2.21140
G1 X112.847 Y151.881 F7800.000
G1 F1200.000
G1 X112.577 Y151.644 E2.21665
G1 X112.351 Y151.365 E2.22190
G1 X112.176 Y151.051 E2.22715
G1 X112.057 Y150.713 E2.23240
G1 X111.996 Y150.359 E2.23765
G1 X111.996 Y149.999 E2.24290
G1 X112.057 Y149.646 E2.24815
G1 X112.176 Y149.307 E2.25340
G1 X112.351 Y148.993 E2.25865
G1 X112.577 Y148.714 E2.26390
G1 X112.847 Y148.477 E2.26916
G1 X113.153 Y148.288 E2.27441
G1 X113.486 Y148.154 E2.27966
G1 X113.837 Y148.079 E2.28491
G1 X114.196 Y148.064 E2.29016
G1 X114.552 Y148.109 E2.29541
G1 X114.895 Y148.214 E2.30066
G1 X115.216 Y148.376 E2.30591
G1 X115.505 Y148.590 E2.31116
G1 X115.753 Y148.849 E2.31641
G1 X115.954 Y149.146 E2.32166
G1 X116.102 Y149.474 E2.32692
G1 X116.193 Y149.821 E2.33217
G1 X116.223 Y150.179 E2.33742
G1 X116.193 Y150.537 E2.34267
G1 X116.102 Y150.885 E2.34792
G1 X115.954 Y151.212 E2.35317
G1 X115.753 Y151.509 E2.35842
G1 X115.505 Y151.769 E2.36367
G1 X115.216 Y151.982 E2.36892
G1 X114.895 Y152.144 E2.37417
G1 X114.552 Y152.249 E2.37942
G1 X114.196 Y152.295 E2.38467
G1 X113.837 Y152.279 E2.38993
G1 X113.486 Y152.204 E2.39518
G1 X113.152 Y152.070 E2.40043
G1 X112.898 Y151.913 E2.40480
G1 X112.847 Y151.881 F7800.000
G1 E0.40480 F2400.00000
G92 E0
G1 X112.274 Y152.583 F7800.000
G1 X108.262 Y155.822 F7800.000
G1 X106.925 Y155.648 F7800.000
G1 X103.187 Y151.689 F7800.000
G1 X104.014 Y147.719 F7800.000
G1 X105.988 Y142.004 F7800.000
G1 X108.854 Y139.544 F7800.000
G1 X111.512 Y137.641 F7800.000
G1 X114.200 Y135.957 F7800.000
G1 X117.441 Y134.219 F7800.000
G1 X118.152 Y130.388 F7800.000
G1 X118.805 Y124.736 F7800.000
G1 X118.977 Y119.932 F7800.000
G1 X118.845 Y116.017 F7800.000
G1 X117.294 Y114.988 F7800.000
G1 X114.235 Y104.999 F7800.000
G1 X114.205 Y104.279 F7800.000
G1 E2.00000 F2400.00000
G1 F1200.000
G1 X113.813 Y104.263 E2.00574
G1 X113.429 Y104.180 E2.01147
G1 X113.065 Y104.034 E2.01721
G1 X112.731 Y103.828 E2.02295
G1 X112.436 Y103.569 E2.02869
G1 X112.190 Y103.263 E2.03442
G1 X111.998 Y102.921 E2.04016
G1 X111.868 Y102.551 E2.04590
G1 X111.801 Y102.164 E2.05163
G1 X111.801 Y101.772 E2.05737
G1 X111.868 Y101.385 E2.06311
G1 X111.998 Y101.015 E2.06885
G1 X112.190 Y100.672 E2.07458
G1 X112.436 Y100.367 E2.08032
G1 X112.731 Y100.108 E2.08606
G1 X113.065 Y99.902 E2.09179
G1 X113.429 Y99.756 E2.09753
G1 X113.813 Y99.673 E2.10327
G1 X114.205 Y99.657 E2.10901
G1 X114.594 Y99.706 E2.11474
G1 X114.969 Y99.821 E2.12048
G1 X115.320 Y99.998 E2.12622
G1 X115.635 Y100.231 E2.13195
G1 X115.907 Y100.515 E2.13769
G1 X116.126 Y100.840 E2.14343
G1 X116.288 Y101.197 E2.14917
G1 X116.387 Y101.577 E2.15490
G1 X116.420 Y101.968 E2.16064
G1 X116.387 Y102.359 E2.16638
G1 X116.288 Y102.739 E2.17211
G1 X116.126 Y103.096 E2.17785
G1 X115.907 Y103.421 E2.18359
G1 X115.635 Y103.705 E2.18932
G1 X115.320 Y103.938 E2.19506
G1 X114.969 Y104.115 E2.20080
G1 X114.594 Y104.230 E2.20654
G1 X114.264 Y104.272 E2.21140
G1 X114.196 Y104.084 F7800.000
G1 F1200.000
G1 X113.838 Y104.068 E2.21665
G1 X113.487 Y103.993 E2.22190
G1 X113.153 Y103.859 E2.22715
G1 X112.847 Y103.670 E2.23240
G1 X112.578 Y103.433 E2.23765
G1 X112.352 Y103.154 E2.24290
G1 X112.177 Y102.840 E2.24815
G1 X112.057 Y102.501 E2.25340
G1 X111.997 Y102.148 E2.25865
G1 X111.997 Y101.788 E2.26390
G1 X112.057 Y101.434 E2.26916
G1 X112.177 Y101.096 E2.27441
G1 X112.352 Y100.782 E2.27966
G1 X112.578 Y100.503 E2.28491
G1 X112.848 Y100.266 E2.29016
G1 X113.153 Y100.077 E2.29541
G1 X113.487 Y99.943 E2.30066
G1 X113.838 Y99.868 E2.30591
G1 X114.196 Y99.852 E2.31116
G1 X114.553 Y99.898 E2.31641
G1 X114.896 Y100.003 E2.32166
G1 X115.217 Y100.165 E2.32692
G1 X115.506 Y100.379 E2.33217
G1 X115.754 Y100.638 E2.33742
G1 X115.955 Y100.935 E2.34267
G1 X116.103 Y101.263 E2.34792
G1 X116.194 Y101.610 E2.35317
G1 X116.224 Y101.968 E2.35842
G1 X116.194 Y102.326 E2.36367
G1 X116.103 Y102.673 E2.36892
G1 X115.955 Y103.001 E2.37417
G1 X115.754 Y103.298 E2.37942
G1 X115.505 Y103.558 E2.38467
G1 X115.217 Y103.771 E2.38993
G1 X114.896 Y103.933 E2.39518
G1 X114.553 Y104.038 E2.40043
G1 X114.256 Y104.076 E2.40480
G1 X114.196 Y104.084 F7800.000
G1 E0.40480 F2400.00000
G92 E0
G1 X114.235 Y104.999 F7800.000
G1 X112.799 Y111.662 F7800.000
G1 X109.963 Y108.921 F7800.000
G1 X108.136 Y106.618 F7800.000
G1 X106.351 Y103.461 F7800.000
G1 X105.274 Y100.661 F7800.000
G1 X104.614 Y98.407 F7800.000
G1 X105.177 Y96.155 F7800.000
G1 X106.520 Y92.641 F7800.000
G1 X109.644 Y87.509 F7800.000
G1 X109.774 Y84.390 F7800.000
G1 X110.318 Y79.163 F7800.000
G1 X111.216 Y74.152 F7800.000
