; generated by Slic3r 1.3.1-dev (Build 4f5b935ecf1335755d607ec38395bd94106daa7f) on 2019-12-18 at 17:46:36

; external perimeters extrusion width = 0.44mm (2.22mm^3/s)
; perimeters extrusion width = 0.56mm (4.14mm^3/s)
; infill extrusion width = 0.50mm (4.11mm^3/s)
; solid infill extrusion width = 0.26mm (1.52mm^3/s)
; top infill extrusion width = 0.26mm (1.09mm^3/s)

M107
G92 E0
M190 S60 ; set bed temperature and wait for it to be reached
M104 S200 ; set temperature
G90                    ;absolute positioning
G28 ; home all axes
G1 Z5 F5000 ; lift nozzle

; Filament gcode

M109 S200 ; set temperature and wait for it to be reached
G21 ; set units to millimeters
G90 ; use absolute coordinates
M82 ; use absolute distances for extrusion
G92 E0
;LAYER 0 at 0.18mm
M117 printing layer 0 at 0.18mm
G1 Z0.180 F7800.000
G1 E-2.00000 F2400.00000
G92 E0
G1 X92.348 Y50.528 F7800.000
G1 E2.00000 F2400.00000
M201 X2000 Y2000
M204 P2000 T2000
G1 F1200.000
G1 X94.116 Y48.873 E2.03541
G1 X97.832 Y47.184 E2.09508
G1 X99.395 Y46.846 E2.11846
G1 X123.376 Y46.850 E2.46909
G1 X125.058 Y47.245 E2.49435
G1 X126.667 Y48.770 E2.52676
G1 X127.783 Y50.782 E2.56040
G1 X128.645 Y52.410 E2.58733
G1 X129.839 Y54.770 E2.62600
G1 X131.059 Y57.289 E2.66692
G1 X131.411 Y58.882 E2.69078
G1 X131.411 Y161.116 E4.18551
G1 X131.058 Y162.709 E4.20936
G1 X130.930 Y162.985 E4.21382
G1 X129.419 Y166.074 E4.26409
G1 X128.675 Y167.531 E4.28800
G1 X127.779 Y169.224 E4.31602
G1 X126.665 Y171.232 E4.34959
G1 X125.493 Y172.501 E4.37485
G1 X123.374 Y173.150 E4.40724
G1 X96.626 Y173.150 E4.79833
G1 X94.943 Y172.756 E4.82359
G1 X93.335 Y171.232 E4.85598
G1 X92.220 Y169.222 E4.88959
G1 X91.327 Y167.534 E4.91751
G1 X89.879 Y164.659 E4.96458
G1 X88.942 Y162.709 E4.99621
G1 X88.589 Y161.116 E5.02007
G1 X88.589 Y58.882 E6.51479
G1 X88.932 Y57.310 E6.53833
G1 X90.113 Y54.863 E6.57805
G1 X90.752 Y53.586 E6.59892
G1 X92.320 Y50.581 E6.64848
G1 X92.521 Y50.620 F7800.000
G1 F1200.000
G1 X94.197 Y49.051 E6.68206
G1 X97.913 Y47.362 E6.74173
G1 X99.395 Y47.041 E6.76390
G1 X123.376 Y47.045 E7.11453
G1 X125.011 Y47.440 E7.13913
G1 X126.497 Y48.866 E7.16924
G1 X127.612 Y50.876 E7.20285
G1 X128.471 Y52.499 E7.22969
G1 X129.664 Y54.856 E7.26832
G1 X130.881 Y57.372 E7.30917
G1 X131.216 Y58.882 E7.33180
G1 X131.216 Y161.116 E8.82652
G1 X130.881 Y162.626 E8.84914
G1 X130.753 Y162.903 E8.85360
G1 X129.244 Y165.987 E8.90380
G1 X128.501 Y167.442 E8.92768
G1 X127.608 Y169.130 E8.95561
G1 X126.495 Y171.136 E8.98914
G1 X125.346 Y172.364 E9.01373
G1 X123.374 Y172.955 E9.04383
G1 X96.626 Y172.955 E9.43492
G1 X94.991 Y172.561 E9.45951
G1 X93.505 Y171.136 E9.48960
G1 X92.391 Y169.128 E9.52317
G1 X91.500 Y167.445 E9.55101
G1 X90.054 Y164.572 E9.59803
G1 X89.119 Y162.626 E9.62960
G1 X88.784 Y161.116 E9.65222
G1 X88.784 Y58.882 E11.14695
G1 X89.110 Y57.391 E11.16926
G1 X90.289 Y54.948 E11.20892
G1 X90.926 Y53.673 E11.22976
G1 X92.492 Y50.673 E11.27924
G1 X92.693 Y50.713 F7800.000
G1 F1200.000
G1 X94.278 Y49.228 E11.31099
G1 X97.994 Y47.540 E11.37066
G1 X99.395 Y47.236 E11.39163
G1 X123.376 Y47.241 E11.74225
G1 X124.963 Y47.635 E11.76616
G1 X126.327 Y48.962 E11.79399
G1 X127.441 Y50.971 E11.82756
G1 X128.298 Y52.588 E11.85432
G1 X129.489 Y54.943 E11.89290
G1 X130.704 Y57.454 E11.93369
G1 X131.020 Y58.882 E11.95508
G1 X131.020 Y161.116 E13.44981
G1 X130.704 Y162.544 E13.47120
G1 X130.576 Y162.820 E13.47565
G1 X129.069 Y165.901 E13.52579
G1 X128.327 Y167.353 E13.54963
G1 X127.436 Y169.035 E13.57746
G1 X126.325 Y171.039 E13.61096
G1 X125.200 Y172.226 E13.63487
G1 X123.374 Y172.760 E13.66268
G1 X96.626 Y172.760 E14.05377
G1 X95.039 Y172.365 E14.07767
G1 X93.675 Y171.040 E14.10548
G1 X92.562 Y169.033 E14.13902
G1 X91.674 Y167.356 E14.16678
G1 X90.229 Y164.486 E14.21376
G1 X89.296 Y162.544 E14.24526
G1 X88.980 Y161.116 E14.26665
G1 X88.980 Y58.882 E15.76137
G1 X89.287 Y57.472 E15.78247
G1 X90.465 Y55.034 E15.82206
G1 X91.101 Y53.761 E15.84287
G1 X92.664 Y50.766 E15.89227
G1 X92.865 Y50.805 F7800.000
G1 F1200.000
G1 X94.359 Y49.406 E15.92219
G1 X98.074 Y47.718 E15.98186
G1 X99.395 Y47.432 E16.00161
G1 X123.376 Y47.436 E16.35224
G1 X124.913 Y47.830 E16.37543
G1 X126.157 Y49.058 E16.40100
G1 X127.270 Y51.065 E16.43454
G1 X128.124 Y52.677 E16.46122
G1 X129.314 Y55.029 E16.49976
G1 X130.527 Y57.536 E16.54048
G1 X130.825 Y58.883 E16.56063
G1 X130.825 Y161.116 E18.05535
G1 X130.527 Y162.462 E18.07551
G1 X130.378 Y162.782 E18.08068
G1 X128.894 Y165.814 E18.13003
G1 X128.153 Y167.264 E18.15384
G1 X127.265 Y168.941 E18.18158
G1 X126.155 Y170.943 E18.21505
G1 X125.055 Y172.086 E18.23825
G1 X123.374 Y172.564 E18.26380
G1 X96.626 Y172.564 E18.65488
G1 X95.089 Y172.170 E18.67808
G1 X93.845 Y170.943 E18.70362
G1 X92.734 Y168.939 E18.73713
G1 X91.848 Y167.267 E18.76480
G1 X90.404 Y164.399 E18.81174
G1 X89.473 Y162.462 E18.84317
G1 X89.175 Y161.116 E18.86333
G1 X89.175 Y58.882 E20.35805
G1 X89.465 Y57.554 E20.37793
G1 X90.640 Y55.119 E20.41746
G1 X91.276 Y53.848 E20.43823
G1 X92.837 Y50.858 E20.48755
G1 E18.48755 F2400.00000
G92 E0
G1 X111.605 Y156.820 F7800.000
G1 E2.00000 F2400.00000
G1 F1200.000
G1 X111.801 Y157.110 E2.00512
G1 X111.946 Y157.429 E2.01023
G1 X112.034 Y157.767 E2.01535
G1 X112.064 Y158.116 E2.02047
G1 X112.034 Y158.465 E2.02559
G1 X111.946 Y158.804 E2.03070
G1 X111.801 Y159.123 E2.03582
G1 X111.605 Y159.412 E2.04094
G1 X111.363 Y159.665 E2.04605
G1 X111.082 Y159.873 E2.05117
G1 X110.769 Y160.031 E2.05629
G1 X110.435 Y160.133 E2.06141
G1 X110.088 Y160.178 E2.06652
G1 X109.738 Y160.163 E2.07164
G1 X109.396 Y160.089 E2.07676
G1 X109.071 Y159.959 E2.08187
G1 X108.773 Y159.775 E2.08699
G1 X108.510 Y159.544 E2.09211
G1 X108.290 Y159.272 E2.09723
G1 X108.120 Y158.966 E2.10234
G1 X108.003 Y158.636 E2.10746
G1 X107.944 Y158.291 E2.11258
G1 X107.944 Y157.941 E2.11769
G1 X108.003 Y157.596 E2.12281
G1 X108.120 Y157.266 E2.12793
G1 X108.290 Y156.961 E2.13305
G1 X108.510 Y156.688 E2.13816
G1 X108.773 Y156.457 E2.14328
G1 X109.071 Y156.274 E2.14840
G1 X109.396 Y156.143 E2.15351
G1 X109.738 Y156.069 E2.15863
G1 X110.088 Y156.055 E2.16375
G1 X110.435 Y156.099 E2.16887
G1 X110.769 Y156.201 E2.17398
G1 X111.082 Y156.359 E2.17910
G1 X111.363 Y156.567 E2.18422
G1 X111.564 Y156.777 E2.18846
G1 X111.453 Y156.943 F7800.000
G1 F1200.000
G1 X111.630 Y157.205 E2.19309
G1 X111.761 Y157.494 E2.19772
G1 X111.841 Y157.801 E2.20235
G1 X111.867 Y158.116 E2.20698
G1 X111.841 Y158.432 E2.21161
G1 X111.761 Y158.738 E2.21624
G1 X111.630 Y159.027 E2.22087
G1 X111.453 Y159.289 E2.22550
G1 X111.234 Y159.518 E2.23014
G1 X110.979 Y159.706 E2.23477
G1 X110.696 Y159.849 E2.23940
G1 X110.393 Y159.942 E2.24403
G1 X110.079 Y159.982 E2.24866
G1 X109.763 Y159.968 E2.25329
G1 X109.453 Y159.902 E2.25792
G1 X109.159 Y159.784 E2.26255
G1 X108.890 Y159.618 E2.26718
G1 X108.652 Y159.408 E2.27181
G1 X108.453 Y159.162 E2.27644
G1 X108.298 Y158.885 E2.28108
G1 X108.193 Y158.587 E2.28571
G1 X108.139 Y158.275 E2.29034
G1 X108.139 Y157.958 E2.29497
G1 X108.193 Y157.646 E2.29960
G1 X108.298 Y157.347 E2.30423
G1 X108.453 Y157.070 E2.30886
G1 X108.652 Y156.824 E2.31349
G1 X108.890 Y156.615 E2.31812
G1 X109.159 Y156.449 E2.32275
G1 X109.453 Y156.331 E2.32738
G1 X109.763 Y156.264 E2.33202
G1 X110.079 Y156.250 E2.33665
G1 X110.393 Y156.291 E2.34128
G1 X110.696 Y156.383 E2.34591
G1 X110.979 Y156.526 E2.35054
G1 X111.234 Y156.714 E2.35517
G1 X111.411 Y156.900 E2.35892
G1 X111.453 Y156.943 F7800.000
G1 E0.35892 F2400.00000
G92 E0
G1 X110.088 Y111.967 F7800.000
G1 E2.00000 F2400.00000
G1 F1200.000
G1 X109.738 Y111.952 E2.00512
G1 X109.396 Y111.878 E2.01023
G1 X109.071 Y111.748 E2.01535
G1 X108.773 Y111.564 E2.02047
G1 X108.510 Y111.333 E2.02559
G1 X108.290 Y111.061 E2.03070
G1 X108.120 Y110.755 E2.03582
G1 X108.003 Y110.425 E2.04094
G1 X107.944 Y110.080 E2.04605
G1 X107.944 Y109.730 E2.05117
G1 X108.003 Y109.385 E2.05629
G1 X108.120 Y109.055 E2.06141
G1 X108.290 Y108.750 E2.06652
G1 X108.510 Y108.477 E2.07164
G1 X108.773 Y108.246 E2.07676
G1 X109.071 Y108.063 E2.08187
G1 X109.396 Y107.932 E2.08699
G1 X109.738 Y107.858 E2.09211
G1 X110.088 Y107.843 E2.09723
G1 X110.435 Y107.888 E2.10234
G1 X110.769 Y107.990 E2.10746
G1 X111.082 Y108.148 E2.11258
G1 X111.363 Y108.356 E2.11769
G1 X111.605 Y108.609 E2.12281
G1 X111.801 Y108.899 E2.12793
G1 X111.946 Y109.218 E2.13305
G1 X112.034 Y109.556 E2.13816
G1 X112.064 Y109.905 E2.14328
G1 X112.034 Y110.254 E2.14840
G1 X111.946 Y110.593 E2.15351
G1 X111.801 Y110.911 E2.15863
G1 X111.605 Y111.201 E2.16375
G1 X111.363 Y111.454 E2.16887
G1 X111.082 Y111.662 E2.17398
G1 X110.769 Y111.820 E2.17910
G1 X110.435 Y111.922 E2.18422
G1 X110.147 Y111.959 E2.18846
G1 X110.079 Y111.771 F7800.000
G1 F1200.000
G1 X109.763 Y111.757 E2.19309
G1 X109.453 Y111.691 E2.19772
G1 X109.159 Y111.573 E2.20235
G1 X108.890 Y111.406 E2.20698
G1 X108.652 Y111.197 E2.21161
G1 X108.453 Y110.951 E2.21624
G1 X108.298 Y110.674 E2.22087
G1 X108.193 Y110.376 E2.22550
G1 X108.139 Y110.063 E2.23014
G1 X108.139 Y109.747 E2.23477
G1 X108.193 Y109.435 E2.23940
G1 X108.298 Y109.136 E2.24403
G1 X108.453 Y108.859 E2.24866
G1 X108.652 Y108.613 E2.25329
G1 X108.890 Y108.404 E2.25792
G1 X109.159 Y108.238 E2.26255
G1 X109.453 Y108.120 E2.26718
G1 X109.763 Y108.053 E2.27181
G1 X110.079 Y108.039 E2.27644
G1 X110.393 Y108.080 E2.28108
G1 X110.696 Y108.172 E2.28571
G1 X110.979 Y108.315 E2.29034
G1 X111.234 Y108.503 E2.29497
G1 X111.453 Y108.732 E2.29960
G1 X111.630 Y108.994 E2.30423
G1 X111.761 Y109.283 E2.30886
G1 X111.841 Y109.589 E2.31349
G1 X111.867 Y109.905 E2.31812
G1 X111.841 Y110.221 E2.32275
G1 X111.761 Y110.527 E2.32738
G1 X111.630 Y110.816 E2.33202
G1 X111.453 Y111.078 E2.33665
G1 X111.234 Y111.307 E2.34128
G1 X110.979 Y111.495 E2.34591
G1 X110.696 Y111.638 E2.35054
G1 X110.393 Y111.731 E2.35517
G1 X110.139 Y111.763 E2.35892
G1 X110.079 Y111.771 F7800.000
G1 E0.35892 F2400.00000
G92 E0
G1 X110.119 Y112.713 F7800.000
G1 X112.303 Y118.149 F7800.000
G1 X114.010 Y116.080 F7800.000
G1 X114.981 Y114.642 F7800.000
G1 X116.238 Y112.208 F7800.000
G1 X116.868 Y110.466 F7800.000
G1 X117.679 Y106.517 F7800.000
G1 X117.939 Y101.642 F7800.000
G1 X116.404 Y98.662 F7800.000
G1 X114.747 Y96.057 F7800.000
G1 X114.875 Y92.550 F7800.000
G1 X114.748 Y87.929 F7800.000
G1 X114.276 Y83.088 F7800.000
G1 X113.278 Y77.483 F7800.000
G1 X114.911 Y75.287 F7800.000
G1 X110.542 Y64.413 F7800.000
G1 X110.088 Y63.756 F7800.000
G1 E2.00000 F2400.00000
G1 F1200.000
G1 X109.738 Y63.741 E2.00512
G1 X109.396 Y63.667 E2.01023
G1 X109.071 Y63.537 E2.01535
G1 X108.773 Y63.353 E2.02047
G1 X108.510 Y63.122 E2.02559
G1 X108.290 Y62.849 E2.03070
G1 X108.120 Y62.544 E2.03582
G1 X108.003 Y62.214 E2.04094
G1 X107.944 Y61.869 E2.04605
G1 X107.944 Y61.519 E2.05117
G1 X108.003 Y61.174 E2.05629
G1 X108.120 Y60.844 E2.06141
G1 X108.290 Y60.538 E2.06652
G1 X108.510 Y60.266 E2.07164
G1 X108.773 Y60.035 E2.07676
G1 X109.071 Y59.851 E2.08187
G1 X109.396 Y59.721 E2.08699
G1 X109.738 Y59.647 E2.09211
G1 X110.088 Y59.632 E2.09723
G1 X110.435 Y59.677 E2.10234
G1 X110.769 Y59.779 E2.10746
G1 X111.082 Y59.937 E2.11258
G1 X111.363 Y60.145 E2.11769
G1 X111.605 Y60.398 E2.12281
G1 X111.801 Y60.688 E2.12793
G1 X111.946 Y61.007 E2.13305
G1 X112.034 Y61.345 E2.13816
G1 X112.064 Y61.694 E2.14328
G1 X112.034 Y62.043 E2.14840
G1 X111.946 Y62.381 E2.15351
G1 X111.801 Y62.700 E2.15863
G1 X111.605 Y62.990 E2.16375
G1 X111.363 Y63.243 E2.16887
G1 X111.082 Y63.451 E2.17398
G1 X110.769 Y63.609 E2.17910
G1 X110.435 Y63.711 E2.18422
G1 X110.147 Y63.748 E2.18846
G1 X110.079 Y63.560 F7800.000
G1 F1200.000
G1 X109.763 Y63.546 E2.19309
G1 X109.453 Y63.480 E2.19772
G1 X109.159 Y63.361 E2.20235
G1 X108.890 Y63.195 E2.20698
G1 X108.652 Y62.986 E2.21161
G1 X108.453 Y62.740 E2.21624
G1 X108.298 Y62.463 E2.22087
G1 X108.193 Y62.165 E2.22550
G1 X108.139 Y61.852 E2.23014
G1 X108.139 Y61.536 E2.23477
G1 X108.193 Y61.223 E2.23940
G1 X108.298 Y60.925 E2.24403
G1 X108.453 Y60.648 E2.24866
G1 X108.652 Y60.402 E2.25329
G1 X108.890 Y60.193 E2.25792
G1 X109.159 Y60.027 E2.26255
G1 X109.453 Y59.908 E2.26718
G1 X109.763 Y59.842 E2.27181
G1 X110.079 Y59.828 E2.27644
G1 X110.393 Y59.868 E2.28108
G1 X110.696 Y59.961 E2.28571
G1 X110.979 Y60.104 E2.29034
G1 X111.234 Y60.292 E2.29497
G1 X111.453 Y60.521 E2.29960
G1 X111.630 Y60.783 E2.30423
G1 X111.761 Y61.072 E2.30886
G1 X111.841 Y61.378 E2.31349
G1 X111.867 Y61.694 E2.31812
G1 X111.841 Y62.010 E2.32275
G1 X111.761 Y62.316 E2.32738
G1 X111.630 Y62.605 E2.33202
G1 X111.453 Y62.867 E2.33665
G1 X111.234 Y63.096 E2.34128
G1 X110.979 Y63.284 E2.34591
G1 X110.696 Y63.427 E2.35054
G1 X110.393 Y63.520 E2.35517
G1 X110.139 Y63.552 E2.35892
G1 X110.079 Y63.560 F7800.000
G1 E0.35892 F2400.00000
G92 E0
G1 X114.911 Y75.287 F7800.000
G1 X117.838 Y70.115 F7800.000
G1 X118.402 Y68.712 F7800.000
G1 X119.494 Y64.224 F7800.000
G1 X119.683 Y60.812 F7800.000
G1 X118.721 Y58.271 F7800.000
G1 X123.192 Y50.944 F7800.000
G1 E2.00000 F2400.00000
G1 F1200.000
G1 X124.196 Y52.755 E2.03028
G1 X125.003 Y54.278 E2.05548
G1 X126.170 Y56.584 E2.09327
G1 X127.317 Y58.955 E2.13178
G1 X127.320 Y105.979 E2.81930
G1 X126.808 Y106.336 E2.82843
G1 X126.019 Y106.948 E2.84303
G1 X125.260 Y107.597 E2.85763
G1 X124.533 Y108.281 E2.87223
G1 X123.840 Y109.000 E2.88683
G1 X123.182 Y109.751 E2.90143
G1 X122.560 Y110.533 E2.91602
G1 X121.977 Y111.343 E2.93062
G1 X121.434 Y112.181 E2.94522
G1 X120.931 Y113.043 E2.95982
G1 X120.471 Y113.929 E2.97442
G1 X120.053 Y114.836 E2.98901
G1 X119.679 Y115.762 E3.00361
G1 X119.350 Y116.705 E3.01821
G1 X119.067 Y117.662 E3.03281
G1 X118.830 Y118.632 E3.04741
G1 X118.639 Y119.612 E3.06201
G1 X118.496 Y120.600 E3.07660
G1 X118.400 Y121.594 E3.09120
G1 X118.352 Y122.591 E3.10580
G1 X118.352 Y123.590 E3.12040
G1 X118.400 Y124.587 E3.13500
G1 X118.496 Y125.581 E3.14960
G1 X118.639 Y126.569 E3.16419
G1 X118.830 Y127.549 E3.17879
G1 X119.067 Y128.519 E3.19339
G1 X119.350 Y129.477 E3.20799
G1 X119.679 Y130.419 E3.22259
G1 X120.053 Y131.345 E3.23718
G1 X120.471 Y132.252 E3.25178
G1 X120.931 Y133.138 E3.26638
G1 X121.434 Y134.001 E3.28098
G1 X121.977 Y134.838 E3.29558
G1 X122.560 Y135.649 E3.31018
G1 X123.182 Y136.431 E3.32477
G1 X123.840 Y137.182 E3.33937
G1 X124.533 Y137.900 E3.35397
G1 X125.260 Y138.585 E3.36857
G1 X126.019 Y139.234 E3.38317
G1 X126.808 Y139.846 E3.39777
G1 X127.320 Y140.203 E3.40690
G1 X127.317 Y161.043 E3.71161
G1 X126.451 Y162.845 E3.74083
G1 X125.030 Y165.667 E3.78703
G1 X124.193 Y167.248 E3.81319
G1 X123.190 Y169.056 E3.84342
G1 X96.810 Y169.056 E4.22913
G1 X95.807 Y167.248 E4.25936
G1 X94.970 Y165.667 E4.28552
G1 X93.549 Y162.845 E4.33171
G1 X92.683 Y161.043 E4.36094
G1 X92.681 Y109.617 E5.11283
G1 X93.575 Y109.034 E5.12843
G1 X94.380 Y108.440 E5.14305
G1 X95.154 Y107.810 E5.15765
G1 X95.897 Y107.143 E5.17225
G1 X96.607 Y106.441 E5.18684
G1 X97.283 Y105.706 E5.20144
G1 X97.923 Y104.939 E5.21604
G1 X98.525 Y104.143 E5.23064
G1 X99.088 Y103.319 E5.24524
G1 X99.612 Y102.468 E5.25984
G1 X100.093 Y101.594 E5.27443
G1 X100.534 Y100.695 E5.28906
G1 X100.929 Y99.781 E5.30363
G1 X101.280 Y98.846 E5.31823
G1 X101.586 Y97.896 E5.33283
G1 X101.847 Y96.932 E5.34743
G1 X102.061 Y95.957 E5.36202
G1 X102.227 Y94.972 E5.37662
G1 X102.347 Y93.981 E5.39122
G1 X102.419 Y92.985 E5.40582
G1 X102.443 Y91.987 E5.42042
G1 X102.419 Y90.989 E5.43501
G1 X102.347 Y89.993 E5.44961
G1 X102.227 Y89.001 E5.46421
G1 X102.061 Y88.017 E5.47881
G1 X101.847 Y87.042 E5.49341
G1 X101.586 Y86.078 E5.50801
G1 X101.280 Y85.127 E5.52260
G1 X100.929 Y84.193 E5.53720
G1 X100.534 Y83.278 E5.55177
G1 X100.093 Y82.380 E5.56640
G1 X99.612 Y81.505 E5.58100
G1 X99.088 Y80.655 E5.59559
G1 X98.525 Y79.830 E5.61019
G1 X97.923 Y79.034 E5.62479
G1 X97.283 Y78.268 E5.63939
G1 X96.607 Y77.533 E5.65399
G1 X95.897 Y76.831 E5.66859
G1 X95.154 Y76.164 E5.68318
G1 X94.380 Y75.533 E5.69778
G1 X93.575 Y74.940 E5.71240
G1 X92.681 Y74.357 E5.72800
G1 X92.683 Y58.956 E5.95317
G1 X94.412 Y55.418 E6.01075
G1 X95.888 Y52.594 E6.05734
G1 X96.366 Y52.502 E6.06446
G1 X96.941 Y52.338 E6.07320
G1 X97.501 Y52.134 E6.08192
G1 X98.044 Y51.888 E6.09063
G1 X98.567 Y51.603 E6.09934
